; generated by PrusaSlicer 2.5.2 on 2023-06-08 at 06:46:57 UTC


;
;

;
;
; 

; external perimeters extrusion width = 0.45mm
; perimeters extrusion width = 0.45mm
; infill extrusion width = 0.45mm
; solid infill extrusion width = 0.45mm
; top infill extrusion width = 0.40mm
; first layer extrusion width = 0.42mm

M73 P0 R49
M201 X2500 Y2500 Z400 E5000 ; sets maximum accelerations, mm/sec^2
M203 X180 Y180 Z12 E80 ; sets maximum feedrates, mm / sec
M204 P1250 R1250 T2500 ; sets acceleration (P, T) and retract acceleration (R), mm/sec^2
M205 X8.00 Y8.00 Z2.00 E10.00 ; sets the jerk limits, mm/sec
M205 S0 T0 ; sets the minimum extruding and travel feed rate, mm/sec
M107
;TYPE:Custom
M862.3 P "MINI" ; printer model check
G90 ; use absolute coordinates
M83 ; extruder relative mode
M104 S170 ; set extruder temp for bed leveling
M140 S60 ; set bed temp
M109 R170 ; wait for bed leveling temp
M190 S60 ; wait for bed temp
M204 T1250 ; set travel acceleration
G28 ; home all without mesh bed level
G29 ; mesh bed leveling 
M204 T2500 ; restore travel acceleration
M104 S215 ; set extruder temp
G92 E0
G1 Y-2 X179 F2400
G1 Z3 F720
M109 S215 ; wait for extruder temp

; intro line
G1 X170 F1000
G1 Z0.2 F720
G1 X110 E8 F900
G1 X40 E10 F700
G92 E0

M221 S95 ; set flow
G21 ; set units to millimeters
G90 ; use absolute coordinates
M83 ; use relative distances for extrusion
M900 K0.2 ; Filament gcode LA 1.5
; ; Filament gcode LA 1.0
M107
;LAYER_CHANGE
;Z:0.2
;HEIGHT:0.2
;BEFORE_LAYER_CHANGE
G92 E0.0
;0.2


G1 E-3.2 F4200
G1 Z.2 F720
;AFTER_LAYER_CHANGE
;0.2
G1 Z.4
G1 X76.343 Y41.417 F9000
G1 Z.2 F720
G1 E3.2 F2400
M204 P800
;TYPE:Skirt/Brim
;WIDTH:0.42
G1 F1200
G1 X76.855 Y40.587 E.0306
G1 X78.108 Y38.928 E.06519
G1 X78.775 Y38.197 E.03101
G1 X80.097 Y36.978 E.05639
G1 X81.801 Y35.745 E.06595
G1 X82.642 Y35.25 E.0306
G1 X84.262 Y34.473 E.05633
G1 X86.242 Y33.798 E.0656
G1 X87.204 Y33.568 E.03101
G1 X88.993 Y33.299 E.05673
G1 X91.085 Y33.237 E.0656
G1 X92.058 Y33.299 E.0306
G1 X93.848 Y33.568 E.05673
G1 X95.731 Y34.077 E.06117
G1 X97.668 Y34.867 E.0656
G1 X99.24 Y35.738 E.05633
G1 X100.05 Y36.282 E.0306
G1 X101.576 Y37.518 E.06158
G1 X103.027 Y39.025 E.0656
G1 X103.635 Y39.789 E.0306
G1 X104.632 Y41.286 E.05639
G1 X105.582 Y43.162 E.06595
G1 X106.201 Y44.862 E.05674
G1 X121.762 Y104.909 E1.9449
G1 X121.948 Y106.034 E.03577
G1 X122.094 Y107.914 E.05911
G1 X122.036 Y109.758 E.05785
G1 X121.907 Y110.877 E.03532
G1 X115.22 Y144.9 E1.08717
G1 X114.584 Y146.107 E.04278
G1 X112.888 Y146.817 E.05764
G1 X68.163 Y146.817 E1.40231
G1 X66.856 Y146.426 E.04278
G1 X65.831 Y144.9 E.05764
G1 X59.143 Y110.866 E1.08754
G1 X59.015 Y109.758 E.03495
G1 X58.959 Y107.881 E.05888
G1 X59.104 Y106.034 E.05808
G1 X59.277 Y104.973 E.03371
G1 X74.593 Y45.818 E1.91594
G1 X75.109 Y44.081 E.05681
M73 P1 R49
G1 X75.526 Y43.032 E.03539
G1 X76.315 Y41.471 E.05485
M204 P1000
; printing object propeller_mount_16_19.stl id:0 copy 0
G1 E-2.24 F4200
;WIPE_START
G1 F7200
G1 X76.855 Y40.587 E-.57396
G1 X77.223 Y40.1 E-.33804
;WIPE_END
G1 E-.048 F4200
G1 Z.4 F720
G1 X112.101 Y143.653 F9000
G1 Z.2 F720
G1 E3.2 F2400
M204 P800
;TYPE:Perimeter
;WIDTH:0.419999
G1 F1200
G1 X68.951 Y143.653 E1.35295
G1 X68.945 Y126.611 E.53433
G1 X68.922 Y126.096 E.01619
G1 X68.862 Y125.535 E.01767
G1 X68.753 Y124.929 E.01932
G1 X68.603 Y124.335 E.01919
G1 X68.365 Y123.635 E.0232
G1 X68.171 Y123.163 E.01601
G1 X67.919 Y122.649 E.01793
G1 X64.612 Y116.451 E.22027
G1 X63.735 Y114.892 E.05609
G1 X63.389 Y114.182 E.02477
G1 X63.083 Y113.454 E.02476
G1 X62.81 Y112.689 E.02545
G1 X62.585 Y111.922 E.02508
G1 X62.404 Y111.146 E.02496
G1 X62.267 Y110.358 E.02509
G1 X62.174 Y109.565 E.02504
G1 X62.125 Y108.768 E.02504
G1 X62.122 Y107.969 E.02504
G1 X62.163 Y107.171 E.02504
G1 X62.25 Y106.377 E.02505
G1 X62.38 Y105.589 E.02504
G1 X62.555 Y104.809 E.02509
G1 X62.774 Y104.041 E.02503
G1 X63.034 Y103.287 E.02501
G1 X63.337 Y102.548 E.02506
G1 X63.686 Y101.817 E.02538
G1 X76.319 Y77.159 E.86868
;WIDTH:0.465703
G1 X76.385 Y77.081 E.00361
;WIDTH:0.511407
G1 X76.451 Y77.002 E.004
;WIDTH:0.557111
G1 X76.516 Y76.924 E.00439
;WIDTH:0.602814
G1 X76.582 Y76.845 E.00478
G1 X78.47 Y73.117 E.19455
;WIDTH:0.563007
G1 X80.358 Y69.389 E.18072
;WIDTH:0.5232
G1 X82.245 Y65.66 E.16689
;WIDTH:0.486004
G1 X82.271 Y65.608 E.00214
;WIDTH:0.49539
G1 X82.474 Y65.106 E.02039
G1 X82.554 Y64.846 E.01024
;WIDTH:0.457695
G1 X82.633 Y64.585 E.00939
;WIDTH:0.419999
G1 X82.766 Y63.988 E.01918
G1 X82.832 Y63.486 E.01588
G1 X82.85 Y62.927 E.01754
G1 X82.815 Y62.369 E.01754
G1 X82.726 Y61.817 E.01754
G1 X82.584 Y61.276 E.01753
G1 X82.391 Y60.751 E.01754
G1 X82.148 Y60.247 E.01753
G1 X81.857 Y59.769 E.01754
G1 X81.517 Y59.317 E.01774
G1 X80.627 Y58.355 E.04109
G1 X80.122 Y57.748 E.02475
G1 X79.656 Y57.114 E.02469
G1 X79.228 Y56.453 E.02469
G1 X78.84 Y55.768 E.02469
G1 X78.493 Y55.061 E.02469
G1 X78.189 Y54.335 E.02469
G1 X77.931 Y53.596 E.02453
G1 X77.714 Y52.834 E.02485
G1 X77.545 Y52.065 E.02468
G1 X77.421 Y51.288 E.02469
G1 X77.344 Y50.504 E.02469
G1 X77.314 Y49.722 E.02453
G1 X77.33 Y48.93 E.02485
G1 X77.394 Y48.145 E.02468
G1 X77.504 Y47.366 E.02469
G1 X77.661 Y46.594 E.02469
G1 X77.861 Y45.838 E.02453
G1 X78.11 Y45.085 E.02485
G1 X78.401 Y44.354 E.02468
G1 X78.735 Y43.641 E.02469
G1 X79.111 Y42.949 E.02469
G1 X79.525 Y42.286 E.02453
G1 X79.984 Y41.639 E.02485
G1 X80.477 Y41.025 E.02468
G1 X81.005 Y40.442 E.02469
G1 X81.568 Y39.891 E.02469
G1 X82.162 Y39.375 E.02469
G1 X82.787 Y38.895 E.02469
G1 X83.438 Y38.453 E.02469
G1 X84.115 Y38.05 E.02469
G1 X84.814 Y37.689 E.02469
G1 X85.534 Y37.37 E.02469
G1 X86.272 Y37.094 E.02469
G1 X87.025 Y36.863 E.02469
G1 X87.79 Y36.677 E.02469
G1 X88.564 Y36.537 E.02469
G1 X89.346 Y36.444 E.02469
G1 X90.132 Y36.397 E.02468
G1 X90.925 Y36.397 E.02485
G1 X91.705 Y36.444 E.02453
G1 X92.487 Y36.537 E.02469
G1 X93.262 Y36.677 E.02469
G1 X94.027 Y36.863 E.02469
G1 X94.78 Y37.094 E.02469
G1 X95.517 Y37.37 E.02469
G1 X96.237 Y37.689 E.02469
G1 X96.937 Y38.05 E.02469
G1 X97.613 Y38.453 E.02469
G1 X98.265 Y38.895 E.02469
G1 X98.889 Y39.375 E.02469
G1 X99.484 Y39.891 E.02469
G1 X100.046 Y40.442 E.02469
G1 X100.575 Y41.025 E.02469
G1 X101.068 Y41.639 E.02469
G1 X101.524 Y42.281 E.02469
G1 X101.94 Y42.949 E.02469
G1 X102.317 Y43.641 E.02469
G1 X102.651 Y44.354 E.02469
G1 X102.942 Y45.086 E.02469
G1 X103.189 Y45.833 E.02469
G1 X103.391 Y46.594 E.02469
G1 X103.548 Y47.366 E.02469
G1 X103.658 Y48.145 E.02469
G1 X103.721 Y48.93 E.02469
G1 X103.738 Y49.717 E.02469
G1 X103.708 Y50.504 E.02469
G1 X103.631 Y51.288 E.02469
G1 X103.507 Y52.065 E.02469
G1 X103.337 Y52.834 E.02469
G1 X103.122 Y53.592 E.02469
G1 X102.862 Y54.335 E.02469
G1 X102.56 Y55.057 E.02453
G1 X102.212 Y55.768 E.02485
G1 X101.824 Y56.453 E.02468
G1 X101.396 Y57.114 E.02469
G1 X100.929 Y57.748 E.02469
G1 X100.424 Y58.355 E.02475
G1 X99.495 Y59.364 E.04301
G1 X99.164 Y59.815 E.01754
G1 X98.878 Y60.296 E.01754
G1 X98.639 Y60.801 E.01753
G1 X98.451 Y61.328 E.01754
G1 X98.314 Y61.87 E.01754
G1 X98.231 Y62.423 E.01754
G1 X98.201 Y62.982 E.01753
G1 X98.225 Y63.54 E.01754
G1 X98.303 Y64.094 E.01754
G1 X98.448 Y64.679 E.0189
;WIDTH:0.467522
G1 X98.511 Y64.933 E.00921
;WIDTH:0.515045
G1 X98.573 Y65.186 E.01025
G1 X98.806 Y65.66 E.02075
;WIDTH:0.523198
G1 X100.695 Y69.391 E.16698
;WIDTH:0.563005
G1 X102.584 Y73.121 E.18082
;WIDTH:0.602811
G1 X104.473 Y76.852 E.19466
G1 X104.538 Y76.93 E.00478
;WIDTH:0.557108
G1 X104.604 Y77.009 E.00439
;WIDTH:0.511405
G1 X104.67 Y77.087 E.004
;WIDTH:0.465702
G1 X104.736 Y77.166 E.00361
;WIDTH:0.419999
G1 X117.365 Y101.817 E.86845
G1 X117.714 Y102.548 E.02538
G1 X118.017 Y103.287 E.02506
G1 X118.278 Y104.041 E.02501
G1 X118.496 Y104.809 E.02503
G1 X118.671 Y105.589 E.02509
G1 X118.802 Y106.377 E.02504
G1 X118.888 Y107.171 E.02505
G1 X118.93 Y107.969 E.02504
G1 X118.926 Y108.768 E.02504
G1 X118.878 Y109.565 E.02504
G1 X118.785 Y110.358 E.02504
G1 X118.647 Y111.146 E.02509
G1 X118.467 Y111.922 E.02496
G1 X118.241 Y112.689 E.02507
G1 X117.969 Y113.454 E.02545
G1 X117.663 Y114.182 E.02477
G1 X117.317 Y114.892 E.02477
G1 X116.434 Y116.462 E.05648
G1 X113.126 Y122.663 E.22037
G1 X112.865 Y123.199 E.01867
G1 X112.626 Y123.789 E.01996
G1 X112.416 Y124.459 E.02201
G1 X112.29 Y124.97 E.01651
G1 X112.184 Y125.575 E.01925
G1 X112.121 Y126.186 E.01927
G1 X112.101 Y126.776 E.01853
G1 X112.101 Y143.593 E.52728
M204 P1000
G1 X112.478 Y144.03 F9000
M204 P800
;TYPE:External perimeter
G1 F1200
G1 X68.573 Y144.03 E1.3766
G1 X68.573 Y126.77 E.54119
G1 X68.547 Y126.135 E.01991
G1 X68.49 Y125.601 E.01684
G1 X68.387 Y125.02 E.0185
G1 X68.245 Y124.452 E.01836
G1 X68.062 Y123.893 E.01845
G1 X67.832 Y123.329 E.0191
G1 X67.585 Y122.825 E.01761
G1 X64.283 Y116.636 E.21993
G1 X63.401 Y115.067 E.05644
G1 X63.045 Y114.338 E.02544
G1 X62.731 Y113.59 E.02542
G1 X62.451 Y112.805 E.02612
G1 X62.22 Y112.018 E.02574
G1 X62.035 Y111.222 E.02563
G1 X61.893 Y110.412 E.02576
G1 X61.798 Y109.598 E.02571
G1 X61.748 Y108.78 E.0257
G1 X61.745 Y107.96 E.0257
G1 X61.787 Y107.141 E.0257
G1 X61.876 Y106.326 E.02571
G1 X62.01 Y105.517 E.02571
G1 X62.19 Y104.716 E.02575
G1 X62.414 Y103.928 E.0257
G1 X62.681 Y103.154 E.02567
G1 X62.993 Y102.395 E.02572
G1 X63.348 Y101.65 E.02588
G1 X81.882 Y65.474 E1.27446
G1 X82.266 Y64.499 E.03287
G1 X82.385 Y63.99 E.01639
G1 X82.455 Y63.471 E.01639
G1 X82.474 Y62.949 E.01639
G1 X82.443 Y62.427 E.01639
G1 X82.361 Y61.911 E.01639
G1 X82.23 Y61.404 E.01639
G1 X82.051 Y60.913 E.01639
G1 X81.825 Y60.442 E.01639
G1 X81.554 Y59.994 E.01639
G1 X81.241 Y59.573 E.01647
G1 X80.344 Y58.604 E.0414
G1 X79.825 Y57.981 E.02542
G1 X79.345 Y57.329 E.02539
G1 X78.905 Y56.649 E.02539
G1 X78.506 Y55.944 E.02539
G1 X78.15 Y55.217 E.02539
G1 X77.837 Y54.47 E.02539
G1 X77.572 Y53.71 E.02523
G1 X77.349 Y52.926 E.02555
G1 X77.174 Y52.136 E.02539
G1 X77.047 Y51.336 E.02539
G1 X76.968 Y50.53 E.02539
G1 X76.937 Y49.726 E.02523
G1 X76.954 Y48.911 E.02555
G1 X77.019 Y48.104 E.02539
G1 X77.132 Y47.302 E.02539
G1 X77.293 Y46.508 E.02539
G1 X77.5 Y45.73 E.02523
G1 X77.755 Y44.957 E.02555
G1 X78.055 Y44.204 E.02539
G1 X78.398 Y43.471 E.02539
G1 X78.785 Y42.759 E.02539
G1 X79.211 Y42.077 E.02523
G1 X79.683 Y41.412 E.02555
G1 X80.19 Y40.78 E.02539
G1 X80.734 Y40.18 E.02539
G1 X81.312 Y39.614 E.02539
G1 X81.924 Y39.083 E.02539
G1 X82.566 Y38.589 E.02539
G1 X83.236 Y38.134 E.02539
G1 X83.932 Y37.721 E.02539
G1 X84.651 Y37.349 E.02539
G1 X85.392 Y37.021 E.02539
G1 X86.15 Y36.737 E.02539
G1 X86.925 Y36.5 E.02539
G1 X87.711 Y36.308 E.02539
G1 X88.508 Y36.164 E.02539
G1 X89.312 Y36.068 E.02539
G1 X90.121 Y36.02 E.02539
G1 X90.936 Y36.02 E.02555
G1 X91.739 Y36.068 E.02523
G1 X92.543 Y36.164 E.02539
G1 X93.34 Y36.308 E.02539
G1 X94.127 Y36.5 E.02539
G1 X94.901 Y36.737 E.02539
G1 X95.66 Y37.021 E.02539
G1 X96.4 Y37.349 E.02539
G1 X97.12 Y37.721 E.02539
G1 X97.816 Y38.134 E.02539
G1 X98.486 Y38.589 E.02539
G1 X99.128 Y39.083 E.02539
G1 X99.739 Y39.614 E.02539
G1 X100.318 Y40.18 E.02539
G1 X100.862 Y40.78 E.02539
G1 X101.369 Y41.412 E.02539
G1 X101.838 Y42.072 E.02539
G1 X102.266 Y42.759 E.02539
G1 X102.653 Y43.471 E.02539
G1 X102.997 Y44.204 E.02539
G1 X103.296 Y44.957 E.02539
G1 X103.551 Y45.725 E.02539
G1 X103.758 Y46.508 E.02539
G1 X103.919 Y47.302 E.02539
G1 X104.033 Y48.104 E.02539
G1 X104.098 Y48.911 E.02539
G1 X104.115 Y49.721 E.02539
G1 X104.084 Y50.53 E.02539
G1 X104.005 Y51.336 E.02539
G1 X103.878 Y52.136 E.02539
G1 X103.703 Y52.926 E.02539
G1 X103.482 Y53.705 E.02539
G1 X103.214 Y54.47 E.02539
G1 X102.904 Y55.212 E.02523
G1 X102.546 Y55.944 E.02555
G1 X102.147 Y56.649 E.02539
G1 X101.706 Y57.329 E.02539
G1 X101.226 Y57.981 E.02539
G1 X100.708 Y58.604 E.02542
G1 X99.798 Y59.589 E.04204
G1 X99.487 Y60.009 E.0164
G1 X99.218 Y60.458 E.01639
G1 X98.994 Y60.93 E.01639
G1 X98.816 Y61.422 E.01639
G1 X98.687 Y61.928 E.01639
G1 X98.607 Y62.445 E.01639
G1 X98.577 Y62.967 E.01639
G1 X98.598 Y63.49 E.01639
G1 X98.67 Y64.008 E.01639
G1 X98.791 Y64.516 E.01639
G1 X98.96 Y65.011 E.01639
G1 X99.17 Y65.474 E.01594
G1 X117.704 Y101.65 E1.27446
G1 X118.059 Y102.395 E.02588
G1 X118.37 Y103.154 E.02572
G1 X118.638 Y103.928 E.02567
G1 X118.862 Y104.716 E.0257
G1 X119.042 Y105.517 E.02575
G1 X119.176 Y106.326 E.02571
G1 X119.264 Y107.141 E.02571
G1 X119.307 Y107.96 E.02571
G1 X119.303 Y108.78 E.02571
G1 X119.254 Y109.598 E.0257
G1 X119.158 Y110.412 E.02571
M73 P1 R48
G1 X119.017 Y111.222 E.02576
G1 X118.831 Y112.018 E.02563
G1 X118.6 Y112.805 E.02574
G1 X118.321 Y113.59 E.02612
G1 X118.006 Y114.338 E.02543
G1 X117.651 Y115.067 E.02544
G1 X116.766 Y116.64 E.05657
G1 X113.464 Y122.829 E.21996
G1 X113.214 Y123.341 E.01786
M73 P2 R48
G1 X112.985 Y123.906 E.01911
G1 X112.782 Y124.55 E.02118
G1 X112.661 Y125.035 E.01569
G1 X112.559 Y125.614 E.01842
G1 X112.498 Y126.199 E.01844
G1 X112.478 Y126.776 E.01811
G1 X112.478 Y143.97 E.53911
M204 P1000
G1 X112.132 Y143.83 F9000
G1 E-2.24 F4200
;WIPE_START
G1 F7200
G1 X110.832 Y143.973 E-.912
;WIPE_END
G1 E-.048 F4200
G1 Z.4 F720
G1 X115.635 Y111.785 F9000
G1 Z.2 F720
G1 E3.2 F2400
M204 P800
;TYPE:Perimeter
G1 F1200
G1 X115.197 Y112.09 E.01674
G1 X114.722 Y112.356 E.01706
G1 X114.187 Y112.592 E.01834
G1 X112.482 Y113.207 E.05684
G1 X110.784 Y113.769 E.05608
G1 X109.071 Y114.284 E.05608
G1 X107.345 Y114.754 E.05608
G1 X105.608 Y115.178 E.05608
G1 X103.845 Y115.559 E.05655
G1 X102.102 Y115.887 E.05561
G1 X100.336 Y116.172 E.05608
G1 X98.563 Y116.409 E.05608
G1 X96.785 Y116.599 E.05608
G1 X95.002 Y116.742 E.05608
G1 X93.216 Y116.837 E.05608
G1 X91.428 Y116.884 E.05608
G1 X89.639 Y116.885 E.05608
G1 X87.851 Y116.837 E.05608
G1 X86.065 Y116.743 E.05608
G1 X84.282 Y116.6 E.05608
G1 X82.503 Y116.411 E.05608
G1 X80.731 Y116.174 E.05608
G1 X78.965 Y115.89 E.05608
G1 X77.207 Y115.559 E.05608
G1 X75.458 Y115.182 E.05608
G1 X73.721 Y114.758 E.05608
G1 X71.995 Y114.288 E.05608
G1 X70.282 Y113.773 E.05608
G1 X68.584 Y113.212 E.05608
G1 X66.897 Y112.605 E.0562
G1 X66.399 Y112.391 E.01699
G1 X65.397 Y111.772 E.03694
G1 X64.998 Y111.435 E.01636
G1 X64.514 Y110.894 E.02278
G1 X64.143 Y110.436 E.01848
G1 X63.803 Y109.865 E.02085
G1 X63.55 Y109.272 E.0202
G1 X63.314 Y108.585 E.02279
G1 X63.195 Y107.986 E.01913
G1 X63.144 Y107.419 E.01784
G1 X63.149 Y106.852 E.01778
G1 X63.209 Y106.288 E.01778
G1 X63.315 Y105.78 E.01628
G1 X63.547 Y105.118 E.02199
G1 X63.819 Y104.458 E.02238
G1 X76.99 Y77.495 E.94087
;WIDTH:0.465703
G1 X77.013 Y77.395 E.00361
;WIDTH:0.511407
G1 X77.036 Y77.295 E.004
;WIDTH:0.557111
G1 X77.06 Y77.195 E.00439
;WIDTH:0.602814
G1 X77.083 Y77.096 E.00478
G1 X78.935 Y73.35 E.19455
;WIDTH:0.563007
G1 X80.787 Y69.604 E.18072
;WIDTH:0.5232
G1 X82.639 Y65.857 E.16689
;WIDTH:0.515046
G1 X82.879 Y65.387 E.02074
G1 X83.044 Y65.185 E.01025
;WIDTH:0.467523
G1 X83.21 Y64.982 E.00921
;WIDTH:0.419999
G1 X83.591 Y64.515 E.0189
G1 X84.399 Y63.785 E.03417
G1 X84.885 Y63.456 E.01839
G1 X85.378 Y63.191 E.01754
G1 X85.894 Y62.976 E.01753
G1 X86.428 Y62.811 E.01754
G1 X86.976 Y62.698 E.01754
G1 X88.153 Y62.637 E.03696
G1 X89.411 Y62.769 E.03966
G1 X90.155 Y62.811 E.02335
G1 X90.897 Y62.811 E.02328
G1 X91.641 Y62.769 E.02335
G1 X92.899 Y62.637 E.03966
G1 X93.465 Y62.636 E.01776
G1 X94.015 Y62.689 E.01733
G1 X94.57 Y62.798 E.01774
G1 X95.106 Y62.957 E.01754
G1 X95.624 Y63.168 E.01753
G1 X96.12 Y63.428 E.01754
G1 X96.587 Y63.734 E.01754
G1 X97.023 Y64.085 E.01754
G1 X97.424 Y64.475 E.01754
G1 X97.784 Y64.903 E.01754
;WIDTH:0.457693
G1 X97.945 Y65.122 E.00938
;WIDTH:0.495386
G1 X98.106 Y65.342 E.01024
G1 X98.386 Y65.806 E.02039
;WIDTH:0.486002
G1 X98.412 Y65.857 E.00214
;WIDTH:0.523198
G1 X100.265 Y69.606 E.16698
;WIDTH:0.563005
G1 X102.119 Y73.354 E.18082
;WIDTH:0.602811
G1 X103.972 Y77.102 E.19466
G1 X103.995 Y77.202 E.00478
;WIDTH:0.557108
G1 X104.019 Y77.302 E.00439
;WIDTH:0.511405
G1 X104.042 Y77.402 E.004
;WIDTH:0.465702
G1 X104.065 Y77.502 E.00361
;WIDTH:0.419999
G1 X117.328 Y104.65 E.94737
G1 X117.536 Y105.134 E.01653
G1 X117.713 Y105.679 E.01796
G1 X117.833 Y106.234 E.01778
G1 X117.903 Y107.242 E.03168
G1 X117.864 Y107.929 E.02159
G1 X117.764 Y108.487 E.01778
G1 X117.609 Y109.033 E.01778
