; generated by PrusaSlicer 2.5.2 on 2023-06-04 at 17:45:16 UTC


;
;

;
;
; 

; external perimeters extrusion width = 0.45mm
; perimeters extrusion width = 0.45mm
; infill extrusion width = 0.45mm
; solid infill extrusion width = 0.45mm
; top infill extrusion width = 0.40mm
; first layer extrusion width = 0.42mm

M73 P0 R50
M201 X2500 Y2500 Z400 E5000 ; sets maximum accelerations, mm/sec^2
M203 X180 Y180 Z12 E80 ; sets maximum feedrates, mm / sec
M204 P1250 R1250 T2500 ; sets acceleration (P, T) and retract acceleration (R), mm/sec^2
M205 X8.00 Y8.00 Z2.00 E10.00 ; sets the jerk limits, mm/sec
M205 S0 T0 ; sets the minimum extruding and travel feed rate, mm/sec
M107
;TYPE:Custom
M862.3 P "MINI" ; printer model check
G90 ; use absolute coordinates
M83 ; extruder relative mode
M104 S170 ; set extruder temp for bed leveling
M140 S60 ; set bed temp
M109 R170 ; wait for bed leveling temp
M190 S60 ; wait for bed temp
M204 T1250 ; set travel acceleration
G28 ; home all without mesh bed level
G29 ; mesh bed leveling 
M204 T2500 ; restore travel acceleration
M104 S215 ; set extruder temp
G92 E0
G1 Y-2 X179 F2400
G1 Z3 F720
M109 S215 ; wait for extruder temp

; intro line
G1 X170 F1000
G1 Z0.2 F720
G1 X110 E8 F900
G1 X40 E10 F700
G92 E0

M221 S95 ; set flow
G21 ; set units to millimeters
G90 ; use absolute coordinates
M83 ; use relative distances for extrusion
M900 K0.2 ; Filament gcode LA 1.5
; ; Filament gcode LA 1.0
M107
;LAYER_CHANGE
;Z:0.2
;HEIGHT:0.2
;BEFORE_LAYER_CHANGE
G92 E0.0
;0.2


G1 E-3.2 F4200
G1 Z.2 F720
;AFTER_LAYER_CHANGE
;0.2
G1 Z.4
G1 X75.817 Y41.392 F9000
G1 Z.2 F720
G1 E3.2 F2400
M204 P800
;TYPE:Skirt/Brim
;WIDTH:0.42
G1 F1200
G1 X76.329 Y40.562 E.0306
G1 X77.582 Y38.903 E.06519
G1 X78.249 Y38.172 E.03101
G1 X79.579 Y36.946 E.05674
G1 X81.275 Y35.72 E.0656
G1 X82.116 Y35.225 E.0306
G1 X83.738 Y34.447 E.05639
G1 X85.729 Y33.769 E.06595
G1 X86.678 Y33.543 E.0306
G1 X88.467 Y33.274 E.05673
G1 X90.559 Y33.212 E.0656
G1 X92.361 Y33.373 E.05674
G1 X93.322 Y33.543 E.0306
G1 X95.34 Y34.097 E.0656
G1 X97.143 Y34.842 E.06117
G1 X98.715 Y35.714 E.05639
G1 X99.535 Y36.264 E.03095
G1 X101.145 Y37.58 E.06519
G1 X101.849 Y38.274 E.031
G1 X103.024 Y39.651 E.05673
G1 X104.112 Y41.27 E.06117
G1 X105.056 Y43.137 E.0656
G1 X105.674 Y44.836 E.05668
G1 X121.236 Y104.884 E1.94496
G1 X121.422 Y106.009 E.03577
G1 X121.568 Y107.889 E.05911
G1 X121.511 Y109.733 E.05785
G1 X121.381 Y110.852 E.03532
G1 X114.695 Y144.875 E1.08717
G1 X114.058 Y146.082 E.04278
G1 X112.362 Y146.792 E.05764
G1 X67.638 Y146.792 E1.40231
G1 X66.331 Y146.401 E.04278
G1 X65.305 Y144.875 E.05764
G1 X58.617 Y110.841 E1.08753
G1 X58.489 Y109.733 E.03495
G1 X58.433 Y107.856 E.05888
G1 X58.578 Y106.009 E.05808
G1 X58.751 Y104.948 E.03371
G1 X74.067 Y45.793 E1.91594
G1 X74.583 Y44.056 E.05681
M73 P1 R49
G1 X75 Y43.007 E.03539
G1 X75.79 Y41.446 E.05485
M204 P1000
; printing object propeller_mount_16_19.stl id:0 copy 0
G1 E-2.24 F4200
;WIPE_START
G1 F7200
G1 X76.329 Y40.562 E-.57394
G1 X76.697 Y40.075 E-.33806
;WIPE_END
G1 E-.048 F4200
G1 Z.4 F720
G1 X108.536 Y114.262 F9000
G1 Z.2 F720
G1 E3.2 F2400
M204 P800
;TYPE:Perimeter
;WIDTH:0.419999
G1 F1200
G1 X106.82 Y114.729 E.05577
G1 X105.082 Y115.153 E.05608
G1 X103.319 Y115.534 E.05655
G1 X101.576 Y115.862 E.05561
G1 X99.81 Y116.147 E.05608
G1 X98.037 Y116.384 E.05608
G1 X97.35 Y116.457 E.02168
G1 X96.254 Y116.574 E.03455
G1 X94.476 Y116.716 E.05593
G1 X92.69 Y116.812 E.05608
G1 X90.902 Y116.859 E.05608
G1 X89.098 Y116.859 E.05655
G1 X87.325 Y116.812 E.05561
G1 X85.539 Y116.717 E.05608
G1 X83.756 Y116.575 E.05608
G1 X81.978 Y116.386 E.05608
G1 X80.205 Y116.149 E.05608
G1 X79.314 Y116.006 E.02828
G1 X78.439 Y115.865 E.0278
G1 X76.681 Y115.534 E.05608
G1 X74.933 Y115.157 E.05608
G1 X73.195 Y114.733 E.05608
G1 X71.469 Y114.263 E.05608
G1 X69.756 Y113.748 E.05608
G1 X68.058 Y113.187 E.05608
G1 X66.371 Y112.58 E.0562
G1 X65.873 Y112.366 E.01699
G1 X64.871 Y111.747 E.03694
G1 X64.473 Y111.41 E.01636
G1 X63.988 Y110.869 E.02278
G1 X63.618 Y110.411 E.01848
G1 X63.277 Y109.839 E.02085
G1 X63.024 Y109.247 E.0202
G1 X62.788 Y108.559 E.02279
G1 X62.669 Y107.961 E.01913
G1 X62.618 Y107.394 E.01784
G1 X62.623 Y106.827 E.01778
G1 X62.684 Y106.263 E.01778
G1 X62.789 Y105.755 E.01628
G1 X63.021 Y105.093 E.02199
G1 X63.293 Y104.433 E.02238
G1 X76.464 Y77.47 E.94087
;WIDTH:0.465703
G1 X76.487 Y77.37 E.00361
;WIDTH:0.511406
G1 X76.511 Y77.27 E.004
;WIDTH:0.557109
G1 X76.534 Y77.17 E.00439
;WIDTH:0.602812
G1 X76.557 Y77.071 E.00478
G1 X78.409 Y73.325 E.19455
;WIDTH:0.563006
G1 X80.261 Y69.578 E.18072
;WIDTH:0.523199
G1 X82.114 Y65.832 E.16688
;WIDTH:0.515046
G1 X82.354 Y65.362 E.02074
G1 X82.519 Y65.16 E.01025
;WIDTH:0.467523
G1 X82.684 Y64.957 E.00921
;WIDTH:0.419999
G1 X83.065 Y64.49 E.0189
G1 X83.462 Y64.096 E.01754
G1 X83.894 Y63.742 E.01754
G1 X84.359 Y63.431 E.01753
G1 X84.852 Y63.166 E.01754
G1 X85.368 Y62.951 E.01753
G1 X85.902 Y62.786 E.01754
G1 X86.45 Y62.673 E.01754
G1 X87.627 Y62.612 E.03696
G1 X88.885 Y62.744 E.03966
G1 X89.629 Y62.786 E.02335
G1 X90.371 Y62.786 E.02328
G1 X91.115 Y62.744 E.02335
G1 X92.373 Y62.612 E.03966
G1 X92.939 Y62.611 E.01776
G1 X93.496 Y62.665 E.01754
G1 X94.045 Y62.772 E.01754
G1 X94.581 Y62.932 E.01753
G1 X95.099 Y63.143 E.01754
G1 X95.594 Y63.403 E.01754
G1 X96.062 Y63.709 E.01754
G1 X96.498 Y64.06 E.01754
G1 X96.898 Y64.45 E.01754
G1 X97.259 Y64.878 E.01754
;WIDTH:0.457693
G1 X97.419 Y65.097 E.00938
;WIDTH:0.495386
G1 X97.58 Y65.317 E.01024
G1 X97.86 Y65.781 E.02039
;WIDTH:0.486001
G1 X97.886 Y65.832 E.00214
;WIDTH:0.523198
G1 X99.74 Y69.581 E.16698
;WIDTH:0.563005
G1 X101.593 Y73.329 E.18082
;WIDTH:0.602811
G1 X103.446 Y77.077 E.19466
G1 X103.469 Y77.177 E.00478
;WIDTH:0.557108
G1 X103.493 Y77.277 E.00439
;WIDTH:0.511405
G1 X103.516 Y77.377 E.004
;WIDTH:0.465702
G1 X103.539 Y77.477 E.00361
;WIDTH:0.419999
G1 X116.802 Y104.625 E.94737
G1 X117.01 Y105.109 E.01653
G1 X117.187 Y105.654 E.01796
G1 X117.308 Y106.209 E.01778
G1 X117.377 Y107.217 E.03168
G1 X117.338 Y107.904 E.02159
G1 X117.238 Y108.462 E.01778
G1 X117.084 Y109.008 E.01778
G1 X116.876 Y109.536 E.01778
G1 X116.619 Y110.041 E.01778
G1 X115.988 Y110.928 E.03412
G1 X115.569 Y111.371 E.01912
G1 X115.137 Y111.741 E.01784
G1 X114.671 Y112.065 E.01778
G1 X114.196 Y112.331 E.01706
G1 X113.662 Y112.567 E.01834
G1 X111.942 Y113.187 E.05731
G1 X110.258 Y113.744 E.05561
G1 X108.593 Y114.245 E.05451
M204 P1000
G1 X108.434 Y113.899 F9000
M204 P800
;TYPE:External perimeter
G1 F1200
G1 X106.721 Y114.366 E.05569
G1 X104.993 Y114.787 E.05577
G1 X103.249 Y115.164 E.05593
G1 X101.506 Y115.492 E.05561
G1 X99.748 Y115.775 E.05584
G1 X97.987 Y116.01 E.05569
G1 X96.217 Y116.199 E.05581
G1 X94.446 Y116.341 E.05572
G1 X92.67 Y116.435 E.05577
G1 X90.887 Y116.483 E.05592
G1 X89.113 Y116.483 E.05561
G1 X87.335 Y116.435 E.05577
G1 X85.557 Y116.341 E.05584
G1 X83.786 Y116.199 E.05569
G1 X82.018 Y116.011 E.05577
G1 X80.255 Y115.775 E.05577
G1 X78.499 Y115.493 E.05577
G1 X76.751 Y115.164 E.05576
G1 X75.012 Y114.788 E.05577
G1 X73.284 Y114.367 E.05577
G1 X71.568 Y113.9 E.05577
G1 X69.86 Y113.386 E.05592
G1 X68.176 Y112.829 E.05561
G1 X66.499 Y112.226 E.05589
G1 X66.023 Y112.02 E.01626
G1 X65.107 Y111.453 E.03378
G1 X64.716 Y111.122 E.01605
G1 X64.271 Y110.62 E.02104
G1 X63.934 Y110.206 E.01674
G1 X63.612 Y109.666 E.01969
G1 X63.38 Y109.125 E.01848
G1 X63.144 Y108.437 E.02279
G1 X63.04 Y107.891 E.01743
G1 X62.994 Y107.362 E.01664
G1 X63 Y106.832 E.01662
G1 X63.058 Y106.305 E.01662
G1 X63.168 Y105.786 E.01662
G1 X63.632 Y104.598 E.03999
G1 X82.481 Y66.012 E1.34648
G1 X82.726 Y65.566 E.01594
G1 X83.02 Y65.134 E.01639
G1 X83.354 Y64.732 E.01639
G1 X83.726 Y64.365 E.01639
G1 X84.132 Y64.035 E.01639
G1 X84.567 Y63.745 E.01639
G1 X85.029 Y63.499 E.01639
G1 X85.512 Y63.299 E.01639
G1 X86.012 Y63.147 E.01639
G1 X86.524 Y63.043 E.01639
G1 X87.107 Y63.01 E.01828
G1 X87.813 Y63.011 E.02214
G1 X88.855 Y63.12 E.03286
G1 X89.618 Y63.163 E.02397
G1 X90.382 Y63.163 E.02394
G1 X91.145 Y63.12 E.02397
G1 X92.412 Y62.987 E.03995
G1 X92.937 Y62.988 E.01647
G1 X93.458 Y63.04 E.01639
G1 X93.97 Y63.142 E.01639
G1 X94.471 Y63.293 E.01639
G1 X94.955 Y63.492 E.01639
G1 X95.417 Y63.736 E.01639
G1 X95.853 Y64.024 E.01639
G1 X96.26 Y64.353 E.01639
G1 X96.633 Y64.719 E.01639
G1 X96.969 Y65.12 E.01639
G1 X97.519 Y66.012 E.03287
G1 X116.463 Y104.791 E1.35321
G1 X116.664 Y105.258 E.01595
G1 X116.828 Y105.769 E.01681
G1 X116.939 Y106.287 E.01663
G1 X117 Y107.24 E.02995
G1 X116.963 Y107.872 E.01985
G1 X116.867 Y108.394 E.01662
G1 X116.721 Y108.904 E.01663
G1 X116.526 Y109.397 E.01662
G1 X116.283 Y109.868 E.01663
G1 X115.682 Y110.708 E.0324
G1 X115.298 Y111.109 E.01741
G1 X114.893 Y111.453 E.01664
G1 X114.457 Y111.754 E.01662
G1 X114.014 Y112.001 E.01591
G1 X113.512 Y112.221 E.01718
G1 X111.824 Y112.829 E.05626
G1 X110.14 Y113.386 E.05561
G1 X108.492 Y113.882 E.05396
M204 P1000
G1 X108.337 Y114.287 F9000
G1 E-2.24 F4200
;WIPE_START
G1 F7200
G1 X106.904 Y114.315 E-.912
;WIPE_END
G1 E-.048 F4200
G1 Z.4 F720
G1 X111.575 Y143.628 F9000
G1 Z.2 F720
G1 E3.2 F2400
M204 P800
;TYPE:Perimeter
G1 F1200
G1 X68.425 Y143.628 E1.35295
G1 X68.419 Y126.586 E.53434
G1 X68.396 Y126.07 E.01619
G1 X68.336 Y125.51 E.01766
G1 X68.227 Y124.904 E.01932
G1 X68.078 Y124.31 E.01919
G1 X67.839 Y123.61 E.0232
G1 X67.645 Y123.138 E.01601
G1 X67.393 Y122.624 E.01794
G1 X64.086 Y116.426 E.22027
G1 X63.209 Y114.867 E.05609
G1 X62.863 Y114.157 E.02477
G1 X62.557 Y113.429 E.02476
G1 X62.284 Y112.664 E.02545
G1 X62.059 Y111.897 E.02508
G1 X61.879 Y111.121 E.02496
G1 X61.741 Y110.333 E.02509
G1 X61.648 Y109.54 E.02504
G1 X61.6 Y108.743 E.02504
G1 X61.596 Y107.944 E.02504
G1 X61.638 Y107.146 E.02504
G1 X61.724 Y106.352 E.02504
G1 X61.854 Y105.564 E.02504
G1 X62.03 Y104.784 E.02509
G1 X62.248 Y104.016 E.02503
G1 X62.508 Y103.262 E.02501
G1 X62.812 Y102.523 E.02506
G1 X63.16 Y101.792 E.02538
G1 X75.793 Y77.134 E.86868
;WIDTH:0.465703
G1 X75.859 Y77.056 E.00361
;WIDTH:0.511406
G1 X75.925 Y76.977 E.004
;WIDTH:0.557109
G1 X75.991 Y76.899 E.00439
;WIDTH:0.602812
G1 X76.057 Y76.82 E.00478
G1 X77.944 Y73.092 E.19455
;WIDTH:0.563006
G1 X79.832 Y69.364 E.18072
;WIDTH:0.523199
G1 X81.72 Y65.635 E.16688
;WIDTH:0.486003
G1 X81.745 Y65.583 E.00214
;WIDTH:0.49539
G1 X81.948 Y65.081 E.02039
G1 X82.028 Y64.821 E.01024
;WIDTH:0.457695
G1 X82.107 Y64.56 E.00939
;WIDTH:0.419999
G1 X82.233 Y64.015 E.01754
G1 X82.306 Y63.461 E.01754
G1 X82.325 Y62.902 E.01753
G1 X82.289 Y62.344 E.01754
G1 X82.2 Y61.792 E.01754
G1 X82.057 Y61.247 E.01764
G1 X81.865 Y60.726 E.01743
G1 X81.622 Y60.222 E.01753
G1 X81.331 Y59.744 E.01754
G1 X80.993 Y59.294 E.01766
G1 X80.101 Y58.33 E.04118
G1 X79.596 Y57.723 E.02475
G1 X79.13 Y57.089 E.02469
G1 X78.702 Y56.428 E.02469
G1 X78.314 Y55.743 E.02469
G1 X77.967 Y55.036 E.02469
G1 X77.664 Y54.31 E.02469
G1 X77.405 Y53.571 E.02453
G1 X77.188 Y52.809 E.02485
G1 X77.019 Y52.04 E.02468
G1 X76.895 Y51.263 E.02469
G1 X76.818 Y50.479 E.02469
G1 X76.788 Y49.692 E.02469
G1 X76.805 Y48.905 E.02469
G1 X76.868 Y48.12 E.02469
G1 X76.978 Y47.341 E.02469
G1 X77.135 Y46.569 E.02469
G1 X77.337 Y45.808 E.02469
G1 X77.582 Y45.065 E.02453
G1 X77.875 Y44.329 E.02485
G1 X78.209 Y43.616 E.02468
G1 X78.585 Y42.924 E.02469
G1 X78.999 Y42.26 E.02453
G1 X79.458 Y41.614 E.02485
G1 X79.951 Y41 E.02468
G1 X80.48 Y40.417 E.02469
G1 X81.039 Y39.87 E.02453
G1 X81.637 Y39.35 E.02485
G1 X82.261 Y38.87 E.02468
G1 X82.912 Y38.428 E.02469
G1 X83.589 Y38.025 E.02469
G1 X84.289 Y37.664 E.02469
G1 X85.009 Y37.345 E.02469
G1 X85.746 Y37.069 E.02469
G1 X86.499 Y36.838 E.02469
G1 X87.264 Y36.652 E.02469
G1 X88.039 Y36.512 E.02469
G1 X88.82 Y36.419 E.02469
G1 X89.606 Y36.372 E.02468
G1 X90.399 Y36.372 E.02485
G1 X91.18 Y36.419 E.02453
G1 X91.961 Y36.512 E.02469
G1 X92.736 Y36.652 E.02469
G1 X93.501 Y36.838 E.02469
G1 X94.254 Y37.069 E.02469
G1 X94.992 Y37.345 E.02469
G1 X95.711 Y37.664 E.02469
G1 X96.411 Y38.025 E.02469
G1 X97.088 Y38.428 E.02469
G1 X97.739 Y38.87 E.02469
G1 X98.363 Y39.35 E.02469
G1 X98.958 Y39.866 E.02469
G1 X99.52 Y40.417 E.02469
G1 X100.049 Y41 E.02469
G1 X100.542 Y41.614 E.02469
G1 X100.998 Y42.256 E.02469
G1 X101.415 Y42.924 E.02469
G1 X101.791 Y43.616 E.02469
G1 X102.125 Y44.329 E.02469
G1 X102.416 Y45.06 E.02469
G1 X102.663 Y45.808 E.02469
G1 X102.865 Y46.569 E.02469
G1 X103.022 Y47.341 E.02469
G1 X103.132 Y48.12 E.02469
G1 X103.195 Y48.905 E.02469
G1 X103.212 Y49.692 E.02469
G1 X103.182 Y50.479 E.02469
G1 X103.105 Y51.263 E.02469
G1 X102.981 Y52.04 E.02469
G1 X102.812 Y52.809 E.02469
G1 X102.596 Y53.567 E.02469
G1 X102.336 Y54.31 E.02469
G1 X102.033 Y55.036 E.02469
G1 X101.686 Y55.743 E.02469
G1 X101.298 Y56.428 E.02469
G1 X100.87 Y57.089 E.02469
G1 X100.404 Y57.723 E.02469
G1 X99.899 Y58.33 E.02475
G1 X98.969 Y59.339 E.04301
G1 X98.638 Y59.79 E.01754
G1 X98.352 Y60.27 E.01754
G1 X98.114 Y60.776 E.01753
G1 X97.925 Y61.303 E.01754
G1 X97.789 Y61.845 E.01754
G1 X97.705 Y62.398 E.01754
G1 X97.675 Y62.957 E.01753
G1 X97.699 Y63.515 E.01754
G1 X97.777 Y64.069 E.01754
G1 X97.922 Y64.654 E.0189
;WIDTH:0.467522
G1 X97.985 Y64.908 E.00921
;WIDTH:0.515045
G1 X98.047 Y65.161 E.01025
G1 X98.28 Y65.635 E.02075
;WIDTH:0.523198
G1 X100.169 Y69.366 E.16698
;WIDTH:0.563005
G1 X102.058 Y73.096 E.18082
;WIDTH:0.602811
G1 X103.947 Y76.826 E.19466
G1 X104.013 Y76.905 E.00478
;WIDTH:0.557108
M73 P2 R49
G1 X104.079 Y76.984 E.00439
;WIDTH:0.511405
G1 X104.144 Y77.062 E.004
;WIDTH:0.465702
G1 X104.21 Y77.141 E.00361
;WIDTH:0.419999
G1 X116.84 Y101.792 E.86845
G1 X117.188 Y102.523 E.02538
G1 X117.492 Y103.262 E.02506
G1 X117.752 Y104.016 E.02501
G1 X117.97 Y104.784 E.02503
G1 X118.146 Y105.564 E.02509
G1 X118.276 Y106.352 E.02504
G1 X118.362 Y107.146 E.02504
G1 X118.404 Y107.944 E.02504
G1 X118.4 Y108.743 E.02504
G1 X118.352 Y109.54 E.02504
G1 X118.259 Y110.333 E.02504
G1 X118.122 Y111.12 E.02505
G1 X117.941 Y111.897 E.02501
G1 X117.716 Y112.664 E.02507
G1 X117.443 Y113.429 E.02545
G1 X117.137 Y114.157 E.02476
G1 X116.791 Y114.867 E.02477
G1 X115.908 Y116.437 E.05648
G1 X112.6 Y122.638 E.22037
G1 X112.339 Y123.174 E.01867
G1 X112.1 Y123.764 E.01996
G1 X111.888 Y124.441 E.02226
G1 X111.764 Y124.945 E.01626
G1 X111.659 Y125.55 E.01925
G1 X111.596 Y126.161 E.01927
G1 X111.575 Y126.751 E.01852
G1 X111.575 Y143.568 E.52728
M204 P1000
G1 X111.952 Y144.005 F9000
M204 P800
;TYPE:External perimeter
G1 F1200
G1 X68.048 Y144.005 E1.3766
G1 X68.048 Y126.745 E.54119
G1 X68.021 Y126.11 E.01992
G1 X67.965 Y125.576 E.01683
G1 X67.861 Y124.995 E.0185
G1 X67.719 Y124.427 E.01836
G1 X67.536 Y123.868 E.01845
G1 X67.306 Y123.304 E.0191
G1 X67.059 Y122.8 E.01761
G1 X63.757 Y116.611 E.21993
G1 X62.875 Y115.042 E.05644
G1 X62.519 Y114.313 E.02544
G1 X62.205 Y113.565 E.02542
G1 X61.926 Y112.78 E.02612
G1 X61.694 Y111.993 E.02574
G1 X61.509 Y111.197 E.02563
G1 X61.368 Y110.387 E.02576
G1 X61.272 Y109.573 E.02571
G1 X61.223 Y108.755 E.0257
G1 X61.219 Y107.935 E.02571
G1 X61.262 Y107.116 E.02571
G1 X61.35 Y106.301 E.02571
G1 X61.484 Y105.492 E.02571
G1 X61.664 Y104.691 E.02575
G1 X61.888 Y103.903 E.0257
G1 X62.156 Y103.129 E.02567
G1 X62.467 Y102.37 E.02572
G1 X62.822 Y101.625 E.02588
G1 X81.356 Y65.449 E1.27446
G1 X81.74 Y64.474 E.03287
G1 X81.859 Y63.965 E.01639
G1 X81.929 Y63.446 E.01639
G1 X81.948 Y62.924 E.01639
G1 X81.917 Y62.402 E.01639
G1 X81.835 Y61.886 E.01639
G1 X81.703 Y61.376 E.0165
G1 X81.525 Y60.888 E.01628
G1 X81.299 Y60.417 E.01639
G1 X81.029 Y59.969 E.01639
G1 X80.715 Y59.549 E.01644
G1 X79.818 Y58.579 E.04143
G1 X79.299 Y57.956 E.02542
G1 X78.819 Y57.304 E.02539
G1 X78.379 Y56.624 E.02539
G1 X77.98 Y55.919 E.02539
G1 X77.624 Y55.192 E.02539
G1 X77.311 Y54.445 E.02539
G1 X77.046 Y53.685 E.02523
G1 X76.823 Y52.901 E.02555
G1 X76.648 Y52.111 E.02539
G1 X76.521 Y51.311 E.02539
G1 X76.442 Y50.505 E.02539
G1 X76.411 Y49.696 E.02539
G1 X76.428 Y48.886 E.02539
G1 X76.493 Y48.079 E.02539
G1 X76.607 Y47.277 E.02539
G1 X76.767 Y46.483 E.02539
G1 X76.975 Y45.7 E.02539
G1 X77.228 Y44.936 E.02523
G1 X77.529 Y44.179 E.02556
G1 X77.873 Y43.446 E.02539
G1 X78.259 Y42.734 E.02539
