; generated by PrusaSlicer 2.5.2 on 2023-06-06 at 16:08:57 UTC


;
;

;
;
; 

; external perimeters extrusion width = 0.45mm
; perimeters extrusion width = 0.45mm
; infill extrusion width = 0.45mm
; solid infill extrusion width = 0.45mm
; top infill extrusion width = 0.40mm
; support material extrusion width = 0.35mm
; first layer extrusion width = 0.42mm

M73 P0 R27
M201 X2500 Y2500 Z400 E5000 ; sets maximum accelerations, mm/sec^2
M203 X180 Y180 Z12 E80 ; sets maximum feedrates, mm / sec
M204 P1250 R1250 T2500 ; sets acceleration (P, T) and retract acceleration (R), mm/sec^2
M205 X8.00 Y8.00 Z2.00 E10.00 ; sets the jerk limits, mm/sec
M205 S0 T0 ; sets the minimum extruding and travel feed rate, mm/sec
M107
;TYPE:Custom
M862.3 P "MINI" ; printer model check
G90 ; use absolute coordinates
M83 ; extruder relative mode
M104 S170 ; set extruder temp for bed leveling
M140 S60 ; set bed temp
M109 R170 ; wait for bed leveling temp
M190 S60 ; wait for bed temp
M204 T1250 ; set travel acceleration
G28 ; home all without mesh bed level
G29 ; mesh bed leveling 
M204 T2500 ; restore travel acceleration
M104 S215 ; set extruder temp
G92 E0
G1 Y-2 X179 F2400
G1 Z3 F720
M109 S215 ; wait for extruder temp

; intro line
G1 X170 F1000
G1 Z0.2 F720
G1 X110 E8 F900
G1 X40 E10 F700
G92 E0

M221 S95 ; set flow
G21 ; set units to millimeters
G90 ; use absolute coordinates
M83 ; use relative distances for extrusion
M900 K0.2 ; Filament gcode LA 1.5
; ; Filament gcode LA 1.0
M107
;LAYER_CHANGE
;Z:0.2
;HEIGHT:0.2
;BEFORE_LAYER_CHANGE
G92 E0.0
;0.2


G1 E-3.2 F4200
G1 Z.2 F720
;AFTER_LAYER_CHANGE
;0.2
G1 Z.4
G1 X100.56 Y56.237 F9000
G1 Z.2 F720
G1 E3.2 F2400
M204 P800
;TYPE:Skirt/Brim
;WIDTH:0.42
G1 F1200
G1 X100.991 Y55.629 E.02337
G1 X101.561 Y55.022 E.02611
G1 X102.381 Y54.391 E.03244
G1 X103.041 Y54.03 E.0236
G1 X104.02 Y53.678 E.03261
G1 X104.846 Y53.526 E.02634
M73 P1 R27
G1 X105.886 Y53.506 E.0326
G1 X106.619 Y53.605 E.0232
G1 X107.424 Y53.829 E.0262
G1 X108.107 Y54.124 E.02335
G1 X108.983 Y54.677 E.03245
G1 X109.61 Y55.232 E.02626
G1 X110.097 Y55.799 E.02344
G1 X110.546 Y56.498 E.02607
G1 X110.855 Y57.159 E.02285
G1 X126.712 Y100.884 E1.45834
G1 X126.855 Y101.694 E.0258
G1 X126.855 Y103.694 E.06271
G1 X126.463 Y105.001 E.04278
G1 X125.417 Y105.878 E.04278
G1 X124.477 Y106.071 E.03008
G1 X86.477 Y106.071 E1.19146
G1 X85.17 Y105.68 E.04278
G1 X84.294 Y104.634 E.04278
G1 X84.1 Y103.694 E.03008
G1 X84.1 Y101.694 E.06271
G1 X84.243 Y100.884 E.0258
G1 X100.098 Y57.163 E1.4582
G1 X100.533 Y56.291 E.03056
M204 P1000
; printing object rudder_mount.stl id:0 copy 0
G1 E-2.24 F4200
;WIPE_START
G1 F7200
G1 X100.991 Y55.629 E-.44599
G1 X101.561 Y55.022 E-.46139
G1 X101.567 Y55.017 E-.00462
;WIPE_END
G1 E-.048 F4200
G1 Z.4 F720
G1 X123.678 Y102.494 F9000
G1 Z.2 F720
G1 E3.2 F2400
M204 P800
;TYPE:Perimeter
;WIDTH:0.444381
G1 F1200
G1 X123.678 Y102.895 E.0134
G1 X108.062 Y102.895 E.5213
;WIDTH:0.452307
G1 X107.238 Y102.907 E.02804
;WIDTH:0.419999
G1 X104.039 Y102.907 E.1003
;WIDTH:0.448494
G1 X103.72 Y102.893 E.01077
;WIDTH:0.476988
G1 X103.401 Y102.879 E.01152
G1 X102.893 Y102.895 E.01836
;WIDTH:0.444381
G1 X87.277 Y102.895 E.5213
G1 X87.277 Y102.494 E.0134
G1 X102.893 Y102.494 E.5213
;WIDTH:0.478907
G1 X103.388 Y102.445 E.01802
G1 X103.638 Y102.326 E.01003
;WIDTH:0.449453
G1 X103.887 Y102.206 E.00936
;WIDTH:0.419999
G1 X104.328 Y101.855 E.01767
G1 X104.656 Y101.389 E.01786
G1 X104.827 Y100.888 E.01661
G1 X104.872 Y100.506 E.01205
G1 X104.869 Y63.063 E1.17401
G1 X104.795 Y62.587 E.0151
G1 X104.692 Y62.332 E.00862
G1 X104.843 Y62.374 E.0049
G1 X105.365 Y62.441 E.0165
G1 X105.692 Y62.428 E.01028
G1 X106.252 Y62.335 E.01779
G1 X106.132 Y62.694 E.01189
G1 X106.086 Y63.061 E.0116
G1 X106.083 Y100.506 E1.17406
G1 X106.147 Y100.981 E.01503
G1 X106.364 Y101.507 E.01784
G1 X106.713 Y101.941 E.01748
G1 X107.175 Y102.264 E.01767
;WIDTH:0.438567
G1 X107.706 Y102.454 E.01855
;WIDTH:0.444381
G1 X108.062 Y102.494 E.01195
G1 X123.618 Y102.494 E.5193
M204 P1000
G1 X124.067 Y102.104 F9000
M204 P800
;TYPE:External perimeter
;WIDTH:0.419999
G1 F1200
G1 X124.067 Y103.284 E.037
G1 X86.887 Y103.284 E1.16575
G1 X86.887 Y102.104 E.037
M73 P2 R27
G1 X102.893 Y102.104 E.50184
G1 X103.312 Y102.046 E.01327
G1 X103.731 Y101.863 E.01432
G1 X104.082 Y101.57 E.01433
G1 X104.336 Y101.19 E.01433
G1 X104.465 Y100.781 E.01346
G1 X104.495 Y100.506 E.00866
G1 X104.492 Y63.063 E1.17401
G1 X104.424 Y62.651 E.01309
;WIDTH:0.421496
G1 X104.225 Y62.251 E.01408
;WIDTH:0.429955
G1 X104.043 Y62.044 E.00887
G1 X103.511 Y61.64 E.02149
;WIDTH:0.427058
G1 X103.108 Y61.238 E.01818
G1 X102.791 Y60.778 E.01782
;WIDTH:0.426001
G1 X102.562 Y60.268 E.01782
;WIDTH:0.423573
G1 X102.424 Y59.707 E.01829
;WIDTH:0.419778
G1 X102.398 Y59.128 E.01815
;WIDTH:0.425058
G1 X102.465 Y58.612 E.01655
;WIDTH:0.426911
G1 X102.634 Y58.078 E.01787
G1 X102.895 Y57.585 E.01782
;WIDTH:0.426318
G1 X103.241 Y57.145 E.01783
;WIDTH:0.424116
G1 X103.66 Y56.774 E.01774
;WIDTH:0.420518
G1 X104.233 Y56.449 E.02069
;WIDTH:0.416566
G1 X104.861 Y56.252 E.02044
;WIDTH:0.418939
G1 X105.515 Y56.182 E.02058
;WIDTH:0.425731
G1 X106.051 Y56.238 E.01713
G1 X106.589 Y56.391 E.01782
;WIDTH:0.42316
G1 X107.118 Y56.655 E.01868
;WIDTH:0.419235
G1 X107.576 Y57.009 E.01812
;WIDTH:0.425341
G1 X107.918 Y57.384 E.01615
;WIDTH:0.427035
G1 X108.218 Y57.856 E.01787
G1 X108.427 Y58.374 E.01782
;WIDTH:0.426107
G1 X108.541 Y58.922 E.01783
;WIDTH:0.42375
G1 X108.554 Y59.494 E.01811
;WIDTH:0.420013
G1 X108.43 Y60.141 E.02068
;WIDTH:0.416223
G1 X108.175 Y60.748 E.02043
;WIDTH:0.414612
G1 X107.797 Y61.289 E.0204
G1 X107.329 Y61.721 E.01967
;WIDTH:0.429921
G1 X106.908 Y62.047 E.01714
G1 X106.643 Y62.387 E.01387
;WIDTH:0.419999
G1 X106.489 Y62.814 E.01424
G1 X106.463 Y63.062 E.00783
G1 X106.46 Y100.506 E1.17403
G1 X106.516 Y100.899 E.01243
G1 X106.704 Y101.344 E.01516
G1 X106.998 Y101.694 E.01433
G1 X107.378 Y101.947 E.01433
G1 X107.815 Y102.083 E.01433
G1 X108.062 Y102.104 E.00778
G1 X124.007 Y102.104 E.49996
M204 P1000
G1 X123.867 Y102.451 F9000
M73 P2 R26
G1 E-2.24 F4200
;WIPE_START
G1 F7200
G1 X124.067 Y103.284 E-.65476
G1 X123.603 Y103.284 E-.25724
;WIPE_END
G1 E-.048 F4200
G1 Z.4 F720
G1 X106.557 Y61.789 F9000
G1 Z.2 F720
G1 E3.2 F2400
M204 P800
;WIDTH:0.429921
G1 F1200
G1 X106.115 Y61.985 E.01558
;WIDTH:0.419999
G1 X105.502 Y62.073 E.01941
G1 X104.892 Y62 E.01926
;WIDTH:0.429679
G1 X104.323 Y61.764 E.01979
G1 X103.76 Y61.349 E.0225
;WIDTH:0.427058
G1 X103.412 Y61.004 E.01566
G1 X103.135 Y60.609 E.01539
;WIDTH:0.426001
G1 X102.929 Y60.17 E.01544
;WIDTH:0.423573
G1 X102.801 Y59.686 E.01585
;WIDTH:0.42203
G1 X102.772 Y59.14 E.01724
;WIDTH:0.418665
G1 X102.864 Y58.562 E.01829
;WIDTH:0.415636
G1 X103.077 Y58.017 E.01814
;WIDTH:0.41487
G1 X103.402 Y57.53 E.01811
;WIDTH:0.417254
G1 X103.823 Y57.123 E.01821
;WIDTH:0.421239
G1 X104.304 Y56.826 E.0178
G1 X104.876 Y56.627 E.01905
;WIDTH:0.420362
G1 X105.457 Y56.557 E.01837
;WIDTH:0.425731
G1 X105.958 Y56.61 E.01604
G1 X106.427 Y56.734 E.01544
;WIDTH:0.42316
G1 X106.89 Y56.955 E.01621
;WIDTH:0.419218
G1 X107.325 Y57.287 E.01714
;WIDTH:0.41816
G1 X107.706 Y57.731 E.01826
;WIDTH:0.415389
G1 X107.984 Y58.246 E.01813
;WIDTH:0.415059
G1 X108.145 Y58.809 E.01811
;WIDTH:0.417762
G1 X108.183 Y59.393 E.01823
;WIDTH:0.421788
G1 X108.099 Y59.939 E.01741
G1 X107.878 Y60.517 E.01948
;WIDTH:0.415753
G1 X107.553 Y61.003 E.01814
;WIDTH:0.414461
G1 X107.13 Y61.408 E.01808
;WIDTH:0.429921
G1 X106.677 Y61.737 E.01802
G1 X106.612 Y61.765 E.00227
M204 P1000
G1 X106.537 Y62.189 F9000
G1 X105.357 Y62.55
M204 P800
;TYPE:Solid infill
;WIDTH:0.42071
G1 F1200
G1 X105.807 Y63 E.02002
G1 X105.803 Y63.53 E.01664
G1 X105.121 Y62.848 E.03029
G1 X105.152 Y63.054 E.00653
G1 X105.152 Y63.413 E.0113
G1 X105.803 Y64.064 E.02892
G1 X105.803 Y64.599 E.01678
G1 X105.152 Y63.948 E.02892
G1 X105.152 Y64.482 E.01678
G1 X105.803 Y65.133 E.02891
G1 X105.803 Y65.667 E.01678
G1 X105.152 Y65.016 E.02891
G1 X105.152 Y65.551 E.01678
G1 X105.803 Y66.201 E.02891
G1 X105.803 Y66.736 E.01678
G1 X105.152 Y66.085 E.02891
G1 X105.152 Y66.619 E.01678
G1 X105.803 Y67.27 E.0289
G1 X105.803 Y67.804 E.01678
G1 X105.152 Y67.154 E.0289
G1 X105.152 Y67.688 E.01678
G1 X105.803 Y68.338 E.0289
G1 X105.803 Y68.873 E.01678
G1 X105.152 Y68.222 E.0289
G1 X105.152 Y68.757 E.01678
G1 X105.803 Y69.407 E.02889
G1 X105.803 Y69.941 E.01678
G1 X105.152 Y69.291 E.02889
G1 X105.152 Y69.825 E.01678
G1 X105.803 Y70.475 E.02889
G1 X105.803 Y71.01 E.01678
G1 X105.153 Y70.359 E.02889
G1 X105.153 Y70.894 E.01678
G1 X105.803 Y71.544 E.02888
G1 X105.803 Y72.078 E.01678
G1 X105.153 Y71.428 E.02888
G1 X105.153 Y71.962 E.01678
G1 X105.803 Y72.612 E.02888
G1 X105.803 Y73.147 E.01678
G1 X105.153 Y72.497 E.02888
G1 X105.153 Y73.031 E.01678
G1 X105.803 Y73.681 E.02887
G1 X105.803 Y74.215 E.01678
G1 X105.153 Y73.565 E.02887
G1 X105.153 Y74.1 E.01678
G1 X105.803 Y74.75 E.02887
G1 X105.803 Y75.284 E.01678
G1 X105.153 Y74.634 E.02886
G1 X105.153 Y75.168 E.01678
G1 X105.803 Y75.818 E.02886
G1 X105.803 Y76.352 E.01678
G1 X105.153 Y75.703 E.02886
G1 X105.153 Y76.237 E.01678
G1 X105.803 Y76.887 E.02886
G1 X105.803 Y77.421 E.01678
G1 X105.153 Y76.771 E.02885
G1 X105.153 Y77.306 E.01678
G1 X105.803 Y77.955 E.02885
G1 X105.803 Y78.489 E.01678
G1 X105.153 Y77.84 E.02885
G1 X105.153 Y78.374 E.01678
G1 X105.803 Y79.024 E.02885
G1 X105.802 Y79.558 E.01678
G1 X105.153 Y78.909 E.02884
G1 X105.153 Y79.443 E.01678
G1 X105.802 Y80.092 E.02884
G1 X105.802 Y80.626 E.01678
G1 X105.153 Y79.977 E.02884
G1 X105.153 Y80.512 E.01678
G1 X105.802 Y81.161 E.02884
G1 X105.802 Y81.695 E.01678
G1 X105.153 Y81.046 E.02883
G1 X105.153 Y81.58 E.01678
G1 X105.802 Y82.229 E.02883
G1 X105.802 Y82.763 E.01678
G1 X105.153 Y82.115 E.02883
G1 X105.154 Y82.649 E.01678
G1 X105.802 Y83.298 E.02883
G1 X105.802 Y83.832 E.01678
G1 X105.154 Y83.183 E.02882
G1 X105.154 Y83.717 E.01678
G1 X105.802 Y84.366 E.02882
G1 X105.802 Y84.9 E.01678
G1 X105.154 Y84.252 E.02882
G1 X105.154 Y84.786 E.01678
G1 X105.802 Y85.435 E.02882
G1 X105.802 Y85.969 E.01678
G1 X105.154 Y85.32 E.02881
G1 X105.154 Y85.855 E.01678
G1 X105.802 Y86.503 E.02881
G1 X105.802 Y87.038 E.01678
G1 X105.154 Y86.389 E.02881
G1 X105.154 Y86.923 E.01678
G1 X105.802 Y87.572 E.02881
G1 X105.802 Y88.106 E.01678
G1 X105.154 Y87.458 E.0288
G1 X105.154 Y87.992 E.01678
G1 X105.802 Y88.64 E.0288
G1 X105.802 Y89.175 E.01678
G1 X105.154 Y88.526 E.0288
G1 X105.154 Y89.061 E.01678
G1 X105.802 Y89.709 E.02879
G1 X105.802 Y90.243 E.01678
G1 X105.154 Y89.595 E.02879
G1 X105.154 Y90.129 E.01678
G1 X105.802 Y90.777 E.02879
G1 X105.802 Y91.312 E.01678
G1 X105.154 Y90.664 E.02879
G1 X105.154 Y91.198 E.01678
G1 X105.802 Y91.846 E.02878
G1 X105.802 Y92.38 E.01678
G1 X105.154 Y91.732 E.02878
G1 X105.154 Y92.267 E.01678
G1 X105.802 Y92.914 E.02878
G1 X105.802 Y93.449 E.01678
G1 X105.154 Y92.801 E.02878
G1 X105.154 Y93.335 E.01678
G1 X105.802 Y93.983 E.02877
G1 X105.802 Y94.517 E.01678
G1 X105.154 Y93.87 E.02877
G1 X105.155 Y94.404 E.01678
G1 X105.802 Y95.051 E.02877
G1 X105.802 Y95.586 E.01678
G1 X105.155 Y94.938 E.02877
G1 X105.155 Y95.473 E.01678
G1 X105.802 Y96.12 E.02876
G1 X105.802 Y96.654 E.01678
G1 X105.155 Y96.007 E.02876
G1 X105.155 Y96.541 E.01678
G1 X105.802 Y97.188 E.02876
G1 X105.802 Y97.723 E.01678
G1 X105.155 Y97.075 E.02876
G1 X105.155 Y97.61 E.01678
G1 X105.802 Y98.257 E.02875
G1 X105.802 Y98.791 E.01678
G1 X105.155 Y98.144 E.02875
G1 X105.155 Y98.678 E.01678
G1 X105.802 Y99.326 E.02875
G1 X105.802 Y99.86 E.01678
G1 X105.155 Y99.213 E.02875
G1 X105.155 Y99.747 E.01678
G1 X105.802 Y100.394 E.02874
G1 X105.802 Y100.569 E.00549
G1 X105.862 Y100.989 E.01332
G1 X105.155 Y100.281 E.03142
G1 X105.155 Y100.511 E.00722
G1 X105.124 Y100.785 E.00866
G1 X106.964 Y102.624 E.08171
G1 X106.429 Y102.624 E.01678
G1 X105.024 Y101.218 E.06246
G1 X104.989 Y101.335 E.00382
G1 X104.862 Y101.591 E.00898
G1 X105.895 Y102.624 E.04589
G1 X105.361 Y102.624 E.01678
G1 X104.65 Y101.913 E.03159
G1 X104.518 Y102.065 E.00631
G1 X104.383 Y102.181 E.00559
G1 X104.827 Y102.624 E.01969
G1 X104.292 Y102.624 E.01678
G1 X103.96 Y102.292 E.01478
M204 P1000
; stop printing object rudder_mount.stl id:0 copy 0
M106 S84.15
;LAYER_CHANGE
;Z:0.4
;HEIGHT:0.2
;BEFORE_LAYER_CHANGE
G92 E0.0
;0.4


G1 E-2.24 F4200
;WIPE_START
G1 F7200
G1 X104.292 Y102.624 E-.26074
G1 X104.827 Y102.624 E-.29608
G1 X104.383 Y102.181 E-.34735
G1 X104.394 Y102.172 E-.00783
;WIPE_END
M73 P3 R26
G1 E-.048 F4200
G1 Z.4 F720
;AFTER_LAYER_CHANGE
;0.4
G1 Z.6
G1 X104.394 Y106.071 F9000
G1 Z.4 F720
G1 E3.2 F2400
;TYPE:Skirt/Brim
;WIDTH:0.42
G1 X86.477 Y106.071 E.56177
G1 X85.17 Y105.68 E.04278
G1 X84.294 Y104.634 E.04278
G1 X84.1 Y103.694 E.03008
G1 X84.1 Y101.694 E.06271
G1 X84.243 Y100.884 E.0258
G1 X100.098 Y57.163 E1.4582
G1 X100.56 Y56.237 E.03244
G1 X100.991 Y55.629 E.02337
G1 X101.561 Y55.022 E.02611
G1 X102.381 Y54.391 E.03244
G1 X103.041 Y54.03 E.0236
G1 X104.02 Y53.678 E.03261
G1 X104.846 Y53.526 E.02634
G1 X105.886 Y53.506 E.0326
G1 X106.619 Y53.605 E.0232
G1 X107.424 Y53.829 E.0262
G1 X108.107 Y54.124 E.02335
G1 X108.983 Y54.677 E.03245
G1 X109.61 Y55.232 E.02626
G1 X110.097 Y55.799 E.02344
G1 X110.546 Y56.498 E.02607
G1 X110.855 Y57.159 E.02285
G1 X126.712 Y100.884 E1.45834
G1 X126.855 Y101.694 E.0258
G1 X126.855 Y103.694 E.06271
G1 X126.463 Y105.001 E.04278
G1 X125.417 Y105.878 E.04278
G1 X124.477 Y106.071 E.03008
G1 X104.454 Y106.071 E.62782
; printing object rudder_mount.stl id:0 copy 0
G1 E-2.24 F4200
;WIPE_START
G1 F7200
G1 X102.808 Y106.071 E-.912
;WIPE_END
G1 E-.048 F4200
G1 Z.6 F720
G1 X123.763 Y102.409 F9000
G1 Z.4 F720
G1 E3.2 F2400
M204 P800
;TYPE:Perimeter
;WIDTH:0.614381
G1 F3000
G1 X123.763 Y102.98 E.02715
G1 X108.068 Y102.98 E.74578
;WIDTH:0.644032
G1 X107.583 Y102.965 E.02426
G1 X107.486 Y102.989 E.00501
;WIDTH:0.596273
G1 X107.388 Y103.013 E.00462
;WIDTH:0.548514
G1 X107.291 Y103.037 E.00422
;WIDTH:0.500754
G1 X107.117 Y103.05 E.00662
;WIDTH:0.475377
G1 X106.944 Y103.062 E.00626
;WIDTH:0.449999
G1 X104.011 Y103.062 E.09925
;WIDTH:0.49913
G1 X103.859 Y103.038 E.00584
;WIDTH:0.54826
G1 X103.707 Y103.013 E.00647
;WIDTH:0.597391
G1 X103.555 Y102.989 E.0071
;WIDTH:0.646521
G1 X103.403 Y102.964 E.00773
G1 X102.887 Y102.98 E.02594
;WIDTH:0.614381
G1 X87.192 Y102.98 E.74578
G1 X87.192 Y102.409 E.02715
G1 X102.887 Y102.409 E.74578
;WIDTH:0.646521
G1 X103.351 Y102.365 E.02342
G1 X103.463 Y102.293 E.00666
;WIDTH:0.597391
G1 X103.574 Y102.222 E.00612
;WIDTH:0.54826
G1 X103.686 Y102.15 E.00557
;WIDTH:0.49913
G1 X103.798 Y102.078 E.00503
;WIDTH:0.449999
G1 X104.206 Y101.758 E.01758
G1 X104.508 Y101.335 E.01758
G1 X104.592 Y101.136 E.00733
G1 X104.717 Y100.499 E.02196
G1 X104.717 Y63.07 E1.26694
G1 X104.601 Y62.449 E.02136
G1 X104.436 Y62.13 E.01216
G1 X105.241 Y62.285 E.02775
G1 X105.871 Y62.27 E.02132
G1 X106.507 Y62.116 E.02217
G1 X106.354 Y62.448 E.01239
G1 X106.238 Y63.069 E.02137
G1 X106.238 Y100.499 E1.26696
G1 X106.363 Y101.135 E.02195
G1 X106.447 Y101.336 E.00738
G1 X106.749 Y101.758 E.01755
G1 X107.157 Y102.078 E.01758
;WIDTH:0.498508
G1 X107.274 Y102.151 E.00521
;WIDTH:0.547016
G1 X107.391 Y102.223 E.00577
;WIDTH:0.595524
G1 X107.509 Y102.295 E.00632
;WIDTH:0.644032
G1 X107.626 Y102.367 E.00688
G1 X108.068 Y102.409 E.02222
;WIDTH:0.614381
G1 X123.703 Y102.409 E.74293
M204 P1000
G1 X124.252 Y101.919 F9000
M204 P800
;TYPE:External perimeter
;WIDTH:0.449999
G1 F2400
G1 X124.252 Y103.469 E.05247
G1 X86.702 Y103.469 E1.27102
G1 X86.702 Y101.919 E.05247
G1 X102.887 Y101.919 E.54782
G1 X103.258 Y101.868 E.01267
G1 X103.629 Y101.708 E.01369
G1 X103.94 Y101.45 E.01369
G1 X104.194 Y101.048 E.01609
G1 X104.31 Y100.499 E.019
G1 X104.31 Y63.07 E1.26694
G1 X104.202 Y62.533 E.01854
G1 X104.106 Y62.368 E.00646
;WIDTH:0.488136
G1 X103.945 Y62.141 E.01031
;WIDTH:0.526272
G1 X103.784 Y61.913 E.01119
G1 X103.255 Y61.479 E.02749
;WIDTH:0.522146
G1 X102.895 Y61.046 E.02244
;WIDTH:0.524889
G1 X102.615 Y60.545 E.02299
;WIDTH:0.527068
G1 X102.433 Y60.007 E.02288
;WIDTH:0.527457
G1 X102.349 Y59.445 E.0229
G1 X102.368 Y58.877 E.0229
;WIDTH:0.526084
