; generated by PrusaSlicer 2.5.2 on 2023-06-05 at 05:37:11 UTC


;
;

;
;
; 

; external perimeters extrusion width = 0.45mm
; perimeters extrusion width = 0.45mm
; infill extrusion width = 0.45mm
; solid infill extrusion width = 0.45mm
; top infill extrusion width = 0.40mm
; support material extrusion width = 0.35mm
; first layer extrusion width = 0.42mm

; external perimeters extrusion width = 0.45mm
; perimeters extrusion width = 0.45mm
; infill extrusion width = 0.45mm
; solid infill extrusion width = 0.45mm
; top infill extrusion width = 0.40mm
; support material extrusion width = 0.35mm
; first layer extrusion width = 0.42mm

; external perimeters extrusion width = 0.45mm
; perimeters extrusion width = 0.45mm
; infill extrusion width = 0.45mm
; solid infill extrusion width = 0.45mm
; top infill extrusion width = 0.40mm
; support material extrusion width = 0.35mm
; first layer extrusion width = 0.42mm

M73 P0 R64
M201 X2500 Y2500 Z400 E5000 ; sets maximum accelerations, mm/sec^2
M203 X180 Y180 Z12 E80 ; sets maximum feedrates, mm / sec
M204 P1250 R1250 T2500 ; sets acceleration (P, T) and retract acceleration (R), mm/sec^2
M205 X8.00 Y8.00 Z2.00 E10.00 ; sets the jerk limits, mm/sec
M205 S0 T0 ; sets the minimum extruding and travel feed rate, mm/sec
M107
;TYPE:Custom
M862.3 P "MINI" ; printer model check
G90 ; use absolute coordinates
M83 ; extruder relative mode
M104 S170 ; set extruder temp for bed leveling
M140 S60 ; set bed temp
M109 R170 ; wait for bed leveling temp
M190 S60 ; wait for bed temp
M204 T1250 ; set travel acceleration
G28 ; home all without mesh bed level
G29 ; mesh bed leveling 
M204 T2500 ; restore travel acceleration
M104 S215 ; set extruder temp
G92 E0
G1 Y-2 X179 F2400
G1 Z3 F720
M109 S215 ; wait for extruder temp

; intro line
G1 X170 F1000
G1 Z0.2 F720
G1 X110 E8 F900
G1 X40 E10 F700
G92 E0

M221 S95 ; set flow
G21 ; set units to millimeters
G90 ; use absolute coordinates
M83 ; use relative distances for extrusion
M900 K0.2 ; Filament gcode LA 1.5
; ; Filament gcode LA 1.0
M107
;LAYER_CHANGE
;Z:0.2
;HEIGHT:0.2
;BEFORE_LAYER_CHANGE
G92 E0.0
;0.2


G1 E-3.2 F4200
G1 Z.2 F720
;AFTER_LAYER_CHANGE
;0.2
G1 Z.4
G1 X52.755 Y53.916 F9000
G1 Z.2 F720
G1 E3.2 F2400
M204 P800
;TYPE:Skirt/Brim
;WIDTH:0.42
G1 F1200
G1 X53.377 Y53.363 E.0261
G1 X54.258 Y52.806 E.03268
G1 X54.942 Y52.51 E.02336
G1 X55.741 Y52.286 E.026
G1 X56.477 Y52.185 E.0233
G1 X57.301 Y52.185 E.02586
G1 X58.034 Y52.284 E.0232
G1 X58.839 Y52.508 E.0262
G1 X59.523 Y52.804 E.02335
G1 X60.398 Y53.356 E.03244
G1 X88.781 Y77.189 E1.16205
G1 X89.329 Y77.754 E.0247
M73 P0 R63
G1 X120.216 Y120.167 E1.64508
G1 X120.557 Y120.838 E.02361
G1 X121.193 Y122.816 E.06514
G1 X121.308 Y123.544 E.02311
G1 X121.308 Y131.431 E.24729
G1 X120.916 Y132.738 E.04278
G1 X119.784 Y133.649 E.04558
G1 X89.792 Y145.185 E1.00754
G1 X89.154 Y145.334 E.02054
G1 X63.758 Y147.642 E.79955
G1 X36.073 Y149.949 E.87105
G1 X25.375 Y149.957 E.33544
G1 X24.068 Y149.566 E.04278
G1 X23.191 Y148.52 E.04278
G1 X22.998 Y147.58 E.03008
G1 X22.998 Y125.544 E.69094
G1 X23.638 Y114.506 E.34666
G1 X23.867 Y113.619 E.02872
G1 X51.823 Y55.179 E2.03124
G1 X52.272 Y54.481 E.026
G1 X52.716 Y53.962 E.02141
M204 P1000
; printing object rudder.stl id:2 copy 0
G1 E-2.24 F4200
;WIPE_START
G1 F7200
G1 X53.377 Y53.363 E-.49431
G1 X54.014 Y52.961 E-.41769
;WIPE_END
G1 E-.048 F4200
G1 Z.4 F720
G1 X83.815 Y107.724 F9000
G1 Z.2 F720
G1 E3.2 F2400
M204 P800
;TYPE:Support material interface
;WIDTH:0.35
G1 F1200
G1 X83.815 Y110.685 E.07562
G1 X84.322 Y110.64 E.013
G1 X84.322 Y107.724 E.07447
G1 X84.83 Y107.724 E.01295
G1 X84.83 Y110.595 E.07332
G1 X85.337 Y110.55 E.013
G1 X85.337 Y107.724 E.07218
G1 X85.844 Y107.724 E.01295
G1 X85.844 Y110.506 E.07103
G1 X86.351 Y110.461 E.013
G1 X86.351 Y107.724 E.06989
G1 X86.704 Y107.724 E.00903
M204 P1000
G1 E-2.24 F4200
;WIPE_START
G1 F7200
G1 X86.351 Y107.724 E-.19592
G1 X86.351 Y109.016 E-.71608
;WIPE_END
G1 E-.048 F4200
G1 Z.4 F720
G1 X83.57 Y110.031 F9000
G1 Z.2 F720
G1 E3.2 F2400
M204 P800
G1 F1200
G1 X83.308 Y110.031 E.00667
G1 X83.308 Y110.73 E.01785
G1 X82.801 Y110.775 E.013
G1 X82.801 Y110.031 E.019
G1 X82.294 Y110.031 E.01295
G1 X82.294 Y110.82 E.02014
G1 X81.787 Y110.864 E.013
G1 X81.787 Y110.031 E.02129
G1 X81.28 Y110.031 E.01295
G1 X81.28 Y110.909 E.02243
G1 X80.773 Y110.954 E.013
G1 X80.773 Y110.031 E.02358
G1 X80.266 Y110.031 E.01295
G1 X80.266 Y110.999 E.02472
G1 X79.759 Y111.044 E.013
G1 X79.759 Y110.031 E.02587
G1 X79.252 Y110.031 E.01295
G1 X79.252 Y111.089 E.02702
G1 X78.745 Y111.134 E.013
G1 X78.745 Y110.031 E.02816
G1 X78.238 Y110.031 E.01295
G1 X78.238 Y111.178 E.02931
G1 X77.73 Y111.223 E.013
G1 X77.73 Y110.031 E.03045
G1 X77.223 Y110.031 E.01295
G1 X77.223 Y111.268 E.0316
G1 X76.716 Y111.313 E.013
G1 X76.716 Y110.031 E.03274
G1 X76.209 Y110.031 E.01295
G1 X76.209 Y111.358 E.03389
G1 X75.702 Y111.403 E.013
G1 X75.702 Y110.031 E.03503
G1 X75.195 Y110.031 E.01295
G1 X75.195 Y111.448 E.03618
G1 X74.688 Y111.493 E.013
G1 X74.688 Y110.031 E.03732
G1 X74.181 Y110.031 E.01295
G1 X74.181 Y111.537 E.03847
G1 X73.674 Y111.582 E.013
G1 X73.674 Y110.031 E.03962
G1 X73.167 Y110.031 E.01295
G1 X73.167 Y111.627 E.04076
G1 X72.66 Y111.672 E.013
G1 X72.66 Y110.031 E.04191
G1 X72.153 Y110.031 E.01295
G1 X72.153 Y111.717 E.04305
G1 X71.646 Y111.762 E.013
G1 X71.646 Y110.031 E.0442
G1 X71.138 Y110.031 E.01295
G1 X71.138 Y111.807 E.04534
G1 X70.631 Y111.851 E.013
G1 X70.631 Y110.031 E.04649
G1 X70.124 Y110.031 E.01295
G1 X70.124 Y111.896 E.04763
G1 X69.617 Y111.941 E.013
G1 X69.617 Y110.031 E.04878
G1 X69.11 Y110.031 E.01295
G1 X69.11 Y111.986 E.04992
G1 X68.603 Y112.031 E.013
G1 X68.603 Y110.031 E.05107
G1 X68.096 Y110.031 E.01295
G1 X68.096 Y112.076 E.05222
G1 X67.589 Y112.121 E.013
G1 X67.589 Y110.031 E.05336
G1 X67.082 Y110.031 E.01295
G1 X67.082 Y112.165 E.05451
G1 X66.575 Y112.21 E.013
G1 X66.575 Y110.031 E.05565
G1 X66.068 Y110.031 E.01295
G1 X66.068 Y112.255 E.0568
G1 X65.561 Y112.3 E.013
G1 X65.561 Y110.031 E.05794
G1 X65.053 Y110.031 E.01295
G1 X65.053 Y112.345 E.05909
G1 X64.546 Y112.39 E.013
G1 X64.546 Y110.031 E.06023
M73 P1 R63
G1 X64.039 Y110.031 E.01295
G1 X64.039 Y112.435 E.06138
G1 X63.532 Y112.479 E.013
G1 X63.532 Y110.031 E.06252
G1 X63.025 Y110.031 E.01295
G1 X63.025 Y112.524 E.06367
G1 X62.518 Y112.569 E.013
G1 X62.518 Y110.031 E.06482
G1 X62.011 Y110.031 E.01295
G1 X62.011 Y112.614 E.06596
G1 X61.504 Y112.659 E.013
G1 X61.504 Y110.031 E.06711
G1 X60.997 Y110.031 E.01295
G1 X60.997 Y112.704 E.06825
G1 X60.49 Y112.749 E.013
G1 X60.49 Y110.031 E.0694
G1 X59.983 Y110.031 E.01295
G1 X59.983 Y112.794 E.07054
G1 X59.476 Y112.838 E.013
G1 X59.476 Y110.031 E.07169
G1 X58.969 Y110.031 E.01295
G1 X58.969 Y112.883 E.07284
G1 X58.461 Y112.928 E.013
G1 X58.461 Y110.031 E.07398
G1 X57.954 Y110.031 E.01295
G1 X57.954 Y112.973 E.07513
G1 X57.447 Y113.018 E.013
G1 X57.447 Y110.031 E.07627
G1 X56.94 Y110.031 E.01295
G1 X56.94 Y113.063 E.07742
G1 X56.433 Y113.108 E.013
G1 X56.433 Y110.031 E.07856
G1 X56.003 Y110.031 E.01098
G1 X56.003 Y112.338 E.05891
G1 X55.926 Y112.338 E.00196
G1 X55.926 Y113.152 E.0208
G1 X55.419 Y113.197 E.013
G1 X55.419 Y112.338 E.02195
G1 X54.912 Y112.338 E.01295
G1 X54.912 Y113.242 E.02309
G1 X54.405 Y113.287 E.013
G1 X54.405 Y112.338 E.02424
G1 X53.898 Y112.338 E.01295
G1 X53.898 Y113.332 E.02538
G1 X53.391 Y113.377 E.013
G1 X53.391 Y112.338 E.02653
G1 X52.884 Y112.338 E.01295
G1 X52.884 Y113.422 E.02768
G1 X52.377 Y113.467 E.013
G1 X52.377 Y112.338 E.02882
G1 X51.869 Y112.338 E.01295
G1 X51.869 Y113.511 E.02997
G1 X51.362 Y113.556 E.013
G1 X51.362 Y112.338 E.03111
G1 X50.855 Y112.338 E.01295
G1 X50.855 Y113.601 E.03226
G1 X50.348 Y113.646 E.013
G1 X50.348 Y112.338 E.0334
G1 X49.841 Y112.338 E.01295
G1 X49.841 Y113.691 E.03455
G1 X49.334 Y113.736 E.013
G1 X49.334 Y112.338 E.0357
G1 X48.827 Y112.338 E.01295
G1 X48.827 Y113.781 E.03684
G1 X48.32 Y113.826 E.013
G1 X48.32 Y112.338 E.03799
G1 X47.813 Y112.338 E.01295
G1 X47.813 Y113.87 E.03913
G1 X47.306 Y113.915 E.013
G1 X47.306 Y112.338 E.04028
G1 X46.799 Y112.338 E.01295
G1 X46.799 Y113.96 E.04142
G1 X46.292 Y114.005 E.013
G1 X46.292 Y112.338 E.04257
G1 X45.784 Y112.338 E.01295
G1 X45.784 Y114.05 E.04372
G1 X45.277 Y114.095 E.013
G1 X45.277 Y112.338 E.04486
G1 X44.77 Y112.338 E.01295
G1 X44.77 Y114.14 E.04601
G1 X44.263 Y114.185 E.013
G1 X44.263 Y112.338 E.04715
G1 X43.756 Y112.338 E.01295
G1 X43.756 Y114.229 E.0483
G1 X43.249 Y114.274 E.013
G1 X43.249 Y112.338 E.04944
G1 X42.742 Y112.338 E.01295
G1 X42.742 Y114.319 E.05059
G1 X42.235 Y114.364 E.013
G1 X42.235 Y112.338 E.05174
G1 X41.728 Y112.338 E.01295
G1 X41.728 Y114.409 E.05288
G1 X41.221 Y114.454 E.013
G1 X41.221 Y112.338 E.05403
G1 X40.714 Y112.338 E.01295
G1 X40.714 Y114.499 E.05517
G1 X40.207 Y114.543 E.013
G1 X40.207 Y112.338 E.05632
G1 X39.7 Y112.338 E.01295
G1 X39.7 Y114.588 E.05746
G1 X39.192 Y114.633 E.013
G1 X39.192 Y112.338 E.05861
G1 X38.685 Y112.338 E.01295
G1 X38.685 Y114.678 E.05976
G1 X38.178 Y114.723 E.013
G1 X38.178 Y112.338 E.0609
G1 X37.671 Y112.338 E.01295
G1 X37.671 Y114.768 E.06205
G1 X37.164 Y114.813 E.013
G1 X37.164 Y112.338 E.06319
G1 X36.657 Y112.338 E.01295
G1 X36.657 Y114.858 E.06434
G1 X36.15 Y114.902 E.013
G1 X36.15 Y112.338 E.06548
G1 X35.643 Y112.338 E.01295
G1 X35.643 Y114.947 E.06663
G1 X35.136 Y114.992 E.013
G1 X35.136 Y112.338 E.06778
G1 X34.629 Y112.338 E.01295
G1 X34.629 Y115.037 E.06892
G1 X34.122 Y115.082 E.013
G1 X34.122 Y112.338 E.07007
G1 X33.615 Y112.338 E.01295
G1 X33.615 Y115.127 E.07121
G1 X33.108 Y115.172 E.013
G1 X33.108 Y112.338 E.07236
G1 X32.6 Y112.338 E.01295
G1 X32.6 Y115.217 E.0735
G1 X32.093 Y115.261 E.013
G1 X32.093 Y112.338 E.07465
G1 X31.586 Y112.338 E.01295
G1 X31.586 Y115.306 E.0758
G1 X31.079 Y115.351 E.013
G1 X31.079 Y112.338 E.07694
G1 X30.625 Y112.338 E.01159
G1 X30.625 Y114.645 E.05891
G1 X30.572 Y114.645 E.00135
G1 X30.572 Y115.396 E.01918
G1 X30.065 Y115.441 E.013
G1 X30.065 Y114.645 E.02032
G1 X29.558 Y114.645 E.01295
G1 X29.558 Y115.486 E.02147
G1 X29.051 Y115.531 E.013
G1 X29.051 Y114.645 E.02262
G1 X28.544 Y114.645 E.01295
G1 X28.544 Y115.575 E.02376
G1 X28.037 Y115.62 E.013
G1 X28.037 Y114.645 E.02491
G1 X27.53 Y114.645 E.01295
G1 X27.53 Y115.665 E.02605
G1 X27.474 Y115.67 E.00144
G1 X27.268 Y115.915 E.00817
M204 P1000
G1 X27.376 Y114.645 F9000
M204 P800
G1 F1200
G1 X27.023 Y114.645 E.00903
G1 X27.023 Y116.952 E.05891
G1 X26.515 Y116.952 E.01295
G1 X26.515 Y114.645 E.05891
G1 X26.011 Y114.645 E.01288
G1 X26.011 Y116.952 E.05891
G1 X26.362 Y116.952 E.00896
M204 P1000
G1 E-2.24 F4200
;WIPE_START
G1 F7200
G1 X26.011 Y116.952 E-.19449
G1 X26.011 Y115.657 E-.71751
;WIPE_END
G1 E-.048 F4200
G1 Z.4 F720
G1 X28.077 Y125.929 F9000
G1 Z.2 F720
G1 E3.2 F2400
M204 P800
;TYPE:Support material
;WIDTH:0.42
G1 F1200
G1 X28.29 Y128.343 E.07599
G1 X28.595 Y128.599 E.01247
G1 X31.303 Y128.358 E.08524
G1 X31.516 Y130.755 E.07543
G1 X28.981 Y130.979 E.07979
G1 X28.943 Y130.948 E.00156
G1 X28.897 Y130.431 E.01627
G1 X27.954 Y130.431 E.02955
G1 X27.954 Y135.772 E.16748
G1 X42.524 Y135.772 E.45682
G1 X42.524 Y133.465 E.07234
G1 X70.209 Y133.465 E.86804
G1 X70.209 Y131.158 E.07234
G1 X88.666 Y131.158 E.57869
G1 X88.666 Y128.851 E.07234
G1 X93.553 Y128.851 E.15322
G1 X93.553 Y140.659 E.37024
G1 X88.939 Y140.659 E.14467
G1 X88.939 Y142.966 E.07234
G1 X63.561 Y142.966 E.79571
G1 X63.561 Y145.273 E.07234
G1 X35.876 Y145.273 E.86804
G1 X35.876 Y147.58 E.07234
G1 X25.375 Y147.58 E.32925
G1 X25.375 Y125.544 E.69094
G1 X28.042 Y125.544 E.08365
G1 X28.072 Y125.873 E.01035
M204 P1000
G1 E-2.24 F4200
;WIPE_START
G1 F7200
G1 X28.042 Y125.544 E-.18288
G1 X26.727 Y125.544 E-.72912
;WIPE_END
G1 E-.048 F4200
G1 Z.4 F720
G1 X93.101 Y140.489 F9000
G1 Z.2 F720
G1 E3.2 F2400
M204 P800
G1 F1200
G1 X93.101 Y129.19 E.35427
G1 X92.682 Y129.19 E.01314
G1 X92.682 Y140.32 E.34895
G1 X92.263 Y140.32 E.01314
G1 X92.263 Y129.19 E.34895
G1 X91.845 Y129.19 E.01314
G1 X91.845 Y140.32 E.34895
G1 X91.426 Y140.32 E.01314
G1 X91.426 Y129.19 E.34895
G1 X91.007 Y129.19 E.01314
G1 X91.007 Y140.32 E.34895
G1 X90.588 Y140.32 E.01314
G1 X90.588 Y129.19 E.34895
G1 X90.169 Y129.19 E.01314
G1 X90.169 Y140.32 E.34895
G1 X89.75 Y140.32 E.01314
G1 X89.75 Y129.19 E.34895
G1 X89.331 Y129.19 E.01314
G1 X89.331 Y140.32 E.34895
G1 X88.912 Y140.32 E.01314
G1 X88.912 Y131.497 E.27662
G1 X88.493 Y131.497 E.01314
G1 X88.493 Y142.627 E.34895
G1 X88.074 Y142.627 E.01314
G1 X88.074 Y131.497 E.34895
G1 X87.655 Y131.497 E.01314
G1 X87.655 Y142.627 E.34895
G1 X87.236 Y142.627 E.01314
G1 X87.236 Y131.497 E.34895
G1 X86.817 Y131.497 E.01314
G1 X86.817 Y142.627 E.34895
G1 X86.398 Y142.627 E.01314
G1 X86.398 Y131.497 E.34895
G1 X85.979 Y131.497 E.01314
G1 X85.979 Y142.627 E.34895
G1 X85.56 Y142.627 E.01314
G1 X85.56 Y131.497 E.34895
G1 X85.141 Y131.497 E.01314
G1 X85.141 Y142.627 E.34895
G1 X84.722 Y142.627 E.01314
G1 X84.722 Y131.497 E.34895
G1 X84.303 Y131.497 E.01314
G1 X84.303 Y142.627 E.34895
G1 X83.884 Y142.627 E.01314
G1 X83.884 Y131.497 E.34895
G1 X83.465 Y131.497 E.01314
G1 X83.465 Y142.627 E.34895
G1 X83.046 Y142.627 E.01314
G1 X83.046 Y131.497 E.34895
G1 X82.627 Y131.497 E.01314
G1 X82.627 Y142.627 E.34895
G1 X82.208 Y142.627 E.01314
M73 P1 R62
G1 X82.208 Y131.497 E.34895
G1 X81.789 Y131.497 E.01314
M73 P2 R62
G1 X81.789 Y142.627 E.34895
G1 X81.37 Y142.627 E.01314
G1 X81.37 Y131.497 E.34895
G1 X80.951 Y131.497 E.01314
G1 X80.951 Y142.627 E.34895
G1 X80.532 Y142.627 E.01314
G1 X80.532 Y131.497 E.34895
G1 X80.113 Y131.497 E.01314
G1 X80.113 Y142.627 E.34895
G1 X79.694 Y142.627 E.01314
G1 X79.694 Y131.497 E.34895
G1 X79.275 Y131.497 E.01314
G1 X79.275 Y142.627 E.34895
G1 X78.856 Y142.627 E.01314
G1 X78.856 Y131.497 E.34895
G1 X78.437 Y131.497 E.01314
G1 X78.437 Y142.627 E.34895
G1 X78.018 Y142.627 E.01314
G1 X78.018 Y131.497 E.34895
G1 X77.599 Y131.497 E.01314
G1 X77.599 Y142.627 E.34895
G1 X77.18 Y142.627 E.01314
G1 X77.18 Y131.497 E.34895
G1 X76.761 Y131.497 E.01314
G1 X76.761 Y142.627 E.34895
G1 X76.342 Y142.627 E.01314
G1 X76.342 Y131.497 E.34895
G1 X75.923 Y131.497 E.01314
G1 X75.923 Y142.627 E.34895
G1 X75.504 Y142.627 E.01314
G1 X75.504 Y131.497 E.34895
G1 X75.085 Y131.497 E.01314
G1 X75.085 Y142.627 E.34895
G1 X74.666 Y142.627 E.01314
G1 X74.666 Y131.497 E.34895
G1 X74.247 Y131.497 E.01314
G1 X74.247 Y142.627 E.34895
G1 X73.828 Y142.627 E.01314
G1 X73.828 Y131.497 E.34895
G1 X73.41 Y131.497 E.01314
G1 X73.41 Y142.627 E.34895
G1 X72.991 Y142.627 E.01314
G1 X72.991 Y131.497 E.34895
G1 X72.572 Y131.497 E.01314
G1 X72.572 Y142.627 E.34895
G1 X72.153 Y142.627 E.01314
G1 X72.153 Y131.497 E.34895
G1 X71.734 Y131.497 E.01314
G1 X71.734 Y142.627 E.34895
G1 X71.315 Y142.627 E.01314
G1 X71.315 Y131.497 E.34895
G1 X70.896 Y131.497 E.01314
G1 X70.896 Y142.627 E.34895
G1 X70.477 Y142.627 E.01314
G1 X70.477 Y133.805 E.27662
G1 X70.058 Y133.805 E.01314
G1 X70.058 Y142.627 E.27662
G1 X69.639 Y142.627 E.01314
G1 X69.639 Y133.805 E.27662
G1 X69.22 Y133.805 E.01314
G1 X69.22 Y142.627 E.27662
G1 X68.801 Y142.627 E.01314
G1 X68.801 Y133.805 E.27662
G1 X68.382 Y133.805 E.01314
G1 X68.382 Y142.627 E.27662
G1 X67.963 Y142.627 E.01314
G1 X67.963 Y133.805 E.27662
G1 X67.544 Y133.805 E.01314
G1 X67.544 Y142.627 E.27662
G1 X67.125 Y142.627 E.01314
G1 X67.125 Y133.805 E.27662
G1 X66.706 Y133.805 E.01314
G1 X66.706 Y142.627 E.27662
G1 X66.287 Y142.627 E.01314
G1 X66.287 Y133.805 E.27662
G1 X65.868 Y133.805 E.01314
G1 X65.868 Y142.627 E.27662
G1 X65.449 Y142.627 E.01314
G1 X65.449 Y133.805 E.27662
G1 X65.03 Y133.805 E.01314
G1 X65.03 Y142.627 E.27662
G1 X64.611 Y142.627 E.01314
G1 X64.611 Y133.805 E.27662
G1 X64.192 Y133.805 E.01314
G1 X64.192 Y142.627 E.27662
G1 X63.773 Y142.627 E.01314
G1 X63.773 Y133.805 E.27662
G1 X63.354 Y133.805 E.01314
G1 X63.354 Y142.627 E.27662
G1 X63.221 Y142.627 E.00416
G1 X63.221 Y144.934 E.07234
G1 X62.935 Y144.934 E.00897
G1 X62.935 Y133.805 E.34895
G1 X62.516 Y133.805 E.01314
G1 X62.516 Y144.934 E.34895
G1 X62.097 Y144.934 E.01314
G1 X62.097 Y133.805 E.34895
G1 X61.678 Y133.805 E.01314
