; generated by PrusaSlicer 2.5.2 on 2023-06-06 at 15:53:09 UTC


;
;

;
;
; 

; external perimeters extrusion width = 0.45mm
; perimeters extrusion width = 0.45mm
; infill extrusion width = 0.45mm
; solid infill extrusion width = 0.45mm
; top infill extrusion width = 0.40mm
; support material extrusion width = 0.35mm
; first layer extrusion width = 0.42mm

M73 P0 R36
M201 X2500 Y2500 Z400 E5000 ; sets maximum accelerations, mm/sec^2
M203 X180 Y180 Z12 E80 ; sets maximum feedrates, mm / sec
M204 P1250 R1250 T2500 ; sets acceleration (P, T) and retract acceleration (R), mm/sec^2
M205 X8.00 Y8.00 Z2.00 E10.00 ; sets the jerk limits, mm/sec
M205 S0 T0 ; sets the minimum extruding and travel feed rate, mm/sec
M107
;TYPE:Custom
M862.3 P "MINI" ; printer model check
G90 ; use absolute coordinates
M83 ; extruder relative mode
M104 S170 ; set extruder temp for bed leveling
M140 S60 ; set bed temp
M109 R170 ; wait for bed leveling temp
M190 S60 ; wait for bed temp
M204 T1250 ; set travel acceleration
G28 ; home all without mesh bed level
G29 ; mesh bed leveling 
M204 T2500 ; restore travel acceleration
M104 S215 ; set extruder temp
G92 E0
G1 Y-2 X179 F2400
G1 Z3 F720
M109 S215 ; wait for extruder temp

; intro line
G1 X170 F1000
G1 Z0.2 F720
G1 X110 E8 F900
G1 X40 E10 F700
G92 E0

M221 S95 ; set flow
G21 ; set units to millimeters
G90 ; use absolute coordinates
M83 ; use relative distances for extrusion
M900 K0.2 ; Filament gcode LA 1.5
; ; Filament gcode LA 1.0
M107
;LAYER_CHANGE
;Z:0.2
;HEIGHT:0.2
;BEFORE_LAYER_CHANGE
G92 E0.0
;0.2


G1 E-3.2 F4200
G1 Z.2 F720
;AFTER_LAYER_CHANGE
;0.2
G1 Z.4
G1 X48.815 Y84.086 F9000
G1 Z.2 F720
G1 E3.2 F2400
M204 P800
;TYPE:Skirt/Brim
;WIDTH:0.42
G1 F1200
G1 X53.429 Y81.779 E.16175
G1 X54.277 Y81.538 E.02764
G1 X79.674 Y79.229 E.79958
G1 X107.486 Y76.922 E.87503
G1 X112.169 Y76.914 E.14684
M73 P0 R35
G1 X113.165 Y77.133 E.03198
G1 X143.157 Y90.975 E1.03571
G1 X144.424 Y92.405 E.0599
G1 X145.061 Y94.383 E.06514
G1 X145.175 Y95.111 E.02311
G1 X145.175 Y102.998 E.24729
G1 X144.783 Y104.305 E.04278
M73 P1 R35
G1 X143.651 Y105.217 E.04558
G1 X113.659 Y116.752 E1.00754
G1 X113.021 Y116.901 E.02054
G1 X87.625 Y119.21 E.79955
G1 X59.94 Y121.517 E.87105
G1 X49.242 Y121.525 E.33544
G1 X47.935 Y121.133 E.04278
G1 X47.058 Y120.088 E.04278
G1 X46.865 Y119.148 E.03008
G1 X46.869 Y96.973 E.69528
G1 X47.505 Y86.074 E.34231
G1 X47.972 Y84.792 E.04278
G1 X48.769 Y84.125 E.03258
M204 P1000
; printing object rudder.stl id:0 copy 0
G1 E-2.24 F4200
;WIPE_START
G1 F7200
G1 X50.239 Y83.385 E-.912
;WIPE_END
G1 E-.048 F4200
G1 Z.4 F720
G1 X51.243 Y86.212 F9000
G1 Z.2 F720
G1 E3.2 F2400
M204 P800
;TYPE:Support material interface
;WIDTH:0.35
G1 F1200
G1 X50.89 Y86.212 E.00903
G1 X50.89 Y88.519 E.05891
G1 X50.383 Y88.519 E.01295
G1 X50.383 Y86.212 E.05891
G1 X49.878 Y86.212 E.01288
G1 X49.878 Y88.519 E.05891
G1 X50.229 Y88.519 E.00896
M204 P1000
G1 X51.135 Y87.483 F9000
M204 P800
G1 F1200
G1 X51.341 Y87.238 E.00817
G1 X51.397 Y87.233 E.00144
G1 X51.397 Y86.212 E.02605
G1 X51.904 Y86.212 E.01295
G1 X51.904 Y87.188 E.02491
G1 X52.411 Y87.143 E.013
G1 X52.411 Y86.212 E.02376
G1 X52.918 Y86.212 E.01295
G1 X52.918 Y87.098 E.02262
G1 X53.425 Y87.053 E.013
G1 X53.425 Y86.212 E.02147
G1 X53.932 Y86.212 E.01295
G1 X53.932 Y87.008 E.02032
G1 X54.439 Y86.963 E.013
G1 X54.439 Y86.212 E.01918
G1 X54.492 Y86.212 E.00135
G1 X54.492 Y83.905 E.05891
G1 X54.946 Y83.905 E.01159
G1 X54.946 Y86.919 E.07694
G1 X55.453 Y86.874 E.013
G1 X55.453 Y83.905 E.0758
G1 X55.96 Y83.905 E.01295
G1 X55.96 Y86.829 E.07465
G1 X56.468 Y86.784 E.013
G1 X56.468 Y83.905 E.0735
G1 X56.975 Y83.905 E.01295
G1 X56.975 Y86.739 E.07236
G1 X57.482 Y86.694 E.013
G1 X57.482 Y83.905 E.07121
G1 X57.989 Y83.905 E.01295
G1 X57.989 Y86.649 E.07007
G1 X58.496 Y86.604 E.013
G1 X58.496 Y83.905 E.06892
G1 X59.003 Y83.905 E.01295
G1 X59.003 Y86.56 E.06778
G1 X59.51 Y86.515 E.013
G1 X59.51 Y83.905 E.06663
G1 X60.017 Y83.905 E.01295
G1 X60.017 Y86.47 E.06548
G1 X60.524 Y86.425 E.013
G1 X60.524 Y83.905 E.06434
G1 X61.031 Y83.905 E.01295
G1 X61.031 Y86.38 E.06319
G1 X61.538 Y86.335 E.013
G1 X61.538 Y83.905 E.06205
G1 X62.045 Y83.905 E.01295
G1 X62.045 Y86.29 E.0609
G1 X62.552 Y86.245 E.013
G1 X62.552 Y83.905 E.05976
G1 X63.06 Y83.905 E.01295
G1 X63.06 Y86.201 E.05861
G1 X63.567 Y86.156 E.013
G1 X63.567 Y83.905 E.05746
G1 X64.074 Y83.905 E.01295
G1 X64.074 Y86.111 E.05632
G1 X64.581 Y86.066 E.013
G1 X64.581 Y83.905 E.05517
G1 X65.088 Y83.905 E.01295
G1 X65.088 Y86.021 E.05403
G1 X65.595 Y85.976 E.013
G1 X65.595 Y83.905 E.05288
G1 X66.102 Y83.905 E.01295
G1 X66.102 Y85.931 E.05174
G1 X66.609 Y85.886 E.013
G1 X66.609 Y83.905 E.05059
G1 X67.116 Y83.905 E.01295
G1 X67.116 Y85.842 E.04944
G1 X67.623 Y85.797 E.013
G1 X67.623 Y83.905 E.0483
G1 X68.13 Y83.905 E.01295
G1 X68.13 Y85.752 E.04715
G1 X68.637 Y85.707 E.013
G1 X68.637 Y83.905 E.04601
G1 X69.145 Y83.905 E.01295
G1 X69.145 Y85.662 E.04486
G1 X69.652 Y85.617 E.013
G1 X69.652 Y83.905 E.04372
G1 X70.159 Y83.905 E.01295
G1 X70.159 Y85.572 E.04257
G1 X70.666 Y85.528 E.013
G1 X70.666 Y83.905 E.04142
G1 X71.173 Y83.905 E.01295
G1 X71.173 Y85.483 E.04028
G1 X71.68 Y85.438 E.013
G1 X71.68 Y83.905 E.03913
G1 X72.187 Y83.905 E.01295
G1 X72.187 Y85.393 E.03799
G1 X72.694 Y85.348 E.013
G1 X72.694 Y83.905 E.03684
G1 X73.201 Y83.905 E.01295
G1 X73.201 Y85.303 E.0357
G1 X73.708 Y85.258 E.013
G1 X73.708 Y83.905 E.03455
G1 X74.215 Y83.905 E.01295
G1 X74.215 Y85.213 E.0334
G1 X74.722 Y85.169 E.013
G1 X74.722 Y83.905 E.03226
G1 X75.229 Y83.905 E.01295
G1 X75.229 Y85.124 E.03111
G1 X75.737 Y85.079 E.013
G1 X75.737 Y83.905 E.02997
G1 X76.244 Y83.905 E.01295
G1 X76.244 Y85.034 E.02882
G1 X76.751 Y84.989 E.013
G1 X76.751 Y83.905 E.02768
G1 X77.258 Y83.905 E.01295
G1 X77.258 Y84.944 E.02653
G1 X77.765 Y84.899 E.013
G1 X77.765 Y83.905 E.02538
G1 X78.272 Y83.905 E.01295
G1 X78.272 Y84.854 E.02424
G1 X78.779 Y84.81 E.013
G1 X78.779 Y83.905 E.02309
G1 X79.286 Y83.905 E.01295
G1 X79.286 Y84.765 E.02195
G1 X79.793 Y84.72 E.013
G1 X79.793 Y83.905 E.0208
G1 X79.87 Y83.905 E.00196
G1 X79.87 Y81.598 E.05891
G1 X80.3 Y81.598 E.01098
G1 X80.3 Y84.675 E.07856
G1 X80.807 Y84.63 E.013
G1 X80.807 Y81.598 E.07742
G1 X81.314 Y81.598 E.01295
G1 X81.314 Y84.585 E.07627
G1 X81.821 Y84.54 E.013
G1 X81.821 Y81.598 E.07513
G1 X82.329 Y81.598 E.01295
G1 X82.329 Y84.496 E.07398
G1 X82.836 Y84.451 E.013
G1 X82.836 Y81.598 E.07284
G1 X83.343 Y81.598 E.01295
G1 X83.343 Y84.406 E.07169
G1 X83.85 Y84.361 E.013
G1 X83.85 Y81.598 E.07054
G1 X84.357 Y81.598 E.01295
G1 X84.357 Y84.316 E.0694
G1 X84.864 Y84.271 E.013
G1 X84.864 Y81.598 E.06825
G1 X85.371 Y81.598 E.01295
G1 X85.371 Y84.226 E.06711
G1 X85.878 Y84.181 E.013
G1 X85.878 Y81.598 E.06596
G1 X86.385 Y81.598 E.01295
G1 X86.385 Y84.137 E.06482
G1 X86.892 Y84.092 E.013
G1 X86.892 Y81.598 E.06367
G1 X87.399 Y81.598 E.01295
G1 X87.399 Y84.047 E.06252
G1 X87.906 Y84.002 E.013
G1 X87.906 Y81.598 E.06138
G1 X88.414 Y81.598 E.01295
G1 X88.414 Y83.957 E.06023
G1 X88.921 Y83.912 E.013
G1 X88.921 Y81.598 E.05909
G1 X89.428 Y81.598 E.01295
G1 X89.428 Y83.867 E.05794
G1 X89.935 Y83.823 E.013
G1 X89.935 Y81.598 E.0568
G1 X90.442 Y81.598 E.01295
G1 X90.442 Y83.778 E.05565
G1 X90.949 Y83.733 E.013
G1 X90.949 Y81.598 E.05451
G1 X91.456 Y81.598 E.01295
G1 X91.456 Y83.688 E.05336
G1 X91.963 Y83.643 E.013
G1 X91.963 Y81.598 E.05222
G1 X92.47 Y81.598 E.01295
G1 X92.47 Y83.598 E.05107
G1 X92.977 Y83.553 E.013
G1 X92.977 Y81.598 E.04992
G1 X93.484 Y81.598 E.01295
G1 X93.484 Y83.508 E.04878
G1 X93.991 Y83.464 E.013
G1 X93.991 Y81.598 E.04763
G1 X94.498 Y81.598 E.01295
G1 X94.498 Y83.419 E.04649
G1 X95.006 Y83.374 E.013
G1 X95.006 Y81.598 E.04534
G1 X95.513 Y81.598 E.01295
G1 X95.513 Y83.329 E.0442
G1 X96.02 Y83.284 E.013
G1 X96.02 Y81.598 E.04305
G1 X96.527 Y81.598 E.01295
G1 X96.527 Y83.239 E.04191
G1 X97.034 Y83.194 E.013
G1 X97.034 Y81.598 E.04076
G1 X97.541 Y81.598 E.01295
G1 X97.541 Y83.15 E.03962
G1 X98.048 Y83.105 E.013
G1 X98.048 Y81.598 E.03847
G1 X98.555 Y81.598 E.01295
G1 X98.555 Y83.06 E.03732
G1 X99.062 Y83.015 E.013
G1 X99.062 Y81.598 E.03618
G1 X99.569 Y81.598 E.01295
G1 X99.569 Y82.97 E.03503
M73 P2 R35
G1 X100.076 Y82.925 E.013
G1 X100.076 Y81.598 E.03389
G1 X100.583 Y81.598 E.01295
G1 X100.583 Y82.88 E.03274
G1 X101.09 Y82.836 E.013
G1 X101.09 Y81.598 E.0316
G1 X101.598 Y81.598 E.01295
G1 X101.598 Y82.791 E.03045
G1 X102.105 Y82.746 E.013
G1 X102.105 Y81.598 E.02931
G1 X102.612 Y81.598 E.01295
G1 X102.612 Y82.701 E.02816
G1 X103.119 Y82.656 E.013
G1 X103.119 Y81.598 E.02702
G1 X103.626 Y81.598 E.01295
G1 X103.626 Y82.611 E.02587
G1 X104.133 Y82.566 E.013
G1 X104.133 Y81.598 E.02472
G1 X104.64 Y81.598 E.01295
G1 X104.64 Y82.522 E.02358
G1 X105.147 Y82.477 E.013
G1 X105.147 Y81.598 E.02243
G1 X105.654 Y81.598 E.01295
G1 X105.654 Y82.432 E.02129
G1 X106.161 Y82.387 E.013
G1 X106.161 Y81.598 E.02014
G1 X106.668 Y81.598 E.01295
G1 X106.668 Y82.342 E.019
G1 X107.175 Y82.297 E.013
G1 X107.175 Y81.598 E.01785
G1 X107.437 Y81.598 E.00667
M204 P1000
G1 E-2.24 F4200
;WIPE_START
G1 F7200
G1 X107.175 Y81.598 E-.14487
G1 X107.175 Y82.297 E-.38745
G1 X106.668 Y82.342 E-.2821
G1 X106.668 Y82.166 E-.09758
;WIPE_END
G1 E-.048 F4200
G1 Z.4 F720
G1 X107.683 Y79.291 F9000
G1 Z.2 F720
G1 E3.2 F2400
M204 P800
G1 F1200
G1 X107.683 Y82.252 E.07562
G1 X108.19 Y82.208 E.013
G1 X108.19 Y79.291 E.07447
G1 X108.697 Y79.291 E.01295
G1 X108.697 Y82.163 E.07332
G1 X109.204 Y82.118 E.013
G1 X109.204 Y79.291 E.07218
G1 X109.711 Y79.291 E.01295
G1 X109.711 Y82.073 E.07103
G1 X110.218 Y82.028 E.013
G1 X110.218 Y79.291 E.06989
G1 X110.571 Y79.291 E.00903
M204 P1000
G1 E-2.24 F4200
;WIPE_START
G1 F7200
G1 X110.218 Y79.291 E-.19592
G1 X110.218 Y80.583 E-.71608
;WIPE_END
G1 E-.048 F4200
G1 Z.4 F720
G1 X110.878 Y83.905 F9000
G1 Z.2 F720
G1 E3.2 F2400
M204 P800
G1 F1200
G1 X110.725 Y82.228 E.043
G1 X110.725 Y79.291 E.07499
G1 X111.232 Y79.291 E.01295
G1 X111.232 Y83.905 E.11782
G1 X111.739 Y83.905 E.01295
G1 X111.739 Y79.291 E.11782
G1 X112.169 Y79.291 E.01098
G1 X112.169 Y83.905 E.11782
G1 X111.893 Y83.905 E.00706
M204 P1000
G1 E-2.24 F4200
;WIPE_START
G1 F7200
G1 X112.169 Y83.905 E-.15329
G1 X112.169 Y82.536 E-.75871
;WIPE_END
G1 E-.048 F4200
G1 Z.4 F720
G1 X112.001 Y96.58 F9000
G1 Z.2 F720
G1 E3.2 F2400
M204 P800
G1 F1200
G1 X111.9 Y95.441 E.02922
G1 X112.246 Y95.441 E.00885
G1 X112.246 Y97.35 E.04875
G1 X112.753 Y97.305 E.013
G1 X112.753 Y95.441 E.04761
G1 X113.26 Y95.441 E.01295
G1 X113.26 Y97.26 E.04646
G1 X113.767 Y97.215 E.013
G1 X113.767 Y95.441 E.04532
G1 X114.275 Y95.441 E.01295
G1 X114.275 Y97.17 E.04417
G1 X114.782 Y97.126 E.013
G1 X114.782 Y95.441 E.04302
G1 X115.289 Y95.441 E.01295
G1 X115.289 Y97.081 E.04188
G1 X115.796 Y97.036 E.013
G1 X115.796 Y95.441 E.04073
G1 X116.303 Y95.441 E.01295
G1 X116.303 Y96.991 E.03959
G1 X116.81 Y96.946 E.013
G1 X116.81 Y95.441 E.03844
G1 X117.317 Y95.441 E.01295
G1 X117.317 Y96.901 E.0373
G1 X117.824 Y96.856 E.013
G1 X117.824 Y95.441 E.03615
G1 X118.331 Y95.441 E.01295
G1 X118.331 Y96.811 E.035
G1 X118.838 Y96.767 E.013
G1 X118.838 Y95.441 E.03386
G1 X119.345 Y95.441 E.01295
G1 X119.345 Y96.722 E.03271
G1 X119.852 Y96.677 E.013
G1 X119.852 Y95.441 E.03157
G1 X120.359 Y95.441 E.01295
G1 X120.359 Y96.632 E.03042
G1 X120.867 Y96.587 E.013
G1 X120.867 Y95.441 E.02927
G1 X121.374 Y95.441 E.01295
G1 X121.374 Y96.542 E.02813
G1 X121.881 Y96.497 E.013
G1 X121.881 Y95.441 E.02698
G1 X122.388 Y95.441 E.01295
G1 X122.388 Y96.452 E.02584
G1 X122.895 Y96.408 E.013
G1 X122.895 Y95.441 E.02469
G1 X123.402 Y95.441 E.01295
G1 X123.402 Y96.363 E.02355
G1 X123.909 Y96.318 E.013
G1 X123.909 Y95.441 E.0224
G1 X124.416 Y95.441 E.01295
G1 X124.416 Y96.273 E.02125
G1 X124.923 Y96.228 E.013
G1 X124.923 Y95.441 E.02011
G1 X125.43 Y95.441 E.01295
G1 X125.43 Y96.183 E.01896
G1 X125.937 Y96.138 E.013
G1 X125.937 Y95.441 E.01782
G1 X126.444 Y95.441 E.01295
G1 X126.444 Y96.093 E.01667
G1 X126.952 Y96.049 E.013
G1 X126.952 Y95.441 E.01552
G1 X127.459 Y95.441 E.01295
G1 X127.459 Y96.004 E.01438
G1 X127.966 Y95.959 E.013
G1 X127.966 Y95.441 E.01323
G1 X128.473 Y95.441 E.01295
G1 X128.473 Y95.914 E.01209
G1 X128.98 Y95.869 E.013
G1 X128.98 Y95.441 E.01094
G1 X129.487 Y95.441 E.01295
G1 X129.487 Y95.824 E.0098
G1 X129.994 Y95.779 E.013
G1 X129.994 Y95.441 E.00865
G1 X130.348 Y95.441 E.00903
M204 P1000
G1 E-2.24 F4200
;WIPE_START
G1 F7200
G1 X129.994 Y95.441 E-.19592
G1 X129.994 Y95.779 E-.18773
G1 X129.487 Y95.824 E-.2821
G1 X129.487 Y95.441 E-.2126
G1 X129.426 Y95.441 E-.03365
;WIPE_END
G1 E-.048 F4200
G1 Z.4 F720
G1 X132.361 Y95.97 F9000
G1 Z.2 F720
G1 E3.2 F2400
M204 P800
;TYPE:Support material
;WIDTH:0.42
G1 F1200
G1 X132.505 Y97.593 E.05108
G1 X132.473 Y97.631 E.00156
G1 X127.475 Y98.077 E.15734
G1 X125.375 Y98.077 E.06583
G1 X125.375 Y96.553 E.04778
G1 X132.316 Y95.939 E.21848
M204 P1000
G1 X132.052 Y97.498 F9000
M204 P800
G1 F1200
G1 X132.05 Y96.303 E.03747
G1 X131.633 Y96.34 E.01314
G1 X131.633 Y97.365 E.03215
G1 X131.214 Y97.403 E.01319
G1 X131.214 Y96.377 E.03215
G1 X130.795 Y96.414 E.01319
G1 X130.795 Y97.44 E.03216
G1 X130.376 Y97.477 E.01319
G1 X130.376 Y96.451 E.03217
G1 X129.957 Y96.488 E.01319
G1 X129.957 Y97.515 E.03218
G1 X129.538 Y97.552 E.01319
G1 X129.538 Y96.525 E.03219
G1 X129.119 Y96.563 E.01319
G1 X129.119 Y97.59 E.0322
G1 X128.7 Y97.627 E.01319
G1 X128.7 Y96.6 E.03221
G1 X128.281 Y96.637 E.01319
G1 X128.281 Y97.664 E.03222
G1 X127.862 Y97.702 E.01319
G1 X127.862 Y96.674 E.03223
G1 X127.443 Y96.711 E.01319
G1 X127.443 Y97.738 E.03219
G1 X127.024 Y97.738 E.01314
G1 X127.024 Y96.748 E.03103
G1 X126.605 Y96.785 E.01319
G1 X126.605 Y97.738 E.02987
G1 X126.186 Y97.738 E.01314
G1 X126.186 Y96.822 E.02871
G1 X125.767 Y96.859 E.01319
G1 X125.767 Y97.907 E.03286
M204 P1000
G1 E-2.24 F4200
;WIPE_START
G1 F7200
G1 X125.767 Y96.859 E-.58083
G1 X126.186 Y96.822 E-.23309
G1 X126.186 Y96.999 E-.09808
;WIPE_END
G1 E-.048 F4200
G1 Z.4 F720
G1 X130.626 Y93.134 F9000
G1 Z.2 F720
G1 E3.2 F2400
M204 P800
;TYPE:Support material interface
;WIDTH:0.35
G1 F1200
G1 X130.626 Y95.441 E.05891
G1 X130.501 Y95.441 E.00319
G1 X130.501 Y95.734 E.0075
G1 X131.008 Y95.69 E.013
G1 X131.008 Y93.134 E.06527
G1 X131.515 Y93.134 E.01295
G1 X131.515 Y95.645 E.06412
G1 X132.022 Y95.6 E.013
G1 X132.022 Y93.134 E.06298
G1 X132.529 Y93.134 E.01295
G1 X132.529 Y95.637 E.06391
G1 X132.71 Y95.788 E.00602
G1 X132.791 Y96.697 E.02331
M204 P1000
G1 E-2.24 F4200
;WIPE_START
G1 F7200
G1 X132.71 Y95.788 E-.50592
G1 X132.529 Y95.637 E-.13072
G1 X132.529 Y95.14 E-.27536
;WIPE_END
G1 E-.048 F4200
G1 Z.4 F720
G1 X135.31 Y97.748 F9000
G1 Z.2 F720
G1 E3.2 F2400
M204 P800
G1 F1200
G1 X135.572 Y97.748 E.00667
G1 X135.572 Y93.134 E.11782
G1 X136.079 Y93.134 E.01295
G1 X136.079 Y97.748 E.11782
G1 X136.586 Y97.748 E.01295
G1 X136.586 Y93.134 E.11782
G1 X137.093 Y93.134 E.01295
G1 X137.093 Y97.748 E.11782
G1 X137.6 Y97.748 E.01295
G1 X137.6 Y93.134 E.11782
G1 X138.107 Y93.134 E.01295
G1 X138.107 Y97.748 E.11782
G1 X138.614 Y97.748 E.01295
G1 X138.614 Y93.134 E.11782
G1 X139.121 Y93.134 E.01295
G1 X139.121 Y97.748 E.11782
G1 X139.628 Y97.748 E.01295
G1 X139.628 Y93.134 E.11782
G1 X140.136 Y93.134 E.01295
G1 X140.136 Y97.748 E.11782
G1 X140.643 Y97.748 E.01295
G1 X140.643 Y93.134 E.11782
G1 X141.15 Y93.134 E.01295
G1 X141.15 Y97.748 E.11782
G1 X141.657 Y97.748 E.01295
G1 X141.657 Y93.134 E.11782
G1 X142.161 Y93.134 E.01288
G1 X142.161 Y97.748 E.11782
G1 X141.81 Y97.748 E.00896
M204 P1000
G1 E-2.24 F4200
;WIPE_START
G1 F7200
G1 X142.161 Y97.748 E-.1945
G1 X142.161 Y96.453 E-.7175
;WIPE_END
G1 E-.048 F4200
G1 Z.4 F720
G1 X142.798 Y102.998 F9000
G1 Z.2 F720
G1 E3.2 F2400
M204 P800
;TYPE:Support material
;WIDTH:0.42
G1 F1200
G1 X132.604 Y102.998 E.31962
G1 X132.604 Y100.418 E.08089
G1 X135.604 Y100.418 E.09406
G1 X135.604 Y98.111 E.07234
G1 X142.525 Y98.111 E.21701
G1 X142.525 Y95.111 E.09406
G1 X142.798 Y95.111 E.00855
G1 X142.798 Y102.942 E.24551
M204 P1000
G1 X142.107 Y102.829 F9000
M204 P800
G1 F1200
G1 X142.107 Y98.451 E.13726
G1 X141.688 Y98.451 E.01314
G1 X141.688 Y102.659 E.13194
