; generated by PrusaSlicer 2.5.2 on 2023-06-06 at 16:09:24 UTC


;
;

;
;
; 

; external perimeters extrusion width = 0.45mm
; perimeters extrusion width = 0.45mm
; infill extrusion width = 0.45mm
; solid infill extrusion width = 0.45mm
; top infill extrusion width = 0.40mm
; support material extrusion width = 0.35mm
; first layer extrusion width = 0.42mm

M73 P0 R3
M201 X2500 Y2500 Z400 E5000 ; sets maximum accelerations, mm/sec^2
M203 X180 Y180 Z12 E80 ; sets maximum feedrates, mm / sec
M204 P1250 R1250 T2500 ; sets acceleration (P, T) and retract acceleration (R), mm/sec^2
M205 X8.00 Y8.00 Z2.00 E10.00 ; sets the jerk limits, mm/sec
M205 S0 T0 ; sets the minimum extruding and travel feed rate, mm/sec
M107
;TYPE:Custom
M862.3 P "MINI" ; printer model check
G90 ; use absolute coordinates
M83 ; extruder relative mode
M104 S170 ; set extruder temp for bed leveling
M140 S60 ; set bed temp
M109 R170 ; wait for bed leveling temp
M190 S60 ; wait for bed temp
M204 T1250 ; set travel acceleration
G28 ; home all without mesh bed level
G29 ; mesh bed leveling 
M204 T2500 ; restore travel acceleration
M104 S215 ; set extruder temp
G92 E0
G1 Y-2 X179 F2400
G1 Z3 F720
M109 S215 ; wait for extruder temp

; intro line
M73 P1 R3
G1 X170 F1000
M73 P2 R3
G1 Z0.2 F720
G1 X110 E8 F900
G1 X40 E10 F700
G92 E0

M221 S95 ; set flow
G21 ; set units to millimeters
G90 ; use absolute coordinates
M83 ; use relative distances for extrusion
M900 K0.2 ; Filament gcode LA 1.5
; ; Filament gcode LA 1.0
M107
;LAYER_CHANGE
;Z:0.2
;HEIGHT:0.2
;BEFORE_LAYER_CHANGE
G92 E0.0
;0.2


M73 P4 R3
G1 E-3.2 F4200
M73 P6 R3
G1 Z.2 F720
;AFTER_LAYER_CHANGE
;0.2
G1 Z.4
G1 X88.146 Y83.88 F9000
G1 Z.2 F720
M73 P7 R3
G1 E3.2 F2400
M204 P800
;TYPE:Skirt/Brim
;WIDTH:0.42
G1 F1200
G1 X88.877 Y83.226 E.03076
G1 X89.693 Y82.703 E.03037
G1 X90.604 Y82.307 E.03114
G1 X91.548 Y82.066 E.03056
G1 X92.671 Y81.978 E.03532
G1 X105.267 Y83.43 E.39755
G1 X105.959 Y83.582 E.02222
G1 X106.701 Y83.877 E.02502
G1 X107.47 Y84.359 E.02847
G1 X108.208 Y85.067 E.03207
G1 X108.769 Y85.902 E.03155
G1 X109.083 Y86.643 E.0252
G1 X109.281 Y87.54 E.02881
G1 X109.294 Y88.562 E.03206
G1 X109.15 Y89.347 E.02502
G1 X108.782 Y90.29 E.03174
G1 X108.07 Y91.307 E.03893
G1 X107.287 Y91.991 E.03258
G1 X106.282 Y92.524 E.03567
G1 X105.276 Y92.785 E.03259
M73 P8 R3
G1 X92.869 Y94.232 E.39167
G1 X92.108 Y94.221 E.02384
G1 X91.24 Y94.089 E.02755
G1 X90.465 Y93.86 E.02534
G1 X89.705 Y93.521 E.02609
G1 X88.882 Y92.994 E.03063
G1 X88.041 Y92.223 E.03579
G1 X87.447 Y91.452 E.0305
G1 X86.979 Y90.59 E.03076
G1 X86.65 Y89.645 E.03138
G1 X86.481 Y88.679 E.03076
G1 X86.48 Y87.55 E.03539
G1 X86.649 Y86.576 E.031
G1 X86.967 Y85.654 E.03057
G1 X87.517 Y84.658 E.03566
G1 X88.108 Y83.926 E.0295
M204 P1000
G1 X88.369 Y84.202 F9000
M204 P800
G1 F1200
G1 X88.984 Y83.621 E.02654
G1 X89.866 Y83.038 E.03316
G1 X90.721 Y82.665 E.02922
G1 X91.76 Y82.414 E.03351
G1 X92.679 Y82.355 E.0289
G1 X105.223 Y83.804 E.39591
G1 X106.432 Y84.166 E.03957
M73 P9 R3
G1 X107.076 Y84.538 E.02331
G1 X107.785 Y85.157 E.02951
G1 X108.285 Y85.815 E.02592
G1 X108.686 Y86.649 E.02904
G1 X108.878 Y87.383 E.02378
G1 X108.933 Y88.323 E.02953
G1 X108.814 Y89.141 E.0259
G1 X108.5 Y90.012 E.02904
G1 X107.99 Y90.821 E.02999
G1 X107.236 Y91.561 E.03311
G1 X106.25 Y92.131 E.03571
G1 X105.232 Y92.41 E.03312
G1 X92.847 Y93.856 E.39096
G1 X92.137 Y93.845 E.02224
G1 X91.317 Y93.72 E.02601
G1 X90.019 Y93.258 E.04322
G1 X89.106 Y92.691 E.0337
G1 X88.424 Y92.082 E.02867
G1 X87.846 Y91.37 E.02874
G1 X87.384 Y90.569 E.02898
G1 X87.055 Y89.699 E.02918
G1 X86.873 Y88.8 E.02875
G1 X86.843 Y87.746 E.03304
G1 X86.977 Y86.821 E.02933
G1 X87.256 Y85.939 E.02899
G1 X87.745 Y84.998 E.03327
G1 X88.325 Y84.243 E.02984
M204 P1000
G1 X88.594 Y84.505 F9000
M204 P800
G1 F1200
G1 X89.224 Y83.911 E.02716
G1 X90.04 Y83.372 E.03065
G1 X90.838 Y83.023 E.02731
G1 X91.819 Y82.787 E.03163
G1 X92.678 Y82.732 E.02699
G1 X105.179 Y84.179 E.39457
M73 P10 R3
G1 X106.268 Y84.505 E.03564
G1 X106.864 Y84.85 E.0216
G1 X107.511 Y85.416 E.02695
G1 X107.962 Y86.009 E.02336
G1 X108.33 Y86.771 E.02653
G1 X108.507 Y87.451 E.02203
G1 X108.56 Y88.194 E.02337
G1 X108.486 Y88.879 E.0216
G1 X108.231 Y89.694 E.02678
G1 X107.802 Y90.446 E.02713
G1 X107.093 Y91.194 E.03231
G1 X106.372 Y91.661 E.02696
G1 X105.459 Y91.987 E.03038
G1 X92.977 Y93.471 E.39413
G1 X91.68 Y93.408 E.0407
G1 X90.452 Y93.044 E.04017
G1 X89.567 Y92.558 E.03164
G1 X88.893 Y92.016 E.02713
G1 X88.244 Y91.28 E.03078
G1 X87.79 Y90.54 E.0272
G1 X87.463 Y89.744 E.02698
G1 X87.247 Y88.749 E.03194
G1 X87.219 Y87.775 E.03054
M73 P11 R3
G1 X87.344 Y86.91 E.02741
G1 X87.603 Y86.086 E.02709
G1 X88.065 Y85.197 E.03142
G1 X88.558 Y84.553 E.02542
M204 P1000
; printing object rudder_horn_4.3.stl id:0 copy 0
G1 E-2.24 F4200
;WIPE_START
G1 F7200
G1 X89.224 Y83.911 E-.51283
G1 X89.825 Y83.514 E-.39917
;WIPE_END
G1 E-.048 F4200
G1 Z.4 F720
G1 X94.707 Y86.109 F9000
G1 Z.2 F720
G1 E3.2 F2400
M204 P800
;TYPE:Perimeter
;WIDTH:0.419999
G1 F1200
G1 X95.158 Y86.183 E.01435
G1 X103.726 Y87.181 E.27045
G1 X103.508 Y87.427 E.0103
G1 X103.343 Y87.822 E.01343
G1 X103.309 Y88.048 E.00716
G1 X103.328 Y88.332 E.00892
G1 X103.394 Y88.562 E.0075
G1 X103.511 Y88.78 E.00777
G1 X103.743 Y89.034 E.01079
G1 X95.386 Y90.007 E.2638
G1 X94.707 Y90.108 E.02154
G1 X94.783 Y90.041 E.00318
G1 X95.127 Y89.574 E.01818
G1 X95.359 Y89.066 E.01751
G1 X95.49 Y88.529 E.01734
G1 X95.517 Y87.977 E.01732
G1 X95.441 Y87.43 E.01732
G1 X95.263 Y86.907 E.01733
G1 X94.969 Y86.427 E.01763
G1 X94.745 Y86.155 E.01105
M204 P1000
G1 E-2.24 F4200
;WIPE_START
G1 F7200
G1 X95.158 Y86.183 E-.22956
G1 X96.381 Y86.326 E-.68244
;WIPE_END
G1 E-.048 F4200
G1 Z.4 F720
G1 X92.44 Y85.731 F9000
G1 Z.2 F720
G1 E3.2 F2400
M204 P800
;TYPE:External perimeter
;WIDTH:0.41604
G1 F1200
M73 P12 R3
G1 X92.893 Y85.746 E.01408
;WIDTH:0.41963
G1 X93.439 Y85.846 E.01739
;WIDTH:0.443723
G1 X93.908 Y85.988 E.01633
G1 X94.199 Y86.163 E.0113
;WIDTH:0.419999
G1 X94.566 Y86.497 E.01554
G1 X94.889 Y86.996 E.01865
G1 X95.068 Y87.489 E.01645
G1 X95.138 Y88.044 E.01753
G1 X95.122 Y88.447 E.01264
G1 X95.013 Y88.916 E.01511
G1 X94.818 Y89.359 E.01517
G1 X94.533 Y89.758 E.01539
;WIDTH:0.42821
G1 X94.083 Y90.126 E.01862
;WIDTH:0.43753
G1 X93.871 Y90.24 E.00787
G1 X93.324 Y90.398 E.01871
;WIDTH:0.421094
G1 X92.778 Y90.484 E.01737
G1 X92.161 Y90.453 E.01942
;WIDTH:0.420658
G1 X91.678 Y90.313 E.0158
G1 X91.292 Y90.112 E.01366
;WIDTH:0.41812
G1 X90.941 Y89.833 E.01399
;WIDTH:0.416499
G1 X90.646 Y89.495 E.01394
;WIDTH:0.41999
G1 X90.418 Y89.106 E.01413
G1 X90.272 Y88.684 E.01401
;WIDTH:0.41686
G1 X90.207 Y88.276 E.01286
G1 X90.224 Y87.787 E.0152
;WIDTH:0.417686
G1 X90.36 Y87.252 E.01719
G1 X90.583 Y86.818 E.01523
;WIDTH:0.41604
G1 X90.86 Y86.464 E.01392
G1 X91.199 Y86.171 E.01391
G1 X91.586 Y85.944 E.01392
G1 X92.01 Y85.797 E.01392
G1 X92.381 Y85.74 E.01163
M204 P1000
G1 X92.619 Y85.373 F9000
G1 E-2.24 F4200
;WIPE_START
G1 F7200
G1 X92.893 Y85.746 E-.28417
G1 X93.439 Y85.846 E-.30765
G1 X93.908 Y85.988 E-.27161
G1 X93.983 Y86.034 E-.04857
;WIPE_END
G1 E-.048 F4200
G1 Z.4 F720
G1 X93.893 Y85.562 F9000
G1 Z.2 F720
G1 E3.2 F2400
M204 P800
;WIDTH:0.419999
G1 F1200
G1 X94.429 Y85.68 E.01722
G1 X95.202 Y85.809 E.02458
G1 X103.501 Y86.783 E.262
;WIDTH:0.426825
G1 X104.806 Y86.895 E.0418
;WIDTH:0.421204
G1 X105.134 Y87.005 E.01088
;WIDTH:0.421092
G1 X105.487 Y87.268 E.01384
G1 X105.722 Y87.642 E.0139
;WIDTH:0.422022
G1 X105.813 Y88.074 E.0139
;WIDTH:0.423291
G1 X105.744 Y88.517 E.01418
G1 X105.653 Y88.713 E.00684
;WIDTH:0.414829
G1 X105.386 Y89.04 E.01307
;WIDTH:0.420761
G1 X105.015 Y89.264 E.0136
G1 X104.808 Y89.322 E.00675
;WIDTH:0.420129
G1 X103.406 Y89.442 E.04414
;WIDTH:0.419999
G1 X95.43 Y90.381 E.2518
G1 X94.868 Y90.463 E.0178
;WIDTH:0.43753
M73 P13 R3
G1 X93.975 Y90.621 E.02977
G1 X93.268 Y90.796 E.02391
;WIDTH:0.423515
G1 X92.701 Y90.863 E.01807
;WIDTH:0.417563
G1 X92.086 Y90.819 E.0192
;WIDTH:0.417325
G1 X91.601 Y90.685 E.01565
;WIDTH:0.419756
G1 X91.114 Y90.445 E.01703
G1 X90.714 Y90.133 E.0159
;WIDTH:0.419522
G1 X90.37 Y89.76 E.01589
G1 X90.114 Y89.329 E.01569
;WIDTH:0.419016
G1 X89.915 Y88.808 E.01744
;WIDTH:0.419727
G1 X89.826 Y88.253 E.0176
;WIDTH:0.419714
G1 X89.861 Y87.701 E.01734
;WIDTH:0.416079
G1 X90.027 Y87.081 E.01992
;WIDTH:0.415597
G1 X90.268 Y86.624 E.01601
;WIDTH:0.415481
G1 X90.583 Y86.213 E.01605
G1 X90.976 Y85.877 E.01601
G1 X91.42 Y85.61 E.01605
G1 X91.909 Y85.442 E.01602
G1 X92.423 Y85.357 E.01612
G1 X92.95 Y85.378 E.01635
;WIDTH:0.419999
G1 X93.834 Y85.549 E.02824
M204 P1000
G1 E-2.24 F4200
;WIPE_START
G1 F7200
G1 X94.429 Y85.68 E-.33753
G1 X95.202 Y85.809 E-.4344
G1 X95.453 Y85.838 E-.14008
;WIPE_END
G1 E-.048 F4200
G1 Z.4 F720
G1 X104.434 Y87.251 F9000
G1 Z.2 F720
G1 E3.2 F2400
M204 P800
;WIDTH:0.427667
G1 F1200
G1 X104.739 Y87.266 E.00978
;WIDTH:0.423079
G1 X105.076 Y87.408 E.01156
G1 X105.283 Y87.617 E.0093
;WIDTH:0.411125
G1 X105.419 Y87.922 E.01021
;WIDTH:0.410548
G1 X105.426 Y88.255 E.01019
;WIDTH:0.416696
G1 X105.308 Y88.568 E.01039
;WIDTH:0.41704
G1 X105.078 Y88.81 E.01041
;WIDTH:0.419748
G1 X104.776 Y88.946 E.01038
;WIDTH:0.424914
G1 X104.47 Y88.97 E.00974
G1 X104.21 Y88.907 E.00851
;WIDTH:0.420129
G1 X103.855 Y88.623 E.01425
;WIDTH:0.419999
G1 X103.704 Y88.307 E.01098
G1 X103.686 Y88.029 E.00874
G1 X103.816 Y87.644 E.01274
G1 X104.082 Y87.376 E.01181
;WIDTH:0.427667
G1 X104.376 Y87.263 E.0101
M204 P1000
G1 E-2.24 F4200
;WIPE_START
G1 F7200
G1 X104.739 Y87.266 E-.20108
G1 X105.076 Y87.408 E-.20274
G1 X105.283 Y87.617 E-.1631
G1 X105.419 Y87.922 E-.18483
G1 X105.425 Y88.211 E-.16025
;WIPE_END
G1 E-.048 F4200
G1 Z.4 F720
G1 X102.544 Y87.168 F9000
G1 Z.2 F720
G1 E3.2 F2400
M204 P800
;TYPE:Solid infill
;WIDTH:0.43857
G1 F1200
G1 X103.084 Y87.708 E.02512
G1 X103.026 Y88.054 E.01156
G1 X103.037 Y88.22 E.00548
G1 X102.104 Y87.287 E.04344
G1 X101.469 Y87.212 E.02101
G1 X103.074 Y88.817 E.07466
G1 X102.573 Y88.875 E.01658
G1 X100.835 Y87.137 E.08088
G1 X100.201 Y87.062 E.02101
M73 P14 R3
G1 X102.073 Y88.934 E.0871
G1 X101.572 Y88.993 E.01658
G1 X99.566 Y86.988 E.09332
G1 X98.932 Y86.913 E.02101
G1 X101.072 Y89.052 E.09955
G1 X100.571 Y89.111 E.01658
G1 X98.298 Y86.838 E.10577
G1 X97.663 Y86.763 E.02101
G1 X100.07 Y89.17 E.11199
G1 X99.57 Y89.229 E.01658
G1 X97.029 Y86.688 E.11821
G1 X96.395 Y86.614 E.02101
G1 X99.069 Y89.288 E.12443
G1 X98.569 Y89.347 E.01658
G1 X95.76 Y86.539 E.13066
G1 X95.347 Y86.49 E.01368
G1 X95.446 Y86.642 E.00595
G1 X95.56 Y86.898 E.00924
G1 X98.068 Y89.406 E.11667
G1 X97.567 Y89.465 E.01658
G1 X95.756 Y87.654 E.08427
G1 X95.8 Y87.979 E.0108
G1 X95.786 Y88.243 E.00869
G1 X97.067 Y89.524 E.0596
G1 X96.566 Y89.583 E.01658
G1 X95.731 Y88.747 E.03887
M73 P15 R3
G1 X95.667 Y89.034 E.00966
G1 X95.606 Y89.182 E.00527
G1 X96.066 Y89.642 E.02137
G1 X95.565 Y89.701 E.01658
G1 X95.314 Y89.45 E.01167
M204 P1000
; stop printing object rudder_horn_4.3.stl id:0 copy 0
M106 S84.15
;LAYER_CHANGE
;Z:0.4
;HEIGHT:0.2
;BEFORE_LAYER_CHANGE
G92 E0.0
;0.4


G1 E-2.24 F4200
;WIPE_START
G1 F7200
G1 X95.565 Y89.701 E-.19658
G1 X96.066 Y89.642 E-.27932
G1 X95.606 Y89.182 E-.36003
G1 X95.658 Y89.055 E-.07607
;WIPE_END
G1 E-.048 F4200
G1 Z.4 F720
;AFTER_LAYER_CHANGE
;0.4
G1 Z.6
G1 X96.217 Y93.842 F9000
G1 Z.4 F720
G1 E3.2 F2400
;TYPE:Skirt/Brim
;WIDTH:0.42
G1 F1446
G1 X92.869 Y94.232 E.10568
G1 X92.108 Y94.221 E.02384
G1 X91.24 Y94.089 E.02755
G1 X90.465 Y93.86 E.02534
G1 X89.705 Y93.521 E.02609
G1 X88.882 Y92.994 E.03063
G1 X88.041 Y92.223 E.03579
G1 X87.447 Y91.452 E.0305
G1 X86.979 Y90.59 E.03076
G1 X86.65 Y89.645 E.03138
G1 X86.481 Y88.679 E.03076
G1 X86.48 Y87.55 E.03539
G1 X86.649 Y86.576 E.031
G1 X86.967 Y85.654 E.03057
G1 X87.517 Y84.658 E.03566
G1 X88.146 Y83.88 E.03138
G1 X88.877 Y83.226 E.03076
G1 X89.693 Y82.703 E.03037
G1 X90.604 Y82.307 E.03114
G1 X91.548 Y82.066 E.03056
G1 X92.671 Y81.978 E.03532
G1 X105.267 Y83.43 E.39755
G1 X105.959 Y83.582 E.02222
G1 X106.701 Y83.877 E.02502
G1 X107.47 Y84.359 E.02847
G1 X108.208 Y85.067 E.03207
G1 X108.769 Y85.902 E.03155
M73 P16 R3
G1 X109.083 Y86.643 E.0252
G1 X109.281 Y87.54 E.02881
G1 X109.294 Y88.562 E.03206
G1 X109.15 Y89.347 E.02502
G1 X108.782 Y90.29 E.03174
G1 X108.07 Y91.307 E.03893
G1 X107.287 Y91.991 E.03258
G1 X106.282 Y92.524 E.03567
G1 X105.276 Y92.785 E.03259
G1 X96.276 Y93.835 E.2841
G1 X96.232 Y93.461 F9000
G1 F1446
G1 X92.847 Y93.856 E.10688
G1 X92.137 Y93.845 E.02224
G1 X91.317 Y93.72 E.02601
G1 X90.019 Y93.258 E.04322
G1 X89.106 Y92.691 E.0337
G1 X88.424 Y92.082 E.02867
G1 X87.846 Y91.37 E.02874
G1 X87.384 Y90.569 E.02898
G1 X87.055 Y89.699 E.02918
G1 X86.873 Y88.8 E.02875
G1 X86.843 Y87.746 E.03304
G1 X86.977 Y86.821 E.02933
G1 X87.256 Y85.939 E.02899
G1 X87.745 Y84.998 E.03327
G1 X88.31 Y84.257 E.0292
G1 X88.984 Y83.621 E.02908
G1 X89.866 Y83.038 E.03316
G1 X90.721 Y82.665 E.02922
G1 X91.76 Y82.414 E.03351
G1 X92.679 Y82.355 E.0289
G1 X105.223 Y83.804 E.39591
G1 X106.432 Y84.166 E.03957
M73 P17 R3
G1 X107.076 Y84.538 E.02331
G1 X107.785 Y85.157 E.02951
G1 X108.285 Y85.815 E.02592
G1 X108.686 Y86.649 E.02904
G1 X108.878 Y87.383 E.02378
G1 X108.933 Y88.323 E.02953
G1 X108.814 Y89.141 E.0259
G1 X108.5 Y90.012 E.02904
G1 X107.99 Y90.821 E.02999
G1 X107.236 Y91.561 E.03311
G1 X106.25 Y92.131 E.03571
G1 X105.232 Y92.41 E.03312
G1 X96.292 Y93.454 E.2822
G1 X96.248 Y93.082 F9000
G1 F1446
G1 X92.977 Y93.471 E.10328
G1 X91.68 Y93.408 E.0407
G1 X90.452 Y93.044 E.04017
G1 X89.567 Y92.558 E.03164
G1 X88.893 Y92.016 E.02713
G1 X88.244 Y91.28 E.03078
G1 X87.79 Y90.54 E.0272
G1 X87.463 Y89.744 E.02698
G1 X87.247 Y88.749 E.03194
G1 X87.219 Y87.775 E.03054
G1 X87.344 Y86.91 E.02741
G1 X87.603 Y86.086 E.02709
G1 X88.065 Y85.197 E.03142
G1 X88.594 Y84.505 E.0273
G1 X89.224 Y83.911 E.02716
G1 X90.04 Y83.372 E.03065
G1 X90.838 Y83.023 E.02731
G1 X91.819 Y82.787 E.03163
G1 X92.678 Y82.732 E.02699
G1 X105.179 Y84.179 E.39457
G1 X106.268 Y84.505 E.03564
M73 P18 R3
G1 X106.864 Y84.85 E.0216
G1 X107.511 Y85.416 E.02695
G1 X107.962 Y86.009 E.02336
G1 X108.33 Y86.771 E.02653
G1 X108.507 Y87.451 E.02203
G1 X108.56 Y88.194 E.02337
G1 X108.486 Y88.879 E.0216
G1 X108.231 Y89.694 E.02678
G1 X107.802 Y90.446 E.02713
G1 X107.093 Y91.194 E.03231
G1 X106.372 Y91.661 E.02696
G1 X105.459 Y91.987 E.03038
G1 X96.307 Y93.075 E.28897
; printing object rudder_horn_4.3.stl id:0 copy 0
G1 E-2.24 F4200
;WIPE_START
G1 F7200
G1 X94.673 Y93.269 E-.912
;WIPE_END
G1 E-.048 F4200
G1 Z.6 F720
G1 X94.31 Y85.938 F9000
G1 Z.4 F720
G1 E3.2 F2400
M204 P800
;TYPE:Perimeter
;WIDTH:0.449999
G1 F1446
G1 X104.125 Y87.085 E.33447
G1 X103.877 Y87.232 E.00975
G1 X103.595 Y87.569 E.01488
G1 X103.464 Y87.989 E.01489
G1 X103.464 Y88.227 E.00806
G1 X103.595 Y88.647 E.01489
G1 X103.877 Y88.985 E.01488
G1 X104.127 Y89.132 E.00981
G1 X94.296 Y90.289 E.33505
G1 X94.546 Y90.077 E.0111
M73 P19 R3
G1 X94.963 Y89.549 E.02277
G1 X95.19 Y89.078 E.0177
G1 X95.326 Y88.573 E.01771
G1 X95.364 Y88.051 E.01771
G1 X95.304 Y87.531 E.01771
G1 X95.148 Y87.032 E.01771
G1 X94.889 Y86.556 E.01834
G1 X94.542 Y86.136 E.01845
G1 X94.356 Y85.977 E.00828
M204 P1000
G1 E-2.24 F4200
;WIPE_START
G1 F7200
G1 X95.991 Y86.162 E-.912
;WIPE_END
G1 E-.048 F4200
G1 Z.6 F720
G1 X92.436 Y85.759 F9000
G1 Z.4 F720
G1 E3.2 F2400
M204 P800
;TYPE:External perimeter
;WIDTH:0.451774
G1 F1446
G1 X92.642 Y85.739 E.00705
;WIDTH:0.447649
G1 X93.047 Y85.781 E.0137
;WIDTH:0.47384
G1 X93.482 Y85.897 E.01614
G1 X93.873 Y86.114 E.01602
;WIDTH:0.449999
G1 X94.228 Y86.395 E.01533
G1 X94.575 Y86.815 E.01845
G1 X94.799 Y87.252 E.01662
G1 X94.921 Y87.682 E.01513
G1 X94.959 Y88.127 E.01513
G1 X94.913 Y88.572 E.01513
G1 X94.785 Y89 E.01513
G1 X94.576 Y89.401 E.01532
G1 X94.232 Y89.818 E.01828
G1 X93.841 Y90.123 E.01679
;WIDTH:0.485053
G1 X93.446 Y90.34 E.01656
G1 X92.793 Y90.465 E.02446
;WIDTH:0.450953
G1 X92.41 Y90.468 E.01298
;WIDTH:0.450332
G1 X92.041 Y90.413 E.01265
;WIDTH:0.44911
G1 X91.688 Y90.304 E.01245
;WIDTH:0.448448
G1 X91.237 Y90.056 E.01738
;WIDTH:0.452217
G1 X90.856 Y89.719 E.01729
G1 X90.573 Y89.362 E.01551
;WIDTH:0.443579
G1 X90.375 Y88.963 E.01485
