; generated by PrusaSlicer 2.5.2 on 2023-06-07 at 20:32:17 UTC


;
;

;
;
; 

; external perimeters extrusion width = 0.45mm
; perimeters extrusion width = 0.45mm
; infill extrusion width = 0.45mm
; solid infill extrusion width = 0.45mm
; top infill extrusion width = 0.40mm
; support material extrusion width = 0.35mm
; first layer extrusion width = 0.42mm

M73 P0 R8
M201 X2500 Y2500 Z400 E5000 ; sets maximum accelerations, mm/sec^2
M203 X180 Y180 Z12 E80 ; sets maximum feedrates, mm / sec
M204 P1250 R1250 T2500 ; sets acceleration (P, T) and retract acceleration (R), mm/sec^2
M205 X8.00 Y8.00 Z2.00 E10.00 ; sets the jerk limits, mm/sec
M205 S0 T0 ; sets the minimum extruding and travel feed rate, mm/sec
M107
;TYPE:Custom
M862.3 P "MINI" ; printer model check
G90 ; use absolute coordinates
M83 ; extruder relative mode
M104 S170 ; set extruder temp for bed leveling
M140 S60 ; set bed temp
M109 R170 ; wait for bed leveling temp
M190 S60 ; wait for bed temp
M204 T1250 ; set travel acceleration
G28 ; home all without mesh bed level
G29 ; mesh bed leveling 
M204 T2500 ; restore travel acceleration
M104 S215 ; set extruder temp
G92 E0
G1 Y-2 X179 F2400
G1 Z3 F720
M109 S215 ; wait for extruder temp

; intro line
G1 X170 F1000
G1 Z0.2 F720
M73 P1 R8
G1 X110 E8 F900
G1 X40 E10 F700
G92 E0

M221 S95 ; set flow
G21 ; set units to millimeters
G90 ; use absolute coordinates
M83 ; use relative distances for extrusion
M900 K0.2 ; Filament gcode LA 1.5
; ; Filament gcode LA 1.0
M107
;LAYER_CHANGE
;Z:0.2
;HEIGHT:0.2
;BEFORE_LAYER_CHANGE
G92 E0.0
;0.2


G1 E-3.2 F4200
M73 P2 R8
G1 Z.2 F720
;AFTER_LAYER_CHANGE
;0.2
G1 Z.4
G1 X38.352 Y85.509 F9000
G1 Z.2 F720
M73 P3 R8
G1 E3.2 F2400
M204 P800
;TYPE:Skirt/Brim
;WIDTH:0.42
G1 F1200
G1 X39.292 Y85.316 E.03008
G1 X140.708 Y85.316 E3.17982
G1 X142.015 Y85.707 E.04278
M73 P4 R8
G1 X142.891 Y86.753 E.04278
G1 X143.085 Y87.693 E.03008
G1 X143.085 Y92.307 E.14467
G1 X142.693 Y93.614 E.04278
G1 X141.648 Y94.491 E.04278
G1 X140.708 Y94.684 E.03008
G1 X39.292 Y94.684 E3.17982
G1 X37.985 Y94.293 E.04278
M73 P5 R8
G1 X37.109 Y93.247 E.04278
G1 X36.915 Y92.307 E.03008
G1 X36.915 Y87.693 E.14467
G1 X37.307 Y86.386 E.04278
G1 X38.306 Y85.548 E.0409
M204 P1000
; printing object servo_connector.stl id:0 copy 0
G1 E-2.24 F4200
;WIPE_START
G1 F7200
G1 X39.292 Y85.316 E-.56121
G1 X39.925 Y85.316 E-.35079
;WIPE_END
G1 E-.048 F4200
G1 Z.4 F720
G1 X39.292 Y92.307 F9000
G1 Z.2 F720
G1 E3.2 F2400
M204 P800
;TYPE:Support material interface
;WIDTH:0.35
G1 F1200
G1 X39.292 Y87.693 E.11782
G1 X39.799 Y87.693 E.01295
G1 X39.799 Y92.307 E.11782
G1 X40.306 Y92.307 E.01295
G1 X40.306 Y87.693 E.11782
G1 X40.813 Y87.693 E.01295
G1 X40.813 Y92.307 E.11782
G1 X41.32 Y92.307 E.01295
G1 X41.32 Y87.693 E.11782
G1 X41.827 Y87.693 E.01295
G1 X41.827 Y92.307 E.11782
G1 X42.335 Y92.307 E.01295
G1 X42.335 Y87.693 E.11782
G1 X42.842 Y87.693 E.01295
G1 X42.842 Y92.307 E.11782
G1 X43.349 Y92.307 E.01295
G1 X43.349 Y87.693 E.11782
G1 X43.856 Y87.693 E.01295
G1 X43.856 Y92.307 E.11782
G1 X44.363 Y92.307 E.01295
G1 X44.363 Y87.693 E.11782
G1 X44.87 Y87.693 E.01295
G1 X44.87 Y92.307 E.11782
G1 X45.377 Y92.307 E.01295
G1 X45.377 Y87.693 E.11782
M73 P6 R8
G1 X45.884 Y87.693 E.01295
G1 X45.884 Y92.307 E.11782
G1 X46.391 Y92.307 E.01295
G1 X46.391 Y87.693 E.11782
G1 X46.898 Y87.693 E.01295
G1 X46.898 Y92.307 E.11782
G1 X47.405 Y92.307 E.01295
G1 X47.405 Y87.693 E.11782
G1 X47.912 Y87.693 E.01295
G1 X47.912 Y92.307 E.11782
G1 X48.42 Y92.307 E.01295
G1 X48.42 Y87.693 E.11782
G1 X48.927 Y87.693 E.01295
G1 X48.927 Y92.307 E.11782
G1 X49.434 Y92.307 E.01295
G1 X49.434 Y87.693 E.11782
G1 X49.941 Y87.693 E.01295
G1 X49.941 Y92.307 E.11782
G1 X50.448 Y92.307 E.01295
G1 X50.448 Y87.693 E.11782
G1 X50.955 Y87.693 E.01295
G1 X50.955 Y92.307 E.11782
G1 X51.462 Y92.307 E.01295
G1 X51.462 Y87.693 E.11782
G1 X51.969 Y87.693 E.01295
G1 X51.969 Y92.307 E.11782
G1 X52.476 Y92.307 E.01295
G1 X52.476 Y87.693 E.11782
G1 X52.983 Y87.693 E.01295
G1 X52.983 Y92.307 E.11782
G1 X53.49 Y92.307 E.01295
G1 X53.49 Y87.693 E.11782
G1 X53.997 Y87.693 E.01295
G1 X53.997 Y92.307 E.11782
G1 X54.504 Y92.307 E.01295
G1 X54.504 Y87.693 E.11782
G1 X55.012 Y87.693 E.01295
G1 X55.012 Y92.307 E.11782
G1 X55.519 Y92.307 E.01295
M73 P7 R8
G1 X55.519 Y87.693 E.11782
G1 X56.026 Y87.693 E.01295
G1 X56.026 Y92.307 E.11782
G1 X56.533 Y92.307 E.01295
G1 X56.533 Y87.693 E.11782
G1 X57.04 Y87.693 E.01295
G1 X57.04 Y92.307 E.11782
G1 X57.547 Y92.307 E.01295
G1 X57.547 Y87.693 E.11782
G1 X58.054 Y87.693 E.01295
G1 X58.054 Y92.307 E.11782
G1 X58.561 Y92.307 E.01295
G1 X58.561 Y87.693 E.11782
G1 X59.068 Y87.693 E.01295
G1 X59.068 Y92.307 E.11782
G1 X59.575 Y92.307 E.01295
G1 X59.575 Y87.693 E.11782
G1 X60.082 Y87.693 E.01295
G1 X60.082 Y92.307 E.11782
G1 X60.589 Y92.307 E.01295
G1 X60.589 Y87.693 E.11782
G1 X61.096 Y87.693 E.01295
G1 X61.096 Y92.307 E.11782
G1 X61.604 Y92.307 E.01295
G1 X61.604 Y87.693 E.11782
G1 X62.111 Y87.693 E.01295
G1 X62.111 Y92.307 E.11782
G1 X62.618 Y92.307 E.01295
G1 X62.618 Y87.693 E.11782
G1 X63.125 Y87.693 E.01295
G1 X63.125 Y92.307 E.11782
G1 X63.632 Y92.307 E.01295
G1 X63.632 Y87.693 E.11782
G1 X64.139 Y87.693 E.01295
G1 X64.139 Y92.307 E.11782
G1 X64.646 Y92.307 E.01295
G1 X64.646 Y87.693 E.11782
G1 X65.153 Y87.693 E.01295
M73 P8 R8
G1 X65.153 Y92.307 E.11782
G1 X65.66 Y92.307 E.01295
G1 X65.66 Y87.693 E.11782
G1 X66.167 Y87.693 E.01295
G1 X66.167 Y92.307 E.11782
G1 X66.674 Y92.307 E.01295
G1 X66.674 Y87.693 E.11782
G1 X67.181 Y87.693 E.01295
G1 X67.181 Y92.307 E.11782
G1 X67.689 Y92.307 E.01295
G1 X67.689 Y87.693 E.11782
G1 X68.196 Y87.693 E.01295
G1 X68.196 Y92.307 E.11782
G1 X68.703 Y92.307 E.01295
G1 X68.703 Y87.693 E.11782
G1 X69.21 Y87.693 E.01295
G1 X69.21 Y92.307 E.11782
G1 X69.717 Y92.307 E.01295
G1 X69.717 Y87.693 E.11782
G1 X70.224 Y87.693 E.01295
M73 P8 R7
G1 X70.224 Y92.307 E.11782
G1 X70.731 Y92.307 E.01295
G1 X70.731 Y87.693 E.11782
G1 X71.238 Y87.693 E.01295
G1 X71.238 Y92.307 E.11782
G1 X71.745 Y92.307 E.01295
G1 X71.745 Y87.693 E.11782
G1 X72.252 Y87.693 E.01295
G1 X72.252 Y92.307 E.11782
G1 X72.759 Y92.307 E.01295
G1 X72.759 Y87.693 E.11782
G1 X73.266 Y87.693 E.01295
G1 X73.266 Y92.307 E.11782
G1 X73.773 Y92.307 E.01295
G1 X73.773 Y87.693 E.11782
G1 X74.281 Y87.693 E.01295
G1 X74.281 Y92.307 E.11782
G1 X74.788 Y92.307 E.01295
M73 P9 R7
G1 X74.788 Y87.693 E.11782
G1 X75.295 Y87.693 E.01295
G1 X75.295 Y92.307 E.11782
G1 X75.802 Y92.307 E.01295
G1 X75.802 Y87.693 E.11782
G1 X76.309 Y87.693 E.01295
G1 X76.309 Y92.307 E.11782
G1 X76.816 Y92.307 E.01295
G1 X76.816 Y87.693 E.11782
G1 X77.323 Y87.693 E.01295
G1 X77.323 Y92.307 E.11782
G1 X77.83 Y92.307 E.01295
G1 X77.83 Y87.693 E.11782
G1 X78.337 Y87.693 E.01295
G1 X78.337 Y92.307 E.11782
G1 X78.844 Y92.307 E.01295
G1 X78.844 Y87.693 E.11782
G1 X79.351 Y87.693 E.01295
G1 X79.351 Y92.307 E.11782
G1 X79.858 Y92.307 E.01295
G1 X79.858 Y87.693 E.11782
G1 X80.365 Y87.693 E.01295
G1 X80.365 Y92.307 E.11782
G1 X80.873 Y92.307 E.01295
G1 X80.873 Y87.693 E.11782
G1 X81.38 Y87.693 E.01295
G1 X81.38 Y92.307 E.11782
G1 X81.887 Y92.307 E.01295
G1 X81.887 Y87.693 E.11782
G1 X82.394 Y87.693 E.01295
G1 X82.394 Y92.307 E.11782
G1 X82.901 Y92.307 E.01295
G1 X82.901 Y87.693 E.11782
G1 X83.408 Y87.693 E.01295
G1 X83.408 Y92.307 E.11782
G1 X83.915 Y92.307 E.01295
G1 X83.915 Y87.693 E.11782
G1 X84.422 Y87.693 E.01295
M73 P10 R7
G1 X84.422 Y92.307 E.11782
G1 X84.929 Y92.307 E.01295
G1 X84.929 Y87.693 E.11782
G1 X85.436 Y87.693 E.01295
G1 X85.436 Y92.307 E.11782
G1 X85.943 Y92.307 E.01295
G1 X85.943 Y87.693 E.11782
G1 X86.45 Y87.693 E.01295
G1 X86.45 Y92.307 E.11782
G1 X86.958 Y92.307 E.01295
G1 X86.958 Y87.693 E.11782
G1 X87.465 Y87.693 E.01295
G1 X87.465 Y92.307 E.11782
G1 X87.972 Y92.307 E.01295
G1 X87.972 Y87.693 E.11782
G1 X88.479 Y87.693 E.01295
G1 X88.479 Y92.307 E.11782
G1 X88.986 Y92.307 E.01295
G1 X88.986 Y87.693 E.11782
G1 X89.493 Y87.693 E.01295
G1 X89.493 Y92.307 E.11782
G1 X90 Y92.307 E.01295
G1 X90 Y87.693 E.11782
G1 X90.507 Y87.693 E.01295
G1 X90.507 Y92.307 E.11782
G1 X91.014 Y92.307 E.01295
G1 X91.014 Y87.693 E.11782
G1 X91.521 Y87.693 E.01295
G1 X91.521 Y92.307 E.11782
G1 X92.028 Y92.307 E.01295
G1 X92.028 Y87.693 E.11782
G1 X92.535 Y87.693 E.01295
G1 X92.535 Y92.307 E.11782
G1 X93.042 Y92.307 E.01295
G1 X93.042 Y87.693 E.11782
G1 X93.55 Y87.693 E.01295
G1 X93.55 Y92.307 E.11782
G1 X94.057 Y92.307 E.01295
M73 P11 R7
G1 X94.057 Y87.693 E.11782
G1 X94.564 Y87.693 E.01295
G1 X94.564 Y92.307 E.11782
G1 X95.071 Y92.307 E.01295
G1 X95.071 Y87.693 E.11782
G1 X95.578 Y87.693 E.01295
G1 X95.578 Y92.307 E.11782
G1 X96.085 Y92.307 E.01295
G1 X96.085 Y87.693 E.11782
G1 X96.592 Y87.693 E.01295
G1 X96.592 Y92.307 E.11782
G1 X97.099 Y92.307 E.01295
G1 X97.099 Y87.693 E.11782
G1 X97.606 Y87.693 E.01295
G1 X97.606 Y92.307 E.11782
G1 X98.113 Y92.307 E.01295
G1 X98.113 Y87.693 E.11782
G1 X98.62 Y87.693 E.01295
G1 X98.62 Y92.307 E.11782
G1 X99.127 Y92.307 E.01295
G1 X99.127 Y87.693 E.11782
G1 X99.635 Y87.693 E.01295
G1 X99.635 Y92.307 E.11782
G1 X100.142 Y92.307 E.01295
G1 X100.142 Y87.693 E.11782
G1 X100.649 Y87.693 E.01295
G1 X100.649 Y92.307 E.11782
G1 X101.156 Y92.307 E.01295
G1 X101.156 Y87.693 E.11782
G1 X101.663 Y87.693 E.01295
G1 X101.663 Y92.307 E.11782
G1 X102.17 Y92.307 E.01295
G1 X102.17 Y87.693 E.11782
G1 X102.677 Y87.693 E.01295
G1 X102.677 Y92.307 E.11782
G1 X103.184 Y92.307 E.01295
G1 X103.184 Y87.693 E.11782
G1 X103.691 Y87.693 E.01295
M73 P12 R7
G1 X103.691 Y92.307 E.11782
G1 X104.198 Y92.307 E.01295
G1 X104.198 Y87.693 E.11782
G1 X104.705 Y87.693 E.01295
G1 X104.705 Y92.307 E.11782
G1 X105.212 Y92.307 E.01295
G1 X105.212 Y87.693 E.11782
G1 X105.719 Y87.693 E.01295
G1 X105.719 Y92.307 E.11782
G1 X106.227 Y92.307 E.01295
G1 X106.227 Y87.693 E.11782
G1 X106.734 Y87.693 E.01295
G1 X106.734 Y92.307 E.11782
G1 X107.241 Y92.307 E.01295
G1 X107.241 Y87.693 E.11782
G1 X107.748 Y87.693 E.01295
G1 X107.748 Y92.307 E.11782
G1 X108.255 Y92.307 E.01295
G1 X108.255 Y87.693 E.11782
G1 X108.762 Y87.693 E.01295
G1 X108.762 Y92.307 E.11782
G1 X109.269 Y92.307 E.01295
G1 X109.269 Y87.693 E.11782
G1 X109.776 Y87.693 E.01295
G1 X109.776 Y92.307 E.11782
G1 X110.283 Y92.307 E.01295
G1 X110.283 Y87.693 E.11782
G1 X110.79 Y87.693 E.01295
G1 X110.79 Y92.307 E.11782
G1 X111.297 Y92.307 E.01295
G1 X111.297 Y87.693 E.11782
G1 X111.804 Y87.693 E.01295
G1 X111.804 Y92.307 E.11782
G1 X112.311 Y92.307 E.01295
G1 X112.311 Y87.693 E.11782
G1 X112.819 Y87.693 E.01295
G1 X112.819 Y92.307 E.11782
G1 X113.326 Y92.307 E.01295
M73 P13 R7
G1 X113.326 Y87.693 E.11782
G1 X113.833 Y87.693 E.01295
G1 X113.833 Y92.307 E.11782
G1 X114.34 Y92.307 E.01295
G1 X114.34 Y87.693 E.11782
G1 X114.847 Y87.693 E.01295
G1 X114.847 Y92.307 E.11782
G1 X115.354 Y92.307 E.01295
G1 X115.354 Y87.693 E.11782
G1 X115.861 Y87.693 E.01295
G1 X115.861 Y92.307 E.11782
G1 X116.368 Y92.307 E.01295
G1 X116.368 Y87.693 E.11782
G1 X116.875 Y87.693 E.01295
G1 X116.875 Y92.307 E.11782
G1 X117.382 Y92.307 E.01295
G1 X117.382 Y87.693 E.11782
G1 X117.889 Y87.693 E.01295
G1 X117.889 Y92.307 E.11782
G1 X118.396 Y92.307 E.01295
G1 X118.396 Y87.693 E.11782
G1 X118.904 Y87.693 E.01295
G1 X118.904 Y92.307 E.11782
G1 X119.411 Y92.307 E.01295
G1 X119.411 Y87.693 E.11782
G1 X119.918 Y87.693 E.01295
G1 X119.918 Y92.307 E.11782
G1 X120.425 Y92.307 E.01295
G1 X120.425 Y87.693 E.11782
G1 X120.932 Y87.693 E.01295
G1 X120.932 Y92.307 E.11782
G1 X121.439 Y92.307 E.01295
G1 X121.439 Y87.693 E.11782
G1 X121.946 Y87.693 E.01295
G1 X121.946 Y92.307 E.11782
G1 X122.453 Y92.307 E.01295
G1 X122.453 Y87.693 E.11782
G1 X122.96 Y87.693 E.01295
G1 X122.96 Y92.307 E.11782
M73 P14 R7
G1 X123.467 Y92.307 E.01295
G1 X123.467 Y87.693 E.11782
G1 X123.974 Y87.693 E.01295
G1 X123.974 Y92.307 E.11782
G1 X124.481 Y92.307 E.01295
G1 X124.481 Y87.693 E.11782
G1 X124.988 Y87.693 E.01295
G1 X124.988 Y92.307 E.11782
G1 X125.496 Y92.307 E.01295
G1 X125.496 Y87.693 E.11782
G1 X126.003 Y87.693 E.01295
G1 X126.003 Y92.307 E.11782
G1 X126.51 Y92.307 E.01295
G1 X126.51 Y87.693 E.11782
G1 X127.017 Y87.693 E.01295
G1 X127.017 Y92.307 E.11782
G1 X127.524 Y92.307 E.01295
G1 X127.524 Y87.693 E.11782
G1 X128.031 Y87.693 E.01295
G1 X128.031 Y92.307 E.11782
G1 X128.538 Y92.307 E.01295
G1 X128.538 Y87.693 E.11782
G1 X129.045 Y87.693 E.01295
G1 X129.045 Y92.307 E.11782
G1 X129.552 Y92.307 E.01295
G1 X129.552 Y87.693 E.11782
G1 X130.059 Y87.693 E.01295
G1 X130.059 Y92.307 E.11782
G1 X130.566 Y92.307 E.01295
G1 X130.566 Y87.693 E.11782
G1 X131.073 Y87.693 E.01295
G1 X131.073 Y92.307 E.11782
G1 X131.58 Y92.307 E.01295
G1 X131.58 Y87.693 E.11782
G1 X132.088 Y87.693 E.01295
G1 X132.088 Y92.307 E.11782
G1 X132.595 Y92.307 E.01295
G1 X132.595 Y87.693 E.11782
G1 X133.102 Y87.693 E.01295
M73 P15 R7
G1 X133.102 Y92.307 E.11782
G1 X133.609 Y92.307 E.01295
G1 X133.609 Y87.693 E.11782
G1 X134.116 Y87.693 E.01295
G1 X134.116 Y92.307 E.11782
G1 X134.623 Y92.307 E.01295
G1 X134.623 Y87.693 E.11782
G1 X135.13 Y87.693 E.01295
G1 X135.13 Y92.307 E.11782
G1 X135.637 Y92.307 E.01295
G1 X135.637 Y87.693 E.11782
G1 X136.144 Y87.693 E.01295
G1 X136.144 Y92.307 E.11782
G1 X136.651 Y92.307 E.01295
G1 X136.651 Y87.693 E.11782
G1 X137.158 Y87.693 E.01295
G1 X137.158 Y92.307 E.11782
G1 X137.665 Y92.307 E.01295
G1 X137.665 Y87.693 E.11782
G1 X138.173 Y87.693 E.01295
G1 X138.173 Y92.307 E.11782
G1 X138.68 Y92.307 E.01295
G1 X138.68 Y87.693 E.11782
G1 X139.187 Y87.693 E.01295
G1 X139.187 Y92.307 E.11782
G1 X139.694 Y92.307 E.01295
G1 X139.694 Y87.693 E.11782
G1 X140.201 Y87.693 E.01295
G1 X140.201 Y92.307 E.11782
G1 X140.708 Y92.307 E.01295
G1 X140.708 Y87.693 E.11782
M204 P1000
; stop printing object servo_connector.stl id:0 copy 0
M106 S84.15
;LAYER_CHANGE
;Z:0.6
;HEIGHT:0.4
;BEFORE_LAYER_CHANGE
G92 E0.0
;0.6


G1 E-2.24 F4200
;WIPE_START
G1 F7200
G1 X140.708 Y89.339 E-.912
;WIPE_END
G1 E-.048 F4200
G1 Z.4 F720
G1 Z.6
;AFTER_LAYER_CHANGE
;0.6
G1 Z.8
G1 X143.085 Y89.339 F9000
G1 Z.6 F720
G1 E3.2 F2400
;TYPE:Skirt/Brim
;WIDTH:0.42
G1 F1838
G1 X143.085 Y92.307 E.16496
G1 X142.693 Y93.614 E.07582
G1 X141.648 Y94.491 E.07582
G1 X140.708 Y94.684 E.05332
G1 X39.292 Y94.684 E5.63577
G1 X37.985 Y94.293 E.07582
M73 P16 R7
G1 X37.109 Y93.247 E.07582
G1 X36.915 Y92.307 E.05332
G1 X36.915 Y87.693 E.25641
G1 X37.307 Y86.386 E.07582
G1 X38.352 Y85.509 E.07582
G1 X39.292 Y85.316 E.05332
G1 X140.708 Y85.316 E5.63577
G1 X142.015 Y85.707 E.07582
M73 P17 R7
G1 X142.891 Y86.753 E.07582
G1 X143.085 Y87.693 E.05332
G1 X143.085 Y89.279 E.08812
; printing object servo_connector.stl id:0 copy 0
G1 E-2.24 F4200
;WIPE_START
G1 F7200
G1 X143.085 Y90.924 E-.912
;WIPE_END
G1 E-.048 F4200
G1 Z.8 F720
G1 X42.805 Y90.284 F9000
G1 Z.6 F720
G1 E3.2 F2400
M204 P800
;TYPE:External perimeter
;WIDTH:0.610529
;HEIGHT:0.2
G1 F1800
G1 X42.805 Y89.716 E.02679
G1 X137.195 Y89.716 E4.45489
G1 X137.195 Y90.284 E.02679
M73 P18 R7
G1 X42.865 Y90.284 E4.45206
M204 P1000
; stop printing object servo_connector.stl id:0 copy 0
M106 S170.85
;LAYER_CHANGE
;Z:0.8
;HEIGHT:0.2
;BEFORE_LAYER_CHANGE
G92 E0.0
;0.8


G1 E-2.24 F4200
;WIPE_START
G1 F7200
G1 X42.805 Y89.716 E-.3163
G1 X43.88 Y89.716 E-.5957
;WIPE_END
G1 E-.048 F4200
G1 Z.8 F720
;AFTER_LAYER_CHANGE
;0.8
G1 Z1
G1 X43.88 Y85.316 F9000
G1 Z.8 F720
G1 E3.2 F2400
;TYPE:Skirt/Brim
;WIDTH:0.42
G1 X140.708 Y85.316 E3.03596
G1 X142.015 Y85.707 E.04278
M73 P19 R7
G1 X142.891 Y86.753 E.04278
G1 X143.085 Y87.693 E.03008
G1 X143.085 Y92.307 E.14467
G1 X142.693 Y93.614 E.04278
G1 X141.648 Y94.491 E.04278
G1 X140.708 Y94.684 E.03008
G1 X39.292 Y94.684 E3.17982
G1 X37.985 Y94.293 E.04278
G1 X37.109 Y93.247 E.04278
G1 X36.915 Y92.307 E.03008
G1 X36.915 Y87.693 E.14467
G1 X37.307 Y86.386 E.04278
G1 X38.352 Y85.509 E.04278
G1 X39.292 Y85.316 E.03008
G1 X43.82 Y85.316 E.14198
; printing object servo_connector.stl id:0 copy 0
G1 E-2.24 F4200
;WIPE_START
M73 P19 R6
G1 F7200
G1 X45.466 Y85.316 E-.912
;WIPE_END
G1 E-.048 F4200
M73 P20 R6
G1 Z1 F720
G1 X42.725 Y90.807 F9000
G1 Z.8 F720
G1 E3.2 F2400
;TYPE:Overhang perimeter
;WIDTH:0.449999
G1 F1500
G1 X42.725 Y90.789 E.00061
