; generated by PrusaSlicer 2.5.2 on 2023-06-06 at 18:50:27 UTC


;
;

;
;
; 

; external perimeters extrusion width = 0.45mm
; perimeters extrusion width = 0.45mm
; infill extrusion width = 0.45mm
; solid infill extrusion width = 0.45mm
; top infill extrusion width = 0.40mm
; support material extrusion width = 0.35mm
; first layer extrusion width = 0.42mm

M73 P0 R30
M201 X2500 Y2500 Z400 E5000 ; sets maximum accelerations, mm/sec^2
M203 X180 Y180 Z12 E80 ; sets maximum feedrates, mm / sec
M204 P1250 R1250 T2500 ; sets acceleration (P, T) and retract acceleration (R), mm/sec^2
M205 X8.00 Y8.00 Z2.00 E10.00 ; sets the jerk limits, mm/sec
M205 S0 T0 ; sets the minimum extruding and travel feed rate, mm/sec
M107
;TYPE:Custom
M862.3 P "MINI" ; printer model check
G90 ; use absolute coordinates
M83 ; extruder relative mode
M104 S170 ; set extruder temp for bed leveling
M140 S60 ; set bed temp
M109 R170 ; wait for bed leveling temp
M190 S60 ; wait for bed temp
M204 T1250 ; set travel acceleration
G28 ; home all without mesh bed level
G29 ; mesh bed leveling 
M204 T2500 ; restore travel acceleration
M104 S215 ; set extruder temp
G92 E0
G1 Y-2 X179 F2400
G1 Z3 F720
M109 S215 ; wait for extruder temp

; intro line
G1 X170 F1000
G1 Z0.2 F720
G1 X110 E8 F900
G1 X40 E10 F700
G92 E0

M221 S95 ; set flow
G21 ; set units to millimeters
G90 ; use absolute coordinates
M83 ; use relative distances for extrusion
M900 K0.2 ; Filament gcode LA 1.5
; ; Filament gcode LA 1.0
M107
;LAYER_CHANGE
;Z:0.2
;HEIGHT:0.2
;BEFORE_LAYER_CHANGE
G92 E0.0
;0.2


G1 E-3.2 F4200
G1 Z.2 F720
;AFTER_LAYER_CHANGE
;0.2
G1 Z.4
G1 X69.705 Y81.623 F9000
G1 Z.2 F720
G1 E3.2 F2400
M204 P800
;TYPE:Skirt/Brim
;WIDTH:0.42
G1 F1200
G1 X70.751 Y80.747 E.04278
G1 X71.69 Y80.553 E.03008
G1 X109.69 Y80.553 E1.19146
G1 X110.997 Y80.945 E.04278
G1 X111.874 Y81.99 E.04278
G1 X112.067 Y82.93 E.03008
M73 P1 R30
G1 X112.067 Y87.43 E.14109
G1 X111.986 Y88.048 E.01955
G1 X103.683 Y118.875 E1.00098
G1 X103.318 Y119.846 E.03253
G1 X102.674 Y120.856 E.03755
G1 X101.866 Y121.664 E.03585
G1 X100.856 Y122.308 E.03755
G1 X99.781 Y122.699 E.03585
G1 X98.594 Y122.855 E.03755
G1 X82.525 Y122.844 E.50383
G1 X81.634 Y122.706 E.02827
G1 X80.955 Y122.495 E.02231
G1 X80.293 Y122.187 E.0229
G1 X79.515 Y121.664 E.02938
G1 X78.84 Y121.014 E.02938
G1 X78.428 Y120.478 E.0212
G1 X77.975 Y119.658 E.02938
G1 X77.725 Y118.971 E.0229
G1 X69.395 Y88.048 E1.00414
G1 X69.313 Y87.43 E.01955
G1 X69.313 Y82.93 E.14109
G1 X69.688 Y81.681 E.0409
M204 P1000
; printing object servo_mount.stl id:0 copy 0
G1 E-2.24 F4200
;WIPE_START
G1 F7200
G1 X70.751 Y80.747 E-.78411
G1 X70.977 Y80.7 E-.12789
;WIPE_END
G1 E-.048 F4200
G1 Z.4 F720
G1 X108.903 Y86.643 F9000
G1 Z.2 F720
G1 E3.2 F2400
M204 P800
;TYPE:Perimeter
;WIDTH:0.419999
G1 F1200
G1 X104.435 Y86.645 E.14008
G1 X103.761 Y86.718 E.02126
G1 X102.846 Y87.02 E.03021
G1 X102.278 Y87.358 E.02072
G1 X101.764 Y87.807 E.02142
G1 X101.178 Y88.602 E.03097
G1 X100.818 Y89.522 E.03096
G1 X100.703 Y90.425 E.02854
G1 X100.703 Y116.719 E.82444
G1 X100.679 Y117.73 E.03169
G1 X100.603 Y118.103 E.01195
G1 X100.41 Y118.574 E.01596
G1 X100.153 Y118.909 E.01325
G1 X99.868 Y119.199 E.01275
G1 X99.435 Y119.477 E.01612
G1 X98.862 Y119.658 E.01884
G1 X98.46 Y119.693 E.01265
G1 X91.706 Y119.693 E.21177
G1 X92.079 Y119.348 E.01591
G1 X92.357 Y118.865 E.01749
G1 X92.471 Y118.319 E.01749
G1 X92.411 Y117.764 E.0175
G1 X92.183 Y117.255 E.01749
G1 X91.809 Y116.841 E.01749
G1 X91.43 Y116.617 E.01381
G1 X97.712 Y116.617 E.19698
G1 X97.809 Y116.609 E.00308
G1 X98.061 Y116.496 E.00865
G1 X98.239 Y116.257 E.00935
G1 X98.277 Y116.052 E.00654
G1 X98.277 Y92.409 E.74131
G1 X98.196 Y92.116 E.00953
G1 X98.009 Y91.927 E.00832
G1 X97.712 Y91.843 E.00969
G1 X91.43 Y91.843 E.19698
G1 X91.665 Y91.723 E.0083
G1 X92.079 Y91.348 E.01749
G1 X92.357 Y90.865 E.01749
G1 X92.471 Y90.319 E.01749
G1 X92.411 Y89.764 E.0175
G1 X92.183 Y89.255 E.01749
G1 X91.809 Y88.841 E.01749
G1 X91.325 Y88.564 E.01749
G1 X90.748 Y88.45 E.01842
G1 X90.215 Y88.511 E.01683
G1 X89.715 Y88.737 E.01721
G1 X89.301 Y89.112 E.0175
G1 X89.022 Y89.599 E.01761
G1 X88.91 Y90.142 E.01737
G1 X88.979 Y90.725 E.01842
G1 X89.199 Y91.208 E.01663
G1 X89.572 Y91.619 E.0174
G1 X89.951 Y91.843 E.01381
G1 X83.669 Y91.843 E.19698
G1 X83.415 Y91.903 E.00818
G1 X83.185 Y92.116 E.00982
G1 X83.103 Y92.409 E.00953
G1 X83.112 Y116.149 E.74437
G1 X83.243 Y116.424 E.00954
G1 X83.383 Y116.54 E.00572
G1 X83.669 Y116.617 E.00927
G1 X89.951 Y116.617 E.19698
G1 X89.572 Y116.841 E.01381
G1 X89.197 Y117.255 E.0175
G1 X88.969 Y117.764 E.01748
G1 X88.911 Y118.326 E.01772
G1 X89.034 Y118.888 E.01805
G1 X89.302 Y119.348 E.01669
G1 X89.674 Y119.693 E.01591
G1 X82.92 Y119.693 E.21177
G1 X82.369 Y119.62 E.01743
G1 X81.915 Y119.455 E.01516
G1 X81.48 Y119.181 E.01612
G1 X81.074 Y118.738 E.01884
G1 X80.893 Y118.425 E.01131
G1 X80.712 Y117.852 E.01884
G1 X80.677 Y117.45 E.01265
G1 X80.675 Y90.375 E.84891
G1 X80.603 Y89.702 E.02122
G1 X80.381 Y88.993 E.02331
G1 X80.143 Y88.495 E.01731
G1 X79.741 Y87.943 E.02142
G1 X79.021 Y87.302 E.03021
G1 X78.445 Y86.979 E.02072
G1 X77.799 Y86.758 E.02141
G1 X76.896 Y86.643 E.02855
G1 X72.477 Y86.643 E.13853
G1 X72.477 Y83.717 E.09174
G1 X108.903 Y83.717 E1.1421
G1 X108.903 Y86.583 E.08986
M204 P1000
G1 X109.28 Y87.02 F9000
M204 P800
;TYPE:External perimeter
G1 F1200
G1 X104.485 Y87.02 E.15035
G1 X103.875 Y87.078 E.01922
G1 X103.035 Y87.347 E.02765
G1 X102.521 Y87.647 E.01866
G1 X102.063 Y88.037 E.01886
G1 X101.526 Y88.747 E.0279
G1 X101.192 Y89.571 E.0279
G1 X101.08 Y90.425 E.02699
G1 X101.08 Y116.719 E.82444
G1 X101.055 Y117.762 E.03272
M73 P2 R30
G1 X100.967 Y118.201 E.01402
G1 X100.734 Y118.771 E.01931
G1 X100.318 Y119.313 E.02143
G1 X100.11 Y119.488 E.00852
G1 X99.588 Y119.825 E.01947
G1 X98.936 Y120.03 E.02143
G1 X98.477 Y120.07 E.01446
G1 X91.839 Y120.07 E.20811
;WIDTH:0.459393
G1 X90.754 Y120.056 E.0376
;WIDTH:0.478708
G1 X90.244 Y120.041 E.01846
G1 X89.983 Y120.055 E.00948
;WIDTH:0.449354
G1 X89.722 Y120.07 E.00884
;WIDTH:0.419999
G1 X82.818 Y120.063 E.21646
G1 X82.271 Y119.984 E.01733
G1 X81.755 Y119.797 E.01722
G1 X81.23 Y119.466 E.01947
G1 X80.768 Y118.962 E.02143
G1 X80.546 Y118.578 E.0139
G1 X80.34 Y117.926 E.02143
G1 X80.3 Y117.467 E.01446
G1 X80.3 Y90.408 E.84839
G1 X80.243 Y89.815 E.01869
G1 X80.021 Y89.105 E.02331
G1 X79.835 Y88.711 E.01368
G1 X79.486 Y88.221 E.01886
G1 X78.833 Y87.628 E.02765
G1 X78.316 Y87.333 E.01866
G1 X77.749 Y87.131 E.01885
G1 X76.896 Y87.02 E.02699
G1 X72.1 Y87.02 E.15035
G1 X72.1 Y83.34 E.11538
G1 X109.28 Y83.34 E1.16575
G1 X109.28 Y86.96 E.1135
M204 P1000
G1 X108.881 Y87.007 F9000
G1 E-2.24 F4200
;WIPE_START
G1 F7200
G1 X107.635 Y86.981 E-.912
;WIPE_END
G1 E-.048 F4200
G1 Z.4 F720
G1 X83.48 Y92.409 F9000
G1 Z.2 F720
G1 E3.2 F2400
M204 P800
G1 F1200
G1 X83.57 Y92.248 E.00576
G1 X83.669 Y92.22 E.00323
G1 X89.686 Y92.22 E.18867
;WIDTH:0.464724
G1 X89.868 Y92.198 E.00644
;WIDTH:0.509448
G1 X90.051 Y92.175 E.00712
;WIDTH:0.554172
G1 X90.233 Y92.153 E.0078
G1 X90.766 Y92.168 E.02267
;WIDTH:0.524076
G1 X91.312 Y92.179 E.02185
;WIDTH:0.501743
G1 X91.607 Y92.2 E.01127
;WIDTH:0.460871
G1 X91.901 Y92.22 E.01027
;WIDTH:0.419999
G1 X97.712 Y92.22 E.18218
G1 X97.811 Y92.248 E.00323
G1 X97.9 Y92.409 E.00576
G1 X97.9 Y116.052 E.74131
G1 X97.828 Y116.2 E.00517
G1 X97.712 Y116.24 E.00387
G1 X91.694 Y116.24 E.18867
;WIDTH:0.464551
G1 X91.51 Y116.262 E.00651
;WIDTH:0.509103
G1 X91.326 Y116.285 E.0072
;WIDTH:0.553654
G1 X91.141 Y116.307 E.00789
G1 X90.589 Y116.293 E.02343
;WIDTH:0.52518
G1 X90.069 Y116.281 E.02089
;WIDTH:0.501736
G1 X89.774 Y116.261 E.01127
;WIDTH:0.460868
G1 X89.479 Y116.24 E.01027
;WIDTH:0.419999
G1 X83.669 Y116.24 E.18218
G1 X83.527 Y116.176 E.00489
G1 X83.48 Y116.052 E.00415
G1 X83.48 Y92.469 E.73942
M204 P1000
G1 X83.361 Y92.269 F9000
G1 E-2.24 F4200
;WIPE_START
G1 F7200
G1 X83.57 Y92.248 E-.13182
G1 X83.669 Y92.22 E-.05708
G1 X84.974 Y92.22 E-.7231
;WIPE_END
G1 E-.048 F4200
G1 Z.4 F720
G1 X90.231 Y91.617 F9000
G1 Z.2 F720
G1 E3.2 F2400
M204 P800
;WIDTH:0.554178
G1 F1200
G1 X90.128 Y91.547 E.00527
;WIDTH:0.509448
G1 X89.983 Y91.45 E.00677
;WIDTH:0.464724
G1 X89.839 Y91.352 E.00612
;WIDTH:0.419999
G1 X89.534 Y91.035 E.01379
G1 X89.351 Y90.661 E.01305
G1 X89.282 Y90.262 E.01269
G1 X89.359 Y89.768 E.01568
G1 X89.568 Y89.379 E.01385
G1 X89.886 Y89.073 E.01382
G1 X90.282 Y88.882 E.01379
G1 X90.694 Y88.823 E.01305
G1 X91.154 Y88.9 E.0146
G1 X91.542 Y89.108 E.01382
G1 X91.847 Y89.426 E.01382
G1 X92.039 Y89.823 E.01381
G1 X92.099 Y90.26 E.01382
G1 X92.021 Y90.693 E.01382
G1 X91.812 Y91.082 E.01382
G1 X91.494 Y91.387 E.01382
;WIDTH:0.464726
G1 X91.365 Y91.473 E.00543
;WIDTH:0.509452
G1 X91.237 Y91.559 E.00601
;WIDTH:0.554178
G1 X91.108 Y91.645 E.00658
G1 X90.653 Y91.69 E.01944
G1 X90.282 Y91.646 E.01587
M204 P1000
G1 X90.131 Y91.691 F9000
G1 E-2.24 F4200
;WIPE_START
G1 F7200
G1 X90.128 Y91.547 E-.10144
G1 X89.983 Y91.45 E-.09671
G1 X89.839 Y91.352 E-.09671
G1 X89.534 Y91.035 E-.24373
G1 X89.351 Y90.661 E-.23069
G1 X89.307 Y90.407 E-.14272
;WIPE_END
G1 E-.048 F4200
G1 Z.4 F720
G1 X90.975 Y116.801 F9000
G1 Z.2 F720
G1 E3.2 F2400
M204 P800
;WIDTH:0.553654
G1 F1200
G1 X91.105 Y116.815 E.00553
G1 X91.25 Y116.913 E.00745
;WIDTH:0.509103
G1 X91.396 Y117.01 E.0068
;WIDTH:0.464551
G1 X91.542 Y117.108 E.00615
;WIDTH:0.419999
G1 X91.847 Y117.426 E.01382
G1 X92.039 Y117.823 E.01381
G1 X92.099 Y118.26 E.01382
G1 X92.021 Y118.693 E.01382
G1 X91.812 Y119.082 E.01382
G1 X91.494 Y119.387 E.01382
;WIDTH:0.449355
G1 X91.298 Y119.497 E.00761
;WIDTH:0.47871
G1 X91.102 Y119.608 E.00815
G1 X90.659 Y119.653 E.01615
;WIDTH:0.457932
G1 X90.218 Y119.577 E.01541
G1 X89.839 Y119.352 E.01524
;WIDTH:0.419999
G1 X89.534 Y119.035 E.01379
G1 X89.351 Y118.661 E.01305
G1 X89.282 Y118.262 E.01269
G1 X89.36 Y117.767 E.01572
G1 X89.568 Y117.379 E.01381
G1 X89.886 Y117.073 E.01382
;WIDTH:0.464791
G1 X90.015 Y116.987 E.00542
;WIDTH:0.509582
G1 X90.143 Y116.901 E.00599
;WIDTH:0.554373
G1 X90.271 Y116.815 E.00657
G1 X90.702 Y116.772 E.0184
;WIDTH:0.553654
G1 X90.916 Y116.795 E.00913
M204 P1000
G1 E-2.24 F4200
;WIPE_START
G1 F7200
G1 X91.105 Y116.815 E-.10536
G1 X91.25 Y116.913 E-.09726
G1 X91.396 Y117.01 E-.09726
G1 X91.542 Y117.108 E-.09726
G1 X91.847 Y117.426 E-.24423
G1 X92.039 Y117.823 E-.24415
G1 X92.045 Y117.87 E-.0265
;WIPE_END
G1 E-.048 F4200
G1 Z.4 F720
G1 X108.79 Y84.595 F9000
G1 Z.2 F720
G1 E3.2 F2400
M204 P800
;TYPE:Solid infill
;WIDTH:0.421038
G1 F1200
G1 X108.195 Y84 E.02645
G1 X107.661 Y84 E.01681
G1 X108.62 Y84.96 E.04268
G1 X108.62 Y85.495 E.01681
G1 X107.126 Y84 E.06645
G1 X106.591 Y84 E.01681
G1 X108.62 Y86.029 E.09023
G1 X108.62 Y86.36 E.01041
G1 X108.417 Y86.36 E.0064
G1 X106.056 Y84 E.10495
G1 X105.522 Y84 E.01681
G1 X107.882 Y86.361 E.10497
G1 X107.348 Y86.361 E.0168
G1 X104.987 Y84 E.10499
G1 X104.452 Y84 E.01681
G1 X106.814 Y86.362 E.105
G1 X106.279 Y86.362 E.0168
G1 X103.917 Y84 E.10502
G1 X103.383 Y84 E.01681
G1 X105.745 Y86.362 E.10503
G1 X105.211 Y86.363 E.0168
G1 X102.848 Y84 E.10505
G1 X102.313 Y84 E.01681
G1 X104.676 Y86.363 E.10507
G1 X104.165 Y86.386 E.0161
G1 X101.778 Y84 E.1061
G1 X101.244 Y84 E.01681
G1 X103.693 Y86.449 E.1089
G1 X103.284 Y86.575 E.01345
G1 X100.709 Y84 E.11449
G1 X100.174 Y84 E.01681
M73 P2 R29
G1 X102.875 Y86.701 E.12008
G1 X102.521 Y86.882 E.0125
G1 X99.639 Y84 E.12812
G1 X99.105 Y84 E.01681
G1 X102.186 Y87.081 E.137
G1 X101.891 Y87.321 E.01195
G1 X98.57 Y84 E.14764
G1 X98.035 Y84 E.01681
G1 X101.603 Y87.568 E.15864
G1 X101.364 Y87.864 E.01196
G1 X97.501 Y84 E.17179
G1 X96.966 Y84 E.01681
G1 X101.132 Y88.166 E.18524
G1 X101.024 Y88.307 E.00559
G1 X100.919 Y88.488 E.00657
G1 X96.431 Y84 E.19956
G1 X95.896 Y84 E.01681
G1 X100.765 Y88.868 E.21646
G1 X100.61 Y89.249 E.0129
M73 P3 R29
G1 X95.362 Y84 E.23337
G1 X94.827 Y84 E.01681
G1 X100.517 Y89.69 E.253
G1 X100.454 Y90.162 E.01498
G1 X94.292 Y84 E.274
G1 X93.757 Y84 E.01681
G1 X100.42 Y90.663 E.29627
G1 X100.42 Y91.198 E.01681
G1 X93.223 Y84 E.32004
G1 X92.688 Y84 E.01681
G1 X100.42 Y91.733 E.34382
G1 X100.42 Y92.267 E.01681
G1 X92.153 Y84 E.36759
G1 X91.618 Y84 E.01681
G1 X100.42 Y92.802 E.39137
G1 X100.42 Y93.337 E.01681
G1 X91.084 Y84 E.41515
G1 X90.549 Y84 E.01681
G1 X100.42 Y93.872 E.43892
G1 X100.42 Y94.406 E.01681
G1 X98.56 Y92.546 E.08272
G1 X98.56 Y92.396 E.00472
G1 X98.441 Y91.97 E.01392
G1 X98.165 Y91.691 E.01235
G1 X98.056 Y91.633 E.00388
G1 X97.823 Y91.567 E.00761
G1 X97.581 Y91.566 E.00762
G1 X90.014 Y84 E.33643
G1 X89.479 Y84 E.01681
G1 X97.045 Y91.566 E.3364
G1 X96.51 Y91.565 E.01683
G1 X88.945 Y84 E.33638
G1 X88.41 Y84 E.01681
G1 X95.975 Y91.565 E.33635
G1 X95.439 Y91.564 E.01683
G1 X87.875 Y84 E.33633
G1 X87.34 Y84 E.01681
G1 X94.904 Y91.563 E.3363
G1 X94.369 Y91.563 E.01683
G1 X92.722 Y89.916 E.07323
G1 X92.752 Y90.105 E.00601
G1 X92.734 Y90.464 E.01129
G1 X93.833 Y91.562 E.04885
G1 X93.298 Y91.562 E.01683
G1 X92.639 Y90.903 E.02929
G1 X92.469 Y91.267 E.01265
G1 X92.932 Y91.731 E.02062
M204 P1000
G1 E-2.24 F4200
;WIPE_START
G1 F7200
G1 X92.469 Y91.267 E-.36336
G1 X92.639 Y90.903 E-.22293
G1 X93.055 Y91.318 E-.32571
;WIPE_END
G1 E-.048 F4200
G1 Z.4 F720
G1 X91.22 Y88.415 F9000
G1 Z.2 F720
G1 E3.2 F2400
M204 P800
G1 F1200
G1 X86.806 Y84 E.19629
G1 X86.271 Y84 E.01681
G1 X90.461 Y88.19 E.1863
G1 X90.161 Y88.233 E.00954
G1 X90.017 Y88.281 E.00476
G1 X85.736 Y84 E.19034
G1 X85.202 Y84 E.01681
G1 X89.653 Y88.452 E.19794
G1 X89.341 Y88.674 E.01206
G1 X84.667 Y84 E.20782
G1 X84.132 Y84 E.01681
G1 X89.079 Y88.947 E.21995
G1 X89.011 Y89.017 E.00305
G1 X88.874 Y89.276 E.00924
G1 X83.597 Y84 E.2346
G1 X83.063 Y84 E.01681
G1 X88.712 Y89.649 E.25118
G1 X88.63 Y90.102 E.01446
G1 X82.528 Y84 E.2713
G1 X81.993 Y84 E.01681
G1 X88.687 Y90.694 E.29764
G1 X88.779 Y91.012 E.0104
G1 X88.951 Y91.344 E.01176
G1 X89.109 Y91.561 E.00843
G1 X89.019 Y91.561 E.00283
G1 X81.458 Y84 E.33617
G1 X80.924 Y84 E.01681
G1 X88.485 Y91.561 E.3362
G1 X87.951 Y91.562 E.01679
G1 X80.389 Y84 E.33623
G1 X79.854 Y84 E.01681
G1 X87.417 Y91.563 E.33626
G1 X86.883 Y91.563 E.01679
G1 X79.319 Y84 E.33629
G1 X78.785 Y84 E.01681
G1 X86.349 Y91.564 E.33632
G1 X85.814 Y91.565 E.01679
G1 X78.25 Y84 E.33635
G1 X77.715 Y84 E.01681
G1 X85.28 Y91.565 E.33638
G1 X84.746 Y91.566 E.01679
M73 P4 R29
G1 X77.18 Y84 E.33641
G1 X76.646 Y84 E.01681
G1 X84.212 Y91.567 E.33643
G1 X83.678 Y91.567 E.01679
G1 X76.111 Y84 E.33646
G1 X75.576 Y84 E.01681
G1 X78.145 Y86.568 E.1142
G1 X77.841 Y86.478 E.00997
G1 X77.473 Y86.432 E.01164
G1 X75.041 Y84 E.10813
G1 X74.507 Y84 E.01681
G1 X76.867 Y86.36 E.10495
G1 X76.332 Y86.36 E.01681
G1 X73.972 Y84 E.10495
G1 X73.437 Y84 E.01681
G1 X75.797 Y86.36 E.10495
G1 X75.263 Y86.36 E.01681
G1 X72.903 Y84 E.10495
G1 X72.76 Y84 E.00447
G1 X72.76 Y84.392 E.01234
G1 X74.728 Y86.36 E.0875
G1 X74.193 Y86.36 E.01681
G1 X72.76 Y84.927 E.06372
G1 X72.76 Y85.462 E.01681
G1 X73.659 Y86.36 E.03994
G1 X73.124 Y86.36 E.01681
G1 X72.59 Y85.827 E.02371
M204 P1000
G1 E-2.24 F4200
;WIPE_START
G1 F7200
G1 X73.124 Y86.36 E-.41796
G1 X73.659 Y86.36 E-.29633
G1 X73.406 Y86.108 E-.19771
;WIPE_END
G1 E-.048 F4200
G1 Z.4 F720
G1 X80.453 Y88.877 F9000
G1 Z.2 F720
G1 E3.2 F2400
M204 P800
G1 F1200
G1 X83.25 Y91.674 E.12436
G1 X82.975 Y91.934 E.01189
G1 X80.915 Y89.873 E.09161
G1 X80.96 Y90.453 E.0183
G1 X82.838 Y92.332 E.08351
G1 X82.82 Y92.396 E.0021
G1 X82.821 Y92.849 E.01424
G1 X80.96 Y90.988 E.08272
G1 X80.96 Y91.523 E.01681
G1 X82.821 Y93.384 E.08273
G1 X82.821 Y93.919 E.01682
G1 X80.96 Y92.058 E.08275
G1 X80.96 Y92.592 E.01681
G1 X82.821 Y94.454 E.08276
G1 X82.822 Y94.989 E.01682
G1 X80.96 Y93.127 E.08277
G1 X80.96 Y93.662 E.01681
G1 X82.822 Y95.524 E.08278
G1 X82.822 Y96.059 E.01682
G1 X80.96 Y94.197 E.08279
G1 X80.96 Y94.731 E.01681
G1 X82.822 Y96.594 E.0828
G1 X82.823 Y97.129 E.01682
G1 X80.96 Y95.266 E.08281
G1 X80.96 Y95.801 E.01681
G1 X82.823 Y97.664 E.08283
G1 X82.823 Y98.199 E.01682
G1 X80.96 Y96.336 E.08284
G1 X80.96 Y96.87 E.01681
G1 X82.823 Y98.734 E.08285
G1 X82.824 Y99.269 E.01682
G1 X80.96 Y97.405 E.08286
G1 X80.96 Y97.94 E.01681
G1 X82.824 Y99.804 E.08287
